P2
256 256
255
193 190 191 192 190 190 192 191 192 190 191 191 191 192 195 195 194 196 195 196 196 197 195 194 194 193 194 196 194 194 196 196 197 196 196 197 197 196 195 194 193 193 193 192 192 194 194 194 194 194 194 192 190 193 194 195 196 197 198 198 198 198 198 198 199 198 197 197 197 199 198 199 199 199 199 197 197 199 197 196 196 198 199 198 198 199 199 198 196 196 196 196 197 198 199 198 198 198 196 195 197 197 198 196 200 198 198 195 195 195 194 195 194 197 198 199 201 200 200 199 198 199 199 198 198 196 197 196 196 196 199 199 199 200 200 200 196 196 196 196 196 194 196 198 200 198 198 200 200 201 201 202 201 200 199 199 198 198 198 196 199 199 198 199 199 200 199 199 200 200 197 197 201 202 200 199 201 196 197 198 197 199 201 200 199 196 195 197 198 198 199 199 199 199 198 199 199 198 198 198 199 197 197 200 199 199 197 199 199 197 197 199 197 200 200 199 198 196 195 198 198 198 199 199 195 196 197 196 196 191 193 198 197 195 196 194 195 196 196 197 195 195 194 191 191 190 188 190 195 192 191 191 193 194 194 193 
193 192 192 194 192 192 193 193 192 192 192 192 189 179 183 191 194 194 193 193 194 195 195 194 194 195 195 195 194 195 196 195 196 195 195 195 196 196 194 194 195 195 195 194 196 196 197 197 196 196 197 198 197 196 195 195 197 196 195 196 196 197 197 197 194 196 196 198 197 197 198 196 198 199 199 198 198 199 198 197 194 197 197 192 198 198 196 197 197 194 194 199 198 198 198 198 198 199 199 199 201 198 198 199 201 201 201 200 199 199 200 200 198 197 193 194 197 198 200 201 199 200 200 199 201 200 198 198 197 198 199 199 201 201 200 200 200 200 200 200 199 197 197 197 199 198 200 200 200 198 196 194 192 196 198 198 201 201 200 199 200 201 199 198 200 200 201 201 200 200 199 198 199 199 199 200 199 198 199 201 199 198 200 201 198 198 199 199 199 197 197 198 199 198 197 198 201 200 199 199 200 199 199 199 199 201 201 200 201 201 199 199 200 199 199 198 199 200 199 199 199 198 199 198 200 199 199 199 198 197 198 198 197 198 196 195 195 196 195 196 195 194 195 194 193 193 194 193 196 195 192 191 192 192 193 194 
193 192 192 192 193 193 192 194 192 194 194 194 193 191 187 189 194 194 193 192 193 193 195 195 195 195 195 193 194 195 195 195 196 195 196 196 196 196 196 196 195 196 197 197 198 199 199 199 199 199 199 199 197 197 197 197 199 200 199 197 198 197 198 198 197 198 197 196 198 195 195 197 196 198 197 198 199 198 196 198 198 199 200 199 200 200 198 196 199 200 201 200 196 197 199 199 197 193 193 197 198 200 201 201 201 200 201 201 202 202 201 200 200 201 199 197 194 195 196 196 195 193 192 193 195 197 200 201 200 199 198 199 199 199 199 200 200 199 200 200 199 200 200 200 198 197 196 195 196 200 198 196 196 197 199 200 200 199 200 200 199 198 199 199 200 200 201 201 202 199 199 199 199 199 198 200 198 197 197 199 198 201 201 201 199 199 198 199 199 199 198 198 199 197 194 193 193 196 196 196 196 197 197 197 198 199 200 200 200 200 200 199 199 198 198 198 197 198 198 198 199 198 198 197 199 198 199 198 199 198 198 199 198 197 196 197 197 196 196 197 196 195 194 194 194 194 195 196 192 192 194 194 193 192 193 193 
187 187 189 191 191 192 192 192 194 194 194 194 194 195 194 191 192 192 194 195 195 194 195 194 193 195 196 195 195 194 193 192 192 194 194 195 194 194 195 197 197 198 197 197 197 195 194 196 195 194 197 198 197 197 197 197 196 197 199 199 199 198 199 199 199 198 198 198 199 199 197 196 196 196 197 199 200 200 198 195 193 194 197 198 199 199 199 199 196 198 198 198 197 197 198 199 199 197 193 190 189 194 196 198 200 199 198 196 198 200 201 200 201 199 199 199 198 199 198 197 197 195 192 192 188 191 195 198 201 201 200 199 197 196 198 198 199 195 195 199 198 199 200 199 199 198 198 200 197 197 198 198 199 199 199 201 199 199 200 200 199 197 197 200 201 201 199 200 201 201 200 200 199 197 198 198 200 199 199 198 199 198 199 200 200 200 199 200 197 199 198 197 197 197 196 196 196 197 198 198 198 197 196 195 193 194 196 198 199 199 200 201 198 196 197 197 195 197 198 197 198 198 197 195 193 189 188 191 193 194 195 195 196 197 197 196 195 196 196 196 196 196 196 196 193 194 194 195 194 193 194 194 193 193 192 192 
186 185 188 190 190 192 192 191 193 193 193 194 194 194 192 190 185 183 183 187 191 192 193 195 195 195 195 196 195 195 194 195 196 197 196 194 193 194 193 192 192 192 194 194 193 191 190 188 188 189 190 190 191 194 196 196 196 196 196 196 196 196 196 197 197 196 197 197 197 197 198 196 192 189 191 194 197 199 200 199 199 196 193 194 191 190 192 194 194 194 194 194 195 196 196 197 198 198 200 200 199 198 198 198 199 197 195 194 192 191 191 191 191 193 195 195 194 196 197 196 199 199 201 200 200 197 198 199 200 202 200 200 200 200 199 199 197 195 196 199 197 199 200 200 199 198 199 201 201 201 202 201 200 200 200 199 198 198 199 196 192 192 194 195 192 196 199 200 201 201 199 200 201 200 200 199 196 198 199 199 195 196 195 195 196 196 198 196 199 198 198 198 197 197 198 198 200 200 198 198 200 199 199 198 194 191 189 189 187 187 189 192 194 194 197 198 197 197 197 198 198 196 197 199 197 195 193 194 196 196 196 194 191 192 193 192 195 197 197 198 198 196 196 194 195 195 194 194 195 195 195 193 193 194 194 193 
192 193 193 193 193 193 193 192 192 191 192 193 194 194 195 194 196 196 194 195 194 195 194 194 195 194 195 193 195 195 193 193 195 195 194 195 196 196 196 195 192 191 194 197 196 198 199 196 198 198 198 198 198 197 198 198 198 198 197 198 198 196 196 198 197 198 198 199 199 199 199 199 201 201 198 197 197 199 198 199 198 199 199 199 198 196 195 196 198 196 196 198 199 199 199 198 200 201 200 199 198 200 201 201 200 199 199 200 199 199 199 199 199 197 197 198 198 201 202 202 200 199 200 199 199 197 190 185 186 191 195 199 200 202 202 201 201 200 200 201 200 201 200 201 201 201 202 202 202 202 201 201 202 200 200 199 198 197 198 199 196 197 197 196 195 192 191 191 191 195 198 198 200 201 201 201 200 201 202 201 201 202 200 200 199 196 196 197 197 199 199 200 202 202 201 200 200 199 200 199 199 199 199 200 200 200 200 200 200 198 194 192 188 188 190 193 191 195 197 197 197 198 199 198 199 199 199 198 197 197 197 197 197 196 197 197 197 198 197 196 197 196 197 196 194 193 195 194 192 194 196 194 194 194 193 194 
190 192 192 193 193 192 193 192 192 193 190 187 192 191 191 192 193 195 194 193 193 192 194 194 193 194 194 194 195 194 193 193 194 192 191 192 192 192 193 194 193 193 193 193 193 192 196 198 198 198 197 196 198 197 198 198 198 199 199 199 199 197 197 197 197 197 197 196 198 200 199 199 199 199 198 194 194 196 199 198 198 198 198 199 198 199 199 198 197 198 199 199 198 195 197 198 198 198 198 197 197 197 198 198 199 201 200 200 199 198 198 197 197 197 199 199 200 199 199 199 198 198 198 200 200 200 199 197 195 195 193 194 195 194 195 197 197 199 197 197 199 198 198 200 199 198 197 196 196 198 198 199 198 198 200 199 198 199 199 200 199 200 200 200 201 201 201 200 198 199 199 199 199 199 197 197 194 194 194 194 198 200 200 201 201 200 199 197 197 198 197 198 198 198 200 200 198 200 198 194 196 197 199 198 200 201 201 201 201 201 200 199 196 195 196 196 196 194 193 193 194 197 197 196 197 197 198 198 197 198 198 196 196 196 195 195 190 191 190 192 192 189 189 191 192 192 195 195 195 194 194 192 193 193 192 193 
181 188 190 190 190 191 193 193 193 193 191 191 189 188 189 191 190 192 194 193 192 191 194 195 194 194 194 194 195 194 194 192 190 189 191 194 192 193 193 192 195 194 191 192 193 192 191 192 194 195 197 197 198 197 195 197 197 198 199 200 199 199 200 199 199 197 196 197 199 197 196 193 195 195 197 198 198 196 195 195 195 196 196 197 199 198 198 200 200 198 197 197 197 197 196 196 193 195 195 191 195 198 198 196 196 196 197 197 199 199 200 199 200 199 196 197 199 200 200 200 200 201 200 199 198 200 200 200 201 201 201 199 199 198 197 197 197 198 197 195 193 195 193 193 196 199 199 198 196 196 196 195 195 195 197 198 200 199 199 201 199 201 201 200 200 200 200 200 200 200 199 199 197 198 198 197 196 194 194 192 195 197 198 199 199 200 199 197 198 198 198 196 196 197 195 195 195 197 198 194 188 191 193 194 198 198 199 200 199 197 198 197 194 190 191 194 196 196 195 195 195 193 194 194 194 195 194 195 197 197 197 197 198 197 196 197 196 195 194 196 197 197 194 195 193 191 191 192 193 195 195 194 193 192 189 188 
184 186 187 185 182 183 183 187 188 189 191 193 190 192 193 193 192 192 192 192 189 192 195 194 194 191 191 193 195 195 196 196 196 196 196 198 197 196 195 194 194 195 196 198 198 198 197 196 193 189 188 189 191 194 193 194 190 191 191 186 185 186 188 193 195 196 194 193 193 194 194 196 195 198 198 197 197 197 196 193 192 192 194 194 196 195 194 194 196 195 196 196 194 197 197 194 193 191 193 194 195 197 195 194 198 198 198 198 199 199 198 200 201 199 200 201 200 201 202 201 201 201 201 201 201 201 200 199 200 201 201 200 201 201 202 202 201 200 200 199 199 200 199 198 198 198 199 200 201 200 199 198 198 198 199 198 199 198 198 198 198 195 197 199 200 200 200 201 201 201 200 199 200 199 199 199 199 198 198 198 197 196 191 190 196 196 195 195 198 197 196 197 197 199 198 197 197 198 197 197 197 195 193 192 193 194 195 197 197 198 198 198 199 198 199 198 197 198 198 197 197 196 193 193 193 192 192 192 196 197 195 195 195 194 197 197 197 196 195 195 196 197 197 196 194 195 194 194 193 193 193 193 194 194 194 193 
189 191 191 190 189 187 185 187 188 186 188 191 189 190 192 194 193 194 194 194 195 193 191 193 190 188 188 190 187 184 183 183 188 191 192 191 194 195 195 195 195 195 196 195 196 198 197 198 199 199 197 194 191 191 193 195 196 197 198 196 197 195 192 195 194 196 195 196 199 199 197 195 201 199 197 196 197 197 197 196 197 192 187 185 183 186 190 192 194 194 196 196 198 197 196 197 199 198 197 196 194 194 194 195 192 194 191 191 191 193 194 195 196 197 198 199 199 199 199 200 202 202 202 201 200 199 198 199 200 199 198 198 198 197 199 200 202 202 202 201 201 201 201 201 201 199 198 198 197 198 200 201 200 198 197 197 195 195 193 189 191 191 188 189 191 196 198 199 198 199 200 198 202 200 200 201 200 199 198 198 199 199 197 193 190 191 195 196 198 198 198 199 198 199 199 199 199 198 198 199 199 198 199 199 199 199 197 196 197 197 196 194 197 197 198 198 197 197 198 198 198 197 196 196 196 194 196 195 197 197 196 194 195 194 195 196 196 196 195 196 195 195 198 197 195 194 194 195 194 194 194 192 193 193 193 194 
191 191 191 191 192 193 192 194 193 193 192 192 193 193 193 194 194 194 194 194 194 194 192 191 193 194 191 190 189 188 181 179 182 183 188 191 194 192 193 194 195 194 194 193 195 196 197 197 197 197 198 198 198 198 198 198 197 197 197 197 198 197 197 197 196 195 195 195 196 199 198 197 198 199 198 197 198 198 197 195 196 198 198 198 196 197 197 198 199 199 198 196 198 198 197 197 200 199 198 197 196 196 199 200 197 197 195 195 194 193 193 193 194 195 198 197 196 196 197 198 197 197 198 197 197 195 193 191 195 197 196 197 199 200 199 198 197 196 199 199 200 200 201 202 201 200 200 199 198 199 199 201 201 201 201 200 200 200 200 200 200 200 199 198 199 199 199 200 199 200 201 198 198 200 201 202 201 200 201 201 201 201 201 200 201 199 199 198 196 198 196 194 196 198 197 199 198 197 197 198 196 196 195 192 194 196 196 196 195 194 195 193 193 196 198 197 197 197 198 199 199 198 197 197 198 195 193 190 189 190 193 195 195 195 193 191 194 193 195 196 196 194 195 196 195 195 194 193 193 192 192 193 192 192 193 191 
192 190 190 192 192 192 193 193 194 192 193 192 193 194 193 190 193 193 193 193 191 191 185 181 183 188 187 189 191 193 195 193 193 191 190 191 192 192 192 193 192 193 195 194 195 194 195 195 196 197 198 196 195 196 196 197 196 195 195 195 196 196 196 197 196 197 196 199 198 197 196 194 195 197 197 198 198 195 195 194 197 197 199 198 198 195 190 188 189 190 193 194 195 195 196 198 199 199 198 199 199 199 196 196 199 199 198 199 197 195 196 195 197 196 195 196 196 192 193 194 195 197 197 199 199 199 201 200 199 198 198 198 198 200 202 201 199 198 194 195 198 199 199 198 199 199 199 199 198 200 200 199 199 197 199 202 207 207 206 206 201 200 200 201 202 199 198 200 201 200 201 202 201 201 201 200 200 201 201 202 200 198 199 201 202 200 201 202 198 197 194 193 198 198 198 198 199 198 196 197 197 197 193 193 194 196 196 196 195 196 197 196 198 198 199 199 199 198 197 196 195 196 195 194 193 194 197 197 192 189 189 193 193 196 196 194 194 193 190 188 189 192 192 194 191 192 194 193 191 193 191 190 192 191 192 192 
190 188 186 188 190 189 185 182 185 189 191 192 194 194 192 192 191 191 192 192 192 191 190 187 186 186 188 190 193 194 196 195 192 193 194 194 195 196 196 195 195 193 193 194 196 196 197 196 196 198 199 197 196 196 197 197 197 196 197 196 196 196 197 198 199 199 199 199 199 196 194 194 192 192 194 196 198 197 196 197 198 196 197 197 198 197 195 194 193 192 192 191 192 195 197 199 198 198 199 198 198 198 197 197 197 198 200 200 199 199 199 199 199 199 198 197 197 197 193 192 189 190 192 196 198 200 200 201 200 198 198 196 194 194 195 198 201 203 202 199 199 199 199 197 197 197 198 199 199 200 200 199 204 211 214 213 206 202 197 202 210 214 213 205 200 201 202 202 202 201 201 200 198 198 198 197 196 199 199 197 199 198 197 198 199 199 199 199 199 198 196 192 188 190 194 197 198 199 198 197 198 198 197 194 194 191 194 197 198 196 195 195 196 196 195 196 199 199 198 197 196 197 197 194 192 194 197 198 199 199 197 196 196 194 194 194 193 191 193 192 192 193 193 194 194 194 193 193 195 195 194 193 194 193 193 193 
190 190 187 187 187 190 187 182 180 184 189 191 190 191 191 191 188 189 191 190 192 190 192 195 195 195 195 195 193 193 195 196 194 194 194 194 194 194 195 195 195 195 192 190 190 191 193 194 197 198 196 196 196 197 197 197 197 197 197 198 198 198 198 196 196 198 197 197 199 198 197 197 200 198 197 197 198 198 197 196 195 196 198 197 196 194 195 199 199 198 198 198 197 196 195 196 198 197 197 197 197 197 195 198 198 199 199 199 196 197 198 199 199 198 198 198 198 200 201 200 201 200 200 200 201 201 200 201 200 199 200 199 199 199 197 197 198 200 200 201 201 201 202 202 202 202 201 201 200 197 200 219 224 195 167 153 145 151 155 152 151 160 173 198 212 205 199 199 201 200 197 196 198 196 196 196 195 194 194 192 194 196 194 192 195 196 197 198 198 195 197 197 196 192 188 188 185 188 195 198 198 197 197 196 195 189 186 190 192 195 197 197 197 192 189 189 189 191 193 194 195 195 196 196 196 196 197 196 196 196 196 195 195 196 197 197 195 194 193 190 191 191 192 192 195 195 195 193 194 194 193 192 191 191 193 193 
190 191 191 190 192 192 192 190 192 192 192 191 189 189 190 191 191 191 191 190 192 192 191 192 194 194 195 194 193 192 194 194 195 197 197 196 195 194 193 192 193 193 193 193 193 192 193 191 189 191 191 191 197 196 197 195 194 195 195 196 198 199 197 195 194 193 192 193 195 194 194 194 197 199 197 196 197 196 196 194 195 196 198 198 198 200 199 199 197 198 198 199 197 194 191 189 189 187 188 188 191 193 193 196 196 192 191 194 195 197 196 197 196 197 198 196 196 196 197 200 200 198 196 196 191 193 198 199 200 200 201 201 200 200 201 199 199 198 199 199 198 197 198 200 201 202 202 201 197 208 228 199 154 137 149 158 163 165 168 174 171 164 153 147 163 197 207 199 199 200 200 200 201 202 201 200 197 197 198 197 198 199 198 196 195 196 197 199 199 198 197 197 198 199 197 196 196 192 194 197 196 198 197 197 196 196 195 194 194 195 197 197 199 200 198 196 196 195 194 196 195 195 193 192 189 187 187 191 192 193 194 194 193 189 189 189 188 191 193 192 188 186 185 184 185 188 190 192 190 190 191 190 192 193 193 193 
188 190 191 190 190 192 193 193 193 192 191 191 193 192 190 190 192 193 191 192 193 193 195 195 195 194 193 194 193 194 195 196 195 196 196 197 195 195 194 193 193 194 195 195 195 196 195 197 193 193 193 192 192 194 195 194 195 195 196 197 196 196 195 195 196 195 194 196 196 197 197 198 199 199 200 199 198 196 195 196 197 196 195 195 194 194 195 194 193 193 193 193 196 196 197 195 196 198 198 198 198 198 198 199 199 195 195 195 196 196 196 197 197 198 198 198 198 198 198 199 200 199 200 198 193 188 188 187 190 194 197 198 198 201 202 201 201 200 200 199 198 195 194 196 198 200 201 198 217 218 162 137 148 164 174 180 181 183 183 184 181 181 179 171 157 147 175 206 201 198 197 196 198 199 200 200 200 198 199 199 200 200 199 200 199 200 199 199 199 198 197 197 198 198 198 199 199 199 199 198 196 197 198 198 198 197 197 198 197 196 197 197 196 196 197 197 197 197 195 195 195 194 195 193 196 195 194 194 192 193 195 196 192 192 191 191 192 192 192 194 194 196 195 193 192 190 188 185 187 188 189 187 187 189 191 189 
191 191 190 191 190 190 190 190 192 193 192 194 193 191 191 192 192 189 188 191 185 183 185 191 193 192 193 194 194 193 195 194 194 196 198 197 196 197 197 195 194 194 193 194 192 190 193 193 194 195 194 193 193 191 191 192 196 196 195 194 195 196 197 197 197 199 199 196 195 196 195 195 192 191 193 197 196 196 197 196 196 194 193 194 194 194 195 193 191 189 190 190 191 193 194 194 193 194 194 195 196 197 199 200 200 198 196 194 192 193 195 195 194 191 190 189 190 192 190 187 191 194 197 197 199 199 197 194 194 191 191 193 191 190 192 194 191 189 193 198 202 201 201 201 201 201 195 217 205 146 149 163 170 179 186 186 186 188 191 186 183 184 192 188 178 163 150 163 203 200 198 199 198 195 195 198 200 197 196 196 195 196 197 197 198 198 198 198 196 197 197 195 196 196 196 197 198 199 199 200 198 197 197 196 197 195 196 197 196 196 196 197 198 197 197 196 197 199 199 198 198 198 198 197 198 198 198 198 196 197 198 197 197 196 194 194 197 197 196 196 196 197 197 196 195 196 196 195 196 196 195 195 194 194 193 193 
187 188 190 191 189 187 189 189 190 191 192 190 189 188 188 189 189 187 187 189 188 190 191 192 192 190 191 193 194 194 194 193 194 192 193 193 195 196 197 196 195 194 193 193 195 195 193 192 194 195 196 197 196 194 194 190 193 195 195 196 197 196 196 196 197 199 201 201 202 196 195 195 194 193 190 187 189 191 193 196 194 193 192 190 192 195 197 196 197 198 197 197 197 196 197 197 196 196 194 193 192 194 194 193 195 197 198 196 196 196 196 194 196 197 197 195 195 196 196 195 195 195 195 194 196 197 198 200 199 199 199 197 198 196 195 196 195 193 192 192 196 198 199 199 201 198 216 203 145 160 172 179 184 183 188 191 190 191 187 183 182 188 194 196 192 177 168 156 161 201 201 200 199 199 201 202 202 200 199 199 197 196 194 191 195 195 193 192 193 196 197 197 197 195 195 196 198 199 199 199 199 198 197 197 197 197 197 195 193 194 195 194 192 191 194 197 197 196 197 196 195 195 196 197 197 198 198 197 195 195 194 194 196 195 196 196 195 197 197 197 196 196 195 195 193 196 196 194 196 196 196 195 194 195 194 195 
191 190 191 190 190 187 188 191 191 190 190 192 190 191 190 190 190 192 193 192 193 193 193 193 191 193 194 195 193 194 194 194 194 194 193 192 192 195 195 195 195 195 195 195 196 196 196 195 195 198 198 197 199 198 198 197 195 196 196 195 197 199 210 224 234 241 243 243 244 240 232 218 204 197 199 200 197 197 199 197 197 195 195 194 196 196 197 198 197 197 198 197 196 195 196 196 195 195 198 196 195 197 196 194 192 193 195 193 196 197 198 197 197 198 199 199 199 199 199 200 199 198 198 199 201 200 198 198 198 199 199 196 197 198 198 200 198 199 196 191 190 194 195 195 193 210 209 142 164 176 183 186 187 189 185 180 176 176 175 185 188 177 185 184 187 187 180 170 159 165 201 201 200 199 197 194 197 199 200 199 199 201 199 197 195 194 195 194 190 193 196 198 197 199 198 197 196 197 197 198 198 197 195 194 194 195 196 197 194 192 194 194 193 189 188 189 189 189 190 191 191 191 192 193 194 194 194 196 192 193 192 189 186 183 185 191 192 193 193 194 195 195 195 196 195 196 195 194 193 194 193 193 194 193 193 192 
191 191 192 191 189 190 192 191 191 187 189 190 187 191 191 192 193 190 190 193 191 193 194 193 193 195 194 194 194 192 190 188 186 187 189 187 190 188 190 192 193 194 197 197 197 198 196 195 197 196 195 195 191 191 194 195 197 197 194 197 220 240 236 221 200 183 180 180 184 191 209 235 247 231 207 200 200 198 197 198 197 197 198 199 199 198 197 195 196 198 197 195 196 195 193 191 192 194 196 196 197 197 199 200 200 200 199 199 196 198 198 197 199 199 196 198 196 195 194 191 191 191 195 196 198 197 197 198 199 197 199 200 201 201 201 200 199 198 199 199 198 200 199 197 201 220 146 159 174 181 185 187 188 188 186 187 185 181 171 180 180 184 190 192 184 186 183 185 183 161 172 201 200 198 196 195 197 198 200 200 199 199 199 198 197 198 197 196 196 194 192 195 196 196 197 196 196 195 192 188 189 192 193 193 192 193 194 196 195 194 194 196 197 196 196 194 192 192 190 189 189 191 193 194 194 193 192 193 190 192 193 193 193 190 189 189 189 189 186 186 188 190 190 192 195 194 194 195 193 193 192 192 192 190 192 193 
191 191 191 191 193 192 191 190 190 190 190 188 192 192 192 193 193 192 191 192 194 195 193 193 193 192 194 195 195 193 192 191 192 192 193 192 192 192 192 189 186 188 191 191 192 194 195 196 197 197 197 196 193 189 190 193 193 192 215 238 214 184 174 182 188 195 200 203 201 195 188 176 184 222 246 229 202 196 197 196 194 194 195 193 194 197 198 199 198 198 199 200 197 196 197 196 197 196 194 192 193 194 195 195 193 193 196 197 197 197 198 196 195 195 195 197 197 197 194 194 192 191 190 189 192 193 192 195 197 197 197 199 199 199 200 199 200 199 198 198 198 200 200 193 221 166 153 172 176 184 190 190 185 185 184 185 184 183 184 182 186 195 189 185 184 181 188 195 185 182 158 186 199 200 199 200 198 198 199 201 200 199 199 198 196 197 197 197 196 196 194 191 193 194 195 194 194 194 194 193 193 192 190 190 189 191 192 194 195 195 193 193 194 195 194 194 195 194 194 195 192 193 192 193 192 193 194 194 193 192 192 192 192 193 195 195 195 193 193 193 192 191 191 188 188 187 186 188 190 191 192 193 193 193 191 188 
190 190 191 190 191 191 191 191 191 192 192 190 191 192 193 192 192 191 191 188 192 191 191 193 195 194 192 192 194 195 196 196 195 196 193 191 190 190 191 192 194 192 192 192 193 192 193 195 199 199 198 196 197 198 196 194 197 232 227 186 186 205 215 217 218 218 216 214 214 213 215 215 202 180 182 227 244 210 195 198 195 195 194 189 181 181 184 185 190 194 195 197 197 195 196 196 198 198 195 192 192 191 189 192 191 193 194 194 195 196 197 196 195 195 198 198 198 198 198 198 196 194 195 195 193 195 194 193 195 194 194 197 196 197 198 197 198 196 193 194 193 194 195 205 196 145 174 179 180 182 186 184 181 186 185 191 190 189 192 189 187 189 186 185 185 200 200 186 185 185 177 160 192 196 199 200 198 197 196 194 195 195 193 191 194 193 195 196 198 196 196 196 194 194 193 195 196 194 193 194 195 196 196 195 195 197 196 194 195 194 195 193 192 193 193 195 195 195 195 196 196 196 196 194 194 192 190 191 191 190 190 194 196 195 194 191 192 192 190 190 190 191 192 194 192 192 191 190 190 189 187 188 191 192 193 193 
178 181 187 190 190 189 190 190 190 190 191 189 191 191 192 192 191 189 189 187 187 189 191 192 190 192 190 184 184 185 188 189 190 194 195 195 194 194 194 195 196 197 196 195 195 195 195 194 195 195 194 194 195 197 197 205 236 202 179 211 221 216 217 220 218 220 220 225 219 215 213 212 214 214 201 179 199 244 214 197 199 199 199 197 195 194 191 190 186 185 192 191 192 196 196 196 191 191 193 193 195 197 195 195 197 196 194 192 194 194 194 195 196 195 194 194 193 194 198 200 199 199 199 198 198 197 198 198 197 197 199 199 198 199 199 196 196 195 194 194 191 192 187 210 152 164 181 185 186 182 182 184 180 182 187 180 179 185 189 186 183 182 180 180 186 185 185 191 186 187 188 168 172 190 194 196 197 197 199 198 200 198 196 197 196 196 196 197 198 196 195 197 196 197 196 195 195 195 194 197 196 196 195 195 195 197 197 195 197 194 195 196 194 194 195 196 196 195 195 194 195 197 195 195 195 195 195 195 195 193 194 194 195 194 194 194 194 194 192 193 193 193 190 190 192 193 193 194 195 194 192 190 190 192 191 192 
186 182 186 189 189 190 191 192 191 191 191 191 193 191 190 192 193 190 190 192 193 191 192 192 194 193 193 192 189 186 185 185 190 192 194 195 195 197 196 197 196 195 196 197 194 193 192 192 192 192 192 191 192 194 204 233 189 185 216 221 219 218 220 219 216 209 208 214 219 220 220 217 216 212 212 214 188 190 243 216 194 196 196 198 197 197 198 197 197 196 195 193 192 193 196 195 192 189 190 192 194 196 198 198 198 197 196 197 203 207 212 217 216 215 214 209 204 199 195 197 197 198 200 199 198 197 196 194 194 193 191 189 189 192 193 195 196 198 200 200 199 196 191 186 149 177 188 189 188 186 184 183 178 180 179 180 187 184 186 191 187 182 187 196 194 193 186 184 189 192 191 186 167 185 189 191 191 189 187 188 190 193 195 197 196 196 195 194 196 196 195 196 196 195 195 194 190 187 190 192 194 194 195 195 196 195 196 195 194 194 194 196 196 196 195 194 195 195 193 194 194 195 195 193 193 193 193 194 194 195 194 194 195 194 193 194 195 193 192 194 195 195 195 192 192 193 193 193 193 191 190 190 191 189 188 192 
190 192 192 190 191 191 191 191 191 192 193 193 191 192 191 190 193 191 193 195 193 193 194 193 192 193 194 195 195 194 195 194 193 192 193 193 193 194 194 194 194 194 195 196 195 194 194 193 195 193 194 196 195 201 232 195 202 216 218 219 222 226 224 231 222 215 213 210 223 221 223 222 220 221 220 216 216 193 185 243 211 197 196 197 199 198 198 199 199 199 198 197 197 195 195 195 196 196 197 198 196 195 194 193 196 198 205 213 208 188 169 152 142 139 144 158 186 207 209 200 191 193 196 197 199 200 199 198 196 196 194 192 193 194 195 195 197 198 197 199 200 185 201 157 165 182 189 190 190 188 184 186 203 192 180 183 183 184 191 194 191 191 188 192 193 181 182 182 190 192 195 190 172 180 190 196 194 195 193 192 189 189 192 194 195 196 197 195 192 194 196 196 193 194 194 196 196 195 194 191 188 190 192 189 189 189 193 195 195 196 193 193 195 194 193 194 195 192 190 192 192 191 193 195 195 194 194 195 192 192 195 193 193 192 192 191 192 193 193 194 194 193 195 194 194 195 194 193 193 192 192 190 187 188 189 192 
188 190 190 188 188 188 188 188 187 187 187 188 190 191 191 191 193 194 194 195 194 195 195 195 194 194 195 195 195 194 194 194 194 193 192 193 192 193 192 191 193 193 194 193 195 194 196 196 195 196 195 196 193 225 194 207 222 217 221 227 227 227 223 222 221 216 216 218 219 222 223 225 225 221 218 218 215 211 192 190 241 204 197 198 200 199 197 198 197 198 196 195 197 198 197 197 195 194 193 193 193 192 189 191 200 212 204 161 112 97 113 115 108 106 105 92 93 113 156 198 208 198 193 195 195 198 198 199 199 199 200 200 198 197 195 191 191 189 190 193 196 182 194 150 174 185 188 189 192 192 186 206 208 193 189 186 186 189 198 201 204 201 203 208 198 190 192 190 183 195 193 188 183 167 186 199 202 201 199 199 199 201 200 198 198 197 195 196 196 197 197 195 197 196 195 196 197 197 196 198 197 196 196 194 192 189 189 190 193 194 194 193 193 195 195 193 195 193 195 193 193 193 192 188 188 191 193 193 192 190 192 193 190 191 190 188 188 188 190 190 191 191 192 193 195 193 194 193 191 190 189 188 188 188 183 179 
191 192 191 189 189 187 183 181 177 181 186 186 188 192 192 193 195 195 193 192 194 194 194 194 194 194 194 195 195 196 194 194 196 191 190 191 193 192 192 192 194 193 193 193 194 196 198 197 196 194 194 192 212 202 204 223 223 223 225 224 223 223 222 223 220 218 217 219 221 216 217 215 211 217 213 216 221 220 220 190 205 235 200 200 199 198 198 198 197 196 197 197 198 199 200 200 201 201 198 195 195 195 195 205 196 148 104 97 123 148 153 158 163 164 165 159 148 125 103 109 160 204 201 195 194 197 198 196 198 198 199 198 198 195 195 196 194 194 195 196 191 185 172 163 181 184 187 189 195 195 199 218 198 187 196 195 194 191 190 205 197 205 215 211 201 197 199 196 188 179 177 188 190 165 181 192 200 201 200 199 197 196 198 199 199 199 197 197 197 195 194 196 196 195 194 195 195 195 194 194 195 196 195 194 194 194 194 195 193 192 192 192 192 193 194 194 193 194 194 195 196 194 194 194 191 190 189 190 192 193 192 192 192 192 193 194 194 193 192 189 187 187 184 184 185 189 188 188 192 192 190 188 190 190 190 189 
192 191 190 191 192 193 193 190 190 190 191 191 190 189 190 190 192 192 193 192 190 189 191 192 195 194 194 196 195 195 195 196 195 196 195 194 195 196 195 195 195 195 194 195 194 197 197 198 198 196 192 200 213 199 224 224 226 217 219 225 225 219 220 220 219 220 217 219 224 224 221 218 219 221 222 216 217 217 219 218 182 230 220 196 196 198 197 198 197 197 198 197 197 196 199 200 199 199 200 199 198 200 204 159 107 101 134 162 175 181 178 176 178 179 177 178 181 171 163 138 109 129 185 204 196 198 199 197 196 197 197 196 198 196 197 201 200 201 201 202 182 191 160 176 185 186 187 183 190 203 208 190 178 190 190 195 201 195 193 205 206 198 207 202 191 194 198 194 186 183 180 186 186 173 172 179 194 195 198 197 198 198 198 199 199 199 199 198 196 197 194 192 193 194 192 191 192 192 190 188 189 188 188 191 193 194 193 194 194 195 193 192 193 191 191 192 191 190 190 190 190 191 187 187 189 191 195 194 193 194 194 194 192 194 194 195 196 196 196 195 193 192 192 191 191 190 190 189 191 191 192 193 191 191 190 193 
190 192 192 193 191 190 190 189 190 192 192 192 192 192 191 186 185 182 187 188 187 191 192 193 194 192 192 193 193 195 195 195 194 195 196 196 197 197 197 196 196 195 195 197 193 193 192 194 198 200 197 216 193 224 221 225 215 217 222 227 225 219 221 220 220 220 214 213 219 227 225 222 223 225 228 221 218 216 218 219 204 187 239 201 194 193 194 198 195 197 197 197 196 197 198 198 199 201 199 198 200 194 134 109 145 173 180 181 181 181 178 178 181 181 180 178 180 179 175 174 158 124 107 164 202 197 193 193 194 194 194 194 191 192 194 196 193 193 194 197 174 190 161 181 186 191 194 191 178 181 177 172 182 196 188 187 193 193 190 187 198 195 190 183 189 189 192 193 189 185 184 187 184 180 163 180 196 196 197 197 195 194 194 195 196 198 198 197 199 200 200 200 200 200 200 199 200 200 199 199 197 196 197 197 196 197 197 198 199 200 200 201 200 199 199 198 197 197 195 196 194 195 197 197 196 196 197 196 193 192 194 194 195 194 195 193 194 195 196 195 194 194 193 193 192 192 193 194 192 193 192 190 193 195 194 190 
188 188 186 190 190 192 195 193 191 192 194 195 196 195 194 193 193 193 193 194 193 193 192 193 193 194 194 191 191 193 194 194 192 193 195 196 198 197 196 194 194 196 196 195 194 195 195 193 195 195 209 201 202 213 218 225 222 225 226 226 223 221 222 223 221 221 218 211 210 219 226 227 223 222 226 224 222 222 225 222 218 186 210 223 199 200 200 198 198 198 198 198 200 199 198 198 197 196 194 195 187 125 128 174 187 192 190 183 182 180 182 181 186 185 185 183 184 184 172 173 177 163 137 95 165 208 201 200 199 198 198 199 199 200 200 200 199 199 198 196 173 182 165 181 188 195 193 194 186 163 175 181 188 184 181 188 193 193 192 187 179 182 186 189 192 186 185 193 193 189 192 191 188 186 166 178 197 201 203 204 202 201 199 197 196 197 198 201 200 201 202 204 203 202 200 200 200 200 201 201 201 201 201 200 200 199 198 199 200 200 201 201 201 201 201 201 201 199 198 198 198 196 197 199 198 198 198 199 199 198 199 199 198 197 198 198 197 198 197 197 198 198 198 198 198 197 196 197 196 195 195 195 194 192 193 193 
190 192 192 192 192 193 195 196 195 195 193 192 192 193 194 195 195 196 196 195 196 196 195 194 192 192 193 194 194 193 193 195 195 194 195 194 195 195 196 197 198 198 198 196 196 197 197 195 197 195 214 197 218 217 221 224 224 226 225 222 221 216 220 221 222 222 223 219 218 224 229 232 229 219 212 209 214 222 226 226 223 211 180 234 204 201 202 201 199 200 199 196 194 194 196 197 196 196 195 183 124 140 177 185 181 175 181 184 184 185 185 185 186 183 181 180 180 178 177 181 182 180 173 145 107 182 204 203 202 203 203 202 202 203 203 203 203 202 203 199 178 173 169 183 188 195 198 191 180 183 180 184 193 178 178 187 187 193 191 193 186 189 190 185 189 185 189 197 195 194 194 189 188 186 168 175 194 202 203 202 202 203 204 203 203 201 198 199 199 200 200 202 202 202 200 200 201 202 201 201 201 200 201 201 200 199 200 200 201 200 200 200 201 201 201 200 201 201 199 197 197 200 200 199 198 199 199 201 199 198 197 195 198 196 197 197 197 198 198 197 198 198 198 198 197 196 196 196 197 197 195 196 195 193 193 195 
194 193 192 192 193 194 192 192 194 194 193 193 193 191 192 193 194 196 196 196 195 194 196 196 196 196 195 195 195 196 195 196 197 195 194 196 197 199 199 197 196 197 199 200 199 199 198 197 197 205 204 213 219 221 221 225 220 219 222 222 221 219 219 221 228 237 239 232 230 230 228 225 224 221 211 216 219 213 218 227 228 222 189 213 214 199 201 202 202 202 200 199 197 196 196 196 199 200 192 129 138 179 185 183 179 178 184 184 184 186 190 197 202 202 204 201 188 180 174 179 181 178 179 173 146 117 191 200 205 204 203 203 204 202 202 202 200 201 199 186 175 165 173 186 192 196 194 182 171 184 184 189 186 188 186 189 185 188 189 190 192 195 186 183 186 186 192 206 194 191 190 184 178 179 169 175 189 201 202 204 204 204 203 204 204 202 203 202 201 203 202 200 201 201 202 203 203 203 203 203 203 201 201 200 198 197 199 201 201 198 199 200 201 201 201 199 198 199 198 199 199 201 202 201 199 199 198 197 197 197 198 195 195 198 198 196 196 196 196 198 197 196 197 197 197 198 197 198 198 198 196 196 194 194 193 195 
185 185 188 191 192 193 193 191 190 192 192 193 195 192 192 193 194 195 195 195 196 197 196 196 195 195 195 195 196 196 197 199 199 198 194 192 194 194 194 196 199 197 198 199 200 201 200 202 202 209 204 224 217 220 223 221 221 220 219 215 220 227 227 229 234 236 242 244 234 223 219 222 220 216 218 222 222 218 219 229 229 225 210 193 224 198 201 200 199 199 199 198 199 200 200 199 200 195 145 133 177 185 189 189 184 185 181 181 185 194 209 205 196 190 188 197 206 206 188 172 169 183 180 172 174 138 141 201 202 203 204 204 204 202 203 203 203 201 203 180 174 168 178 190 194 195 184 180 196 188 192 192 190 193 191 191 189 191 189 190 190 188 183 196 191 191 191 189 194 192 192 192 188 187 173 172 182 202 201 204 204 203 203 203 203 203 202 202 203 204 203 201 202 201 201 201 201 201 203 203 203 201 202 203 201 201 200 201 198 199 200 201 202 201 201 202 199 199 199 198 197 195 196 198 197 196 197 197 196 195 195 192 192 197 199 197 194 195 194 197 197 193 191 191 192 193 194 195 196 195 194 194 194 194 193 194 
184 185 184 183 187 187 185 187 192 193 192 191 192 191 191 190 193 192 193 193 193 196 197 196 195 195 195 195 195 194 193 194 195 197 196 197 197 197 198 195 197 198 194 192 195 198 198 202 208 209 215 226 225 224 224 224 220 220 215 214 215 219 222 226 229 227 230 237 240 238 233 223 218 217 224 220 224 225 221 224 230 228 222 193 223 200 201 201 200 198 200 201 200 201 200 201 196 164 125 172 185 179 183 188 183 185 184 182 194 197 182 174 180 188 181 182 181 188 210 208 183 171 179 180 181 173 129 163 195 199 198 199 197 195 194 192 195 198 199 169 172 168 181 187 187 195 188 193 206 189 192 190 184 188 188 189 190 191 187 193 186 182 193 194 196 190 184 191 187 187 190 189 189 190 181 173 178 201 197 196 200 199 199 201 200 201 201 201 200 202 203 201 202 201 200 201 203 203 201 200 198 198 199 200 202 203 201 200 197 199 200 200 201 203 203 202 201 199 198 198 197 199 200 199 199 198 196 197 196 197 197 196 197 198 197 197 196 197 198 196 198 196 194 192 191 192 194 194 195 195 194 193 193 192 192 193 
194 192 191 189 188 190 190 193 193 193 191 192 192 191 190 190 191 191 190 188 189 189 194 195 194 196 196 196 191 192 190 189 191 194 195 197 197 195 197 198 198 196 195 193 194 194 194 194 207 205 221 227 227 227 226 225 221 222 218 221 219 215 205 223 229 224 226 223 226 221 229 227 229 220 225 224 224 224 226 227 231 232 225 204 213 206 196 196 193 194 197 199 197 195 197 197 185 128 161 180 179 174 179 184 184 183 182 196 193 178 168 159 178 195 187 182 177 177 183 206 210 192 180 192 184 178 164 130 186 197 200 200 198 198 200 200 198 200 200 162 167 168 184 190 197 188 185 195 200 195 188 188 194 190 196 186 193 200 197 191 184 194 197 191 188 190 189 194 189 177 177 188 188 185 184 179 173 199 200 200 201 201 200 201 200 198 200 200 197 195 195 195 198 194 200 200 198 200 199 201 199 198 198 196 194 195 196 197 199 200 202 202 201 199 202 202 201 200 196 195 193 196 197 195 196 198 199 200 198 196 196 195 197 197 198 198 197 197 198 197 196 197 195 192 193 192 191 193 197 199 196 195 195 193 194 190 
188 187 189 188 188 188 187 188 191 191 192 191 193 193 192 191 188 188 187 186 186 187 189 188 187 189 189 191 191 191 191 193 194 193 192 192 194 197 197 195 198 197 196 194 195 193 191 189 212 209 214 208 226 228 226 224 221 215 221 220 223 224 199 211 219 221 221 216 218 217 226 228 230 225 222 229 230 228 229 227 228 229 227 214 200 216 197 198 196 195 196 198 199 195 193 186 156 140 180 178 179 183 180 184 184 181 195 188 173 178 184 176 172 188 199 194 187 183 180 184 194 204 194 183 187 181 180 147 155 193 201 204 202 203 203 202 201 201 201 156 170 171 185 191 193 190 182 187 190 190 186 185 193 190 186 180 196 194 181 183 185 192 191 190 191 194 199 188 186 191 185 188 190 187 183 180 168 198 199 202 200 201 201 201 203 202 202 203 204 203 203 203 200 197 196 199 200 200 200 201 201 200 201 201 200 198 195 193 190 189 192 196 200 200 199 200 201 202 201 199 198 197 197 197 198 195 198 199 197 199 198 197 196 197 198 197 196 197 198 198 197 198 196 192 191 190 188 186 186 188 187 184 185 188 187 187 
192 194 194 194 193 194 193 193 194 192 193 193 193 192 192 193 194 195 195 193 189 187 187 187 187 186 183 185 184 187 189 189 191 194 193 191 189 192 195 194 196 194 194 195 195 195 196 191 213 220 230 221 225 224 225 225 223 206 208 219 213 216 206 197 213 217 215 214 216 218 225 227 226 221 221 230 234 233 227 225 228 229 228 222 199 219 195 201 199 200 199 198 201 201 198 181 140 173 182 182 183 176 175 181 185 194 190 172 180 178 181 184 177 171 186 190 193 189 185 184 189 196 206 187 188 189 181 174 136 184 201 202 203 203 201 198 199 201 200 148 171 174 185 190 187 186 182 180 170 168 190 186 188 179 177 185 189 192 184 184 181 185 186 189 192 192 193 193 195 193 191 190 183 184 182 183 161 197 199 200 202 202 204 203 203 202 198 196 194 195 198 201 200 200 199 198 200 202 203 202 200 201 200 201 201 201 201 200 201 198 195 194 193 196 196 196 200 201 201 200 201 201 199 199 199 199 198 198 199 197 197 198 196 197 198 198 196 198 198 198 198 197 197 197 196 197 198 197 195 195 195 193 192 191 187 187 
194 191 189 190 190 188 190 190 193 192 190 189 191 191 190 190 190 192 192 194 196 196 195 195 194 196 197 195 195 195 193 194 192 193 194 196 195 196 195 194 195 193 192 192 192 190 189 192 212 218 224 229 227 224 222 224 221 217 210 217 205 212 217 187 205 210 210 211 214 214 221 221 222 222 224 227 232 231 228 227 229 230 227 226 201 217 196 199 198 198 199 200 202 204 192 161 152 184 178 182 187 181 181 186 187 193 170 180 181 182 183 184 181 172 182 185 188 189 190 192 190 194 200 196 179 186 178 181 153 159 189 201 200 203 204 203 200 197 197 145 166 177 182 191 185 187 188 186 184 186 183 184 191 187 192 200 188 190 189 186 186 187 188 188 186 185 187 192 200 191 188 188 183 181 182 185 153 194 200 201 202 201 200 200 199 199 202 204 203 202 202 203 204 204 203 204 202 202 203 203 204 200 200 202 202 200 197 196 200 201 202 203 203 200 197 196 197 198 199 200 201 200 200 199 199 196 196 197 196 197 198 198 198 198 197 197 196 195 194 196 195 197 198 198 195 195 196 195 197 195 195 195 193 195 196 195 
193 192 193 192 193 192 193 193 193 193 194 193 192 193 192 192 192 194 192 192 195 197 196 195 196 197 197 196 197 198 196 195 195 195 194 196 195 196 196 196 194 193 195 196 196 196 192 195 206 207 212 227 230 230 227 224 215 221 217 198 208 209 217 208 184 190 198 209 212 212 214 213 215 220 226 228 229 228 228 230 230 228 228 226 206 209 199 200 199 199 199 200 201 201 175 143 174 185 181 178 181 188 186 186 196 169 173 182 181 182 184 184 183 173 179 188 188 181 186 190 190 185 188 196 179 173 174 183 176 143 181 201 201 200 201 203 204 200 196 142 157 181 181 182 186 188 196 196 201 198 187 187 189 194 193 195 193 189 191 190 185 185 179 195 197 195 195 199 191 189 191 192 183 186 185 186 149 194 201 200 201 204 205 204 204 203 203 202 202 202 201 203 206 205 205 205 203 202 203 201 201 201 200 200 205 206 203 201 203 202 201 201 200 201 201 203 203 202 201 201 200 200 199 200 199 199 198 197 197 196 196 196 196 196 196 194 195 194 194 195 194 196 195 196 196 196 195 194 196 196 196 194 195 194 192 186 
187 189 190 192 190 189 192 192 192 192 191 190 191 191 191 194 195 195 193 193 195 195 195 195 195 194 195 196 197 195 196 195 195 196 194 194 194 193 194 196 195 194 192 191 192 195 188 201 209 215 218 228 230 230 227 225 212 214 226 220 210 205 207 212 214 205 204 209 218 213 216 224 225 224 226 228 229 228 227 228 230 228 227 224 211 205 200 202 203 203 202 201 202 195 166 151 185 183 183 181 178 183 184 189 185 167 179 180 181 182 179 182 184 177 175 185 189 182 185 191 185 185 182 187 178 169 181 177 176 144 170 195 203 203 202 201 201 201 193 141 146 184 180 189 188 184 199 197 192 194 187 186 194 192 191 193 190 185 190 188 187 188 184 191 207 198 201 208 188 191 193 192 193 184 186 186 146 196 201 203 205 205 205 206 206 205 205 203 204 203 203 204 204 201 203 203 203 202 202 202 203 202 203 203 203 203 203 202 201 201 201 197 195 198 200 200 199 200 201 198 198 198 196 196 197 196 197 197 197 197 196 196 196 197 197 196 197 196 194 195 196 194 194 194 193 194 195 193 194 195 192 192 193 190 190 190 
191 190 190 191 193 192 191 189 190 191 191 191 193 190 190 194 192 193 192 191 194 194 194 194 194 194 194 194 195 194 194 194 195 196 197 196 195 192 193 193 194 195 195 196 195 193 182 202 214 223 226 228 228 229 226 225 217 205 219 224 225 219 216 212 210 213 222 224 231 232 231 228 221 217 221 226 230 229 230 231 230 230 228 223 213 204 197 201 203 201 200 201 205 185 162 164 187 186 183 183 185 184 181 190 174 186 178 177 179 181 179 181 184 180 171 182 182 179 180 183 186 181 175 174 181 177 184 177 179 155 159 186 205 203 203 200 197 196 190 140 127 189 182 190 185 184 192 197 185 191 191 187 180 189 192 184 189 185 184 188 193 186 189 183 188 198 198 190 193 193 189 190 190 185 190 180 141 193 202 202 202 202 202 201 201 201 202 202 203 204 205 204 202 202 203 203 203 204 202 201 202 201 200 201 202 203 202 202 200 201 202 202 200 200 201 201 201 201 201 199 199 199 199 198 197 194 193 191 192 196 197 197 197 196 195 194 192 189 186 188 194 194 194 195 197 196 195 193 195 196 195 197 194 194 194 194 
192 192 192 193 194 194 193 192 194 194 196 195 193 193 193 195 194 194 194 193 194 196 195 195 194 195 196 196 194 196 196 196 193 194 195 198 199 196 195 195 196 196 194 196 193 189 178 205 214 217 225 228 228 228 228 224 221 207 220 225 225 227 223 222 214 210 216 223 228 230 224 219 213 213 223 227 232 231 231 232 231 229 228 229 216 204 194 198 203 202 200 200 202 179 162 175 184 185 181 193 182 180 183 181 176 188 177 178 179 178 179 181 183 183 169 178 182 182 186 183 183 179 182 178 176 178 178 181 177 166 147 176 201 200 199 199 200 201 193 145 117 193 178 192 199 207 193 189 187 187 186 189 186 187 188 185 189 188 189 186 187 189 193 206 213 206 192 185 193 191 189 187 186 183 192 168 138 191 198 202 201 202 202 201 199 202 201 200 200 202 201 201 203 203 203 203 203 201 201 203 204 204 203 202 203 201 201 201 202 203 202 201 203 203 201 200 201 201 201 200 200 201 199 197 196 199 200 200 200 200 199 198 199 197 196 197 196 195 194 191 188 193 196 196 196 198 197 196 195 195 196 196 196 195 195 196 
192 193 193 192 194 194 193 194 194 193 194 194 195 194 194 193 190 194 196 197 195 196 196 194 197 197 197 198 196 198 197 197 197 197 198 199 198 198 199 199 199 198 198 197 194 190 179 210 219 224 225 226 226 227 224 226 231 222 220 224 223 223 224 229 221 214 216 217 223 223 221 217 218 218 222 224 231 234 224 229 221 227 225 222 221 206 192 193 202 202 200 200 197 172 159 180 183 180 183 182 185 181 185 173 186 182 185 187 184 182 180 181 180 183 175 167 183 185 191 185 184 185 181 175 177 181 175 183 180 176 147 170 199 201 204 204 204 201 194 150 102 194 182 187 186 179 189 198 208 188 188 186 185 185 190 184 191 190 194 189 190 194 193 198 189 185 185 190 185 190 195 188 183 185 196 154 139 189 195 195 197 197 195 198 200 199 197 197 198 198 197 196 196 195 195 197 198 200 198 198 199 198 200 201 201 201 201 202 202 201 199 198 197 197 196 194 194 196 198 198 200 199 199 199 197 198 197 199 199 199 200 199 198 198 197 198 198 197 198 199 198 196 194 195 195 192 195 197 195 195 196 197 197 196 194 192 
190 191 193 194 193 193 195 196 195 194 192 194 194 195 195 196 197 195 194 193 194 195 194 194 193 195 196 196 196 195 195 197 197 196 195 197 198 195 194 194 195 195 196 198 194 190 184 212 212 217 226 227 226 226 220 217 214 209 213 215 215 218 218 223 225 220 221 212 211 217 216 207 204 219 220 226 233 230 215 213 223 226 225 217 224 207 188 193 203 203 202 200 190 166 160 183 181 182 183 183 184 185 183 171 186 178 181 183 189 197 187 181 180 183 181 161 165 172 178 184 186 189 180 176 178 181 177 181 175 177 148 157 192 201 201 202 199 197 189 150 87 181 186 179 183 190 189 176 192 189 195 194 187 172 177 185 180 186 188 193 191 197 194 186 179 186 183 193 195 191 193 191 187 187 200 130 142 183 189 192 193 196 194 192 193 194 195 196 196 195 196 199 200 199 197 195 195 197 199 200 198 197 198 198 197 199 200 200 201 202 202 201 200 200 198 196 196 197 198 199 197 197 195 194 196 197 194 192 195 196 198 199 198 198 197 198 199 200 199 197 197 197 196 197 197 196 195 195 194 195 195 194 195 195 195 194 
192 192 194 194 193 193 193 194 194 190 189 188 190 192 194 196 196 195 195 195 195 196 196 196 195 196 196 194 196 195 197 199 199 201 200 198 199 199 198 197 199 198 198 196 193 186 179 211 221 223 226 228 228 221 206 202 200 198 206 214 213 214 217 226 224 223 224 215 194 194 202 199 216 221 223 227 237 239 232 231 229 223 226 225 223 211 178 186 201 201 202 202 184 157 166 185 185 184 180 183 183 185 175 173 181 184 180 185 182 183 180 180 181 184 183 173 160 170 169 175 179 180 179 175 178 183 181 182 179 178 153 151 186 196 196 199 196 194 184 151 82 158 188 182 191 195 184 181 167 188 185 190 196 189 174 175 179 183 190 194 197 198 196 185 187 192 191 180 174 183 189 189 185 189 197 104 150 187 192 193 192 196 196 197 195 193 192 192 192 192 192 193 192 193 194 195 194 192 191 191 194 195 195 195 193 193 196 196 196 200 202 201 201 201 201 200 199 196 194 196 196 196 199 198 198 198 198 197 198 198 198 196 196 195 196 194 196 197 197 198 198 198 198 197 198 198 198 198 197 197 196 194 195 196 195 195 
191 191 191 193 194 193 192 193 195 194 194 194 193 193 192 191 194 196 194 195 194 196 196 196 196 198 197 196 197 196 196 194 196 198 202 200 198 199 201 200 199 199 198 195 192 187 177 214 222 226 228 227 226 215 212 221 217 206 206 213 215 219 216 223 228 224 219 222 220 197 193 210 228 230 228 227 233 233 221 221 228 228 226 227 224 217 167 179 200 201 200 200 173 159 172 186 181 182 185 178 182 184 171 178 180 181 181 182 180 175 180 179 181 182 182 185 180 183 178 167 164 177 180 180 178 185 181 183 185 180 160 147 178 199 198 197 197 192 185 164 92 119 196 176 188 185 183 187 184 179 196 190 197 203 194 182 179 181 176 182 192 195 192 180 181 189 184 176 173 202 194 188 186 194 174 94 159 186 194 194 196 195 194 195 197 197 196 196 196 196 197 196 195 195 195 195 195 195 195 195 195 197 198 197 198 198 198 197 194 193 195 196 195 196 198 200 199 199 198 198 197 196 196 198 197 195 194 195 197 198 199 198 197 194 193 192 194 192 191 192 196 197 196 197 196 195 194 192 194 195 195 194 195 194 196 195 
190 191 190 192 192 193 194 195 196 196 194 194 194 195 194 194 194 194 193 195 196 196 195 194 194 195 196 195 196 196 196 197 197 196 198 199 198 198 199 200 199 198 198 197 192 184 173 213 221 224 223 224 226 224 227 225 223 220 215 217 218 219 209 214 216 212 216 222 226 216 219 226 227 229 228 228 226 223 219 215 231 232 229 229 224 218 154 177 200 200 199 200 165 162 176 185 183 182 182 183 181 181 170 183 180 181 189 192 183 177 183 179 178 180 182 186 170 177 189 188 170 170 181 179 174 182 182 183 178 179 165 149 171 199 198 198 196 195 191 175 108 81 193 178 190 188 194 191 189 175 189 190 189 189 197 196 194 189 182 182 172 176 172 177 173 178 187 188 190 192 187 187 186 202 136 98 168 190 194 196 198 198 198 198 198 197 197 197 195 195 195 194 195 196 197 197 195 196 196 198 197 199 199 199 199 199 199 199 197 193 191 192 194 196 194 196 197 198 198 199 199 198 198 198 199 199 196 192 194 197 197 198 199 197 196 195 196 195 194 192 191 192 187 183 188 192 192 191 195 194 194 195 194 193 196 196 
192 192 191 192 190 186 187 189 191 192 191 189 188 189 190 192 192 195 196 196 197 195 196 197 195 195 196 196 195 196 196 196 195 196 194 195 197 198 197 196 193 195 196 196 193 182 164 212 219 221 222 221 225 228 227 225 226 225 222 225 223 219 212 208 214 221 225 228 226 225 219 228 227 227 228 227 223 213 215 233 235 233 233 229 225 218 141 171 199 200 199 198 156 162 180 181 186 184 181 182 181 178 175 183 181 184 185 183 185 175 178 176 178 180 184 184 179 162 183 198 190 175 176 182 181 177 176 175 184 182 166 153 166 199 201 203 202 198 192 180 119 63 156 195 185 191 189 182 184 184 170 193 187 190 187 193 192 193 193 191 192 187 186 192 195 190 189 194 189 186 186 185 191 201 95 111 174 189 195 195 197 198 199 198 198 196 195 196 197 197 195 196 197 196 197 196 195 196 196 196 196 197 198 199 199 201 200 197 197 198 197 197 197 196 196 195 197 197 196 197 198 197 197 195 198 198 200 200 199 199 197 195 192 194 195 196 197 197 198 197 197 194 192 190 191 192 193 193 197 197 196 195 197 194 194 195 
191 194 193 192 188 187 184 183 182 184 186 190 190 190 191 193 190 187 185 188 191 194 194 194 193 193 194 194 195 196 197 197 197 197 198 198 198 196 196 195 195 196 196 195 191 180 154 211 217 219 223 222 223 227 225 224 226 226 220 218 223 229 230 219 219 232 228 215 222 223 212 223 232 226 224 227 226 219 216 231 234 233 232 230 227 217 125 169 198 199 199 196 148 166 182 187 188 184 181 181 181 176 177 183 181 182 182 185 187 189 180 178 181 177 180 183 184 175 172 184 200 196 181 187 190 182 181 184 180 187 170 155 158 196 197 198 197 196 192 180 137 68 99 201 184 187 188 191 190 190 182 177 198 190 196 190 190 193 193 192 190 189 189 193 192 192 189 192 191 185 186 185 205 160 69 128 183 194 197 196 197 197 198 198 199 197 198 199 199 199 198 195 197 197 196 197 196 194 195 194 191 190 188 189 192 189 190 194 196 195 196 196 196 196 196 195 196 194 195 196 195 195 197 196 197 198 198 199 200 197 196 195 192 191 191 192 192 192 193 195 197 198 199 198 198 197 197 198 197 196 195 195 198 198 196 195 
182 182 185 187 189 191 189 186 188 186 183 186 190 190 191 193 194 193 190 187 184 188 191 194 195 195 195 194 192 194 197 196 195 196 198 199 198 197 197 197 198 197 195 192 187 174 143 206 219 219 222 225 222 224 225 225 221 223 212 203 215 221 218 222 211 204 205 205 212 224 221 209 222 224 221 225 228 224 222 229 233 231 228 227 227 203 112 173 197 198 197 196 145 169 184 187 192 198 192 180 178 173 177 184 179 183 184 190 188 200 191 177 181 183 181 179 185 180 166 172 190 197 191 188 191 180 179 187 183 187 170 152 153 195 196 197 196 196 190 182 152 77 64 167 194 186 183 193 190 191 191 177 178 197 192 196 189 187 186 185 185 187 193 196 188 188 195 188 190 185 184 193 209 100 73 142 184 193 195 196 194 196 198 198 199 200 199 198 196 198 199 198 196 196 197 197 198 198 197 196 194 195 194 193 193 194 193 194 196 196 194 193 194 194 196 193 195 195 197 198 196 194 194 194 194 196 195 195 197 196 196 194 196 198 197 194 194 195 191 191 194 194 194 194 193 193 195 195 193 195 197 197 197 196 195 193 
188 186 186 188 190 191 191 190 190 190 189 191 191 193 193 192 193 193 193 192 195 194 194 194 193 195 194 195 195 196 198 200 200 200 200 197 198 198 198 200 201 199 198 196 188 175 138 196 222 221 220 221 218 225 228 222 209 216 207 201 199 205 200 209 217 200 207 211 210 222 225 217 205 227 224 225 227 222 224 226 227 231 227 227 229 183 105 178 198 198 197 194 138 171 183 182 185 185 193 187 177 177 180 189 183 180 182 178 171 158 169 180 181 186 187 181 184 181 179 168 178 197 193 187 189 180 182 189 186 180 169 142 145 196 199 201 200 199 196 188 169 99 54 107 202 188 189 186 188 191 195 194 171 178 200 188 193 186 178 183 188 190 195 194 188 180 177 174 186 186 186 217 157 63 88 161 188 193 196 197 196 196 197 194 194 194 196 198 195 194 193 195 195 192 194 196 197 195 194 192 193 194 194 195 193 192 192 194 195 194 192 193 192 194 197 196 197 196 192 189 192 195 197 196 196 193 191 189 192 193 193 194 194 194 195 195 196 197 196 194 194 193 194 191 190 193 194 191 191 189 190 187 185 189 191 191 
190 191 192 194 193 193 193 192 191 192 192 191 192 193 193 192 191 193 195 194 195 194 193 193 193 193 192 194 196 196 195 194 193 193 193 196 194 193 195 199 199 197 198 196 189 176 137 181 225 223 224 222 221 224 227 225 209 212 216 216 214 212 187 202 214 216 218 222 216 220 228 228 221 210 216 225 221 219 225 228 231 231 228 226 229 152 104 177 200 198 197 190 133 170 186 183 182 184 182 188 180 176 177 179 179 185 183 181 173 176 183 181 179 182 186 181 182 183 182 180 171 191 196 191 181 176 186 192 189 188 171 141 141 198 200 200 198 197 196 190 176 129 59 63 163 195 192 186 189 192 193 195 195 173 176 199 190 198 192 187 188 189 192 190 188 181 178 182 186 185 199 205 95 61 112 170 185 192 194 197 198 199 200 199 199 200 199 198 198 198 195 196 197 198 196 196 195 195 196 195 194 195 195 195 196 196 190 185 183 188 191 192 192 194 196 198 197 197 197 192 188 188 193 194 194 195 193 192 191 192 193 192 194 191 192 192 193 193 193 191 191 193 193 192 192 194 196 195 195 195 195 195 188 183 182 189 
191 190 189 190 191 191 190 190 189 190 190 192 190 188 187 188 193 192 192 193 191 191 192 194 195 195 196 197 196 197 198 197 198 196 192 192 195 197 197 197 195 194 194 192 190 178 138 158 227 223 227 227 223 222 222 225 221 209 214 219 211 212 209 193 211 222 222 225 221 215 219 227 233 224 203 210 222 223 225 229 232 231 231 227 221 117 111 180 196 197 195 190 129 171 185 183 186 184 182 186 178 175 181 177 173 182 184 184 189 186 181 176 179 181 183 182 180 183 186 184 179 179 187 187 184 180 185 186 187 181 169 146 140 196 200 201 202 201 201 195 185 155 80 52 86 194 191 195 187 189 190 189 192 194 173 174 192 187 203 191 190 189 188 185 186 181 177 180 184 188 222 135 64 70 136 175 185 189 192 194 194 195 194 193 195 198 199 196 196 193 193 198 205 211 214 217 213 212 212 212 203 196 195 198 200 201 199 196 195 196 196 195 195 192 194 194 193 192 193 195 196 197 195 193 192 194 194 193 192 192 192 191 194 194 194 193 194 194 194 193 194 193 194 193 192 193 196 195 194 194 193 194 193 193 191 191 
191 190 191 190 187 188 188 188 190 190 192 191 190 188 187 189 186 188 191 191 191 192 194 193 194 195 196 197 197 197 196 197 198 201 201 200 199 198 198 199 199 198 198 197 192 180 141 128 222 221 219 224 222 223 223 226 221 220 214 209 213 217 218 203 202 218 218 224 220 218 218 221 220 226 221 210 224 228 228 229 233 235 232 229 201 89 125 185 197 197 194 188 127 172 186 182 181 179 181 183 179 177 176 187 178 176 184 183 187 193 183 184 184 184 182 182 184 185 187 185 181 178 182 183 185 183 181 194 192 182 173 147 140 195 198 199 200 200 199 198 189 172 115 52 55 122 204 193 189 176 179 188 190 187 189 166 175 188 186 191 191 190 185 186 186 183 181 186 187 221 191 79 60 98 159 184 189 190 194 192 190 194 195 192 193 194 195 196 197 205 219 220 205 175 153 134 123 114 119 146 181 201 206 199 192 193 196 196 196 197 197 196 196 194 193 195 195 192 191 189 188 186 191 193 192 192 193 193 192 193 192 194 192 194 193 191 193 192 192 192 193 192 193 194 191 189 191 191 191 193 194 194 193 190 191 191 
190 189 188 189 187 186 187 189 190 191 191 189 192 194 192 191 190 187 185 185 187 188 190 192 193 194 195 196 196 197 195 195 196 197 197 199 198 197 198 199 199 199 198 195 187 178 142 106 209 225 226 227 222 224 226 227 225 224 223 224 224 221 214 215 205 206 205 220 225 219 215 220 219 223 223 215 219 222 232 221 226 232 233 227 161 78 137 189 196 197 196 188 122 165 190 182 184 182 182 183 178 177 176 185 181 176 181 182 184 188 187 186 187 185 186 183 181 182 189 186 182 185 185 181 186 182 180 177 173 180 175 144 141 195 201 202 203 199 198 199 195 183 150 79 49 59 147 205 192 184 179 185 187 194 190 188 165 158 181 189 190 187 185 189 183 180 181 186 218 219 122 60 72 134 177 191 196 199 202 203 203 202 200 200 200 198 196 204 220 207 163 121 109 113 113 101 89 81 71 62 67 91 127 180 210 201 193 195 195 195 195 192 190 192 193 194 196 196 195 194 194 193 192 191 192 193 192 190 190 192 194 193 191 191 191 192 190 191 190 188 189 192 192 192 193 193 188 186 183 183 184 184 188 188 188 190 
189 188 190 190 190 190 191 191 192 192 193 192 193 193 192 193 194 193 191 189 188 185 184 186 190 189 189 191 190 191 192 192 192 192 192 194 195 197 198 196 197 198 197 196 194 182 148 93 179 226 227 229 227 224 226 228 228 225 223 224 223 224 220 218 218 213 210 215 226 221 213 218 210 212 223 223 216 212 220 220 223 230 229 219 109 84 153 191 197 197 193 187 123 153 191 182 183 179 181 183 174 175 186 184 178 177 174 178 182 183 187 186 184 183 184 183 180 179 186 187 183 184 186 186 183 180 182 180 177 178 171 134 142 194 200 201 202 202 201 201 197 190 174 123 56 51 69 160 205 198 188 185 187 186 187 187 186 187 187 189 190 187 187 188 185 182 184 218 225 140 70 59 102 160 185 189 196 200 201 201 201 200 199 197 195 197 216 214 154 100 112 146 167 176 176 176 171 165 149 129 119 97 67 71 123 185 208 196 194 193 192 196 194 193 194 194 194 193 193 193 194 195 194 193 192 192 194 192 192 189 189 190 192 193 191 192 193 194 192 191 187 188 187 184 185 188 192 192 190 189 190 192 191 190 192 191 
184 186 188 188 190 190 189 188 188 189 188 188 186 185 187 189 189 191 193 193 193 192 189 190 191 190 190 191 194 193 194 194 193 195 194 193 193 195 197 196 195 194 195 194 190 184 156 94 134 227 224 224 226 226 226 226 227 227 225 226 224 225 226 223 220 216 213 209 220 219 216 222 211 212 219 213 211 213 217 218 229 233 226 184 75 98 165 190 195 196 194 187 121 137 195 183 185 189 188 186 175 166 176 181 179 175 173 172 178 181 184 185 184 184 186 187 187 182 190 187 183 181 182 182 184 178 193 195 187 185 171 127 147 193 199 201 204 204 200 195 192 188 179 153 92 46 55 71 154 209 210 198 185 177 177 176 182 185 187 186 186 187 189 190 189 203 229 219 139 72 58 79 135 176 191 195 197 198 198 198 199 201 202 201 203 223 196 112 102 146 176 188 190 188 188 185 181 182 175 170 167 167 143 105 69 77 146 203 198 192 191 190 190 190 192 192 193 193 194 195 194 194 194 193 193 192 192 190 191 190 189 189 190 189 189 191 191 190 190 189 189 191 192 191 189 190 191 194 193 191 190 190 191 190 190 191 
190 187 184 186 186 187 188 189 190 190 188 192 192 189 187 187 188 188 188 189 187 188 189 189 190 191 191 190 191 191 193 195 197 196 197 197 196 197 197 197 197 197 194 192 188 179 157 108 90 214 224 223 228 228 226 223 226 228 226 228 226 223 218 222 220 218 215 211 211 217 213 224 218 207 206 215 221 227 231 231 230 227 225 119 70 117 177 195 196 194 192 184 125 117 197 186 189 187 184 188 179 163 165 177 179 173 176 177 176 182 182 184 183 183 186 190 186 186 192 183 182 183 182 182 186 176 180 185 184 184 170 116 150 193 202 204 204 204 204 202 200 196 185 171 136 76 42 52 66 136 199 216 213 201 193 191 186 186 191 189 187 189 193 202 221 231 204 123 70 57 64 107 155 181 191 195 198 200 201 201 201 200 199 204 225 177 96 116 166 180 172 180 182 184 188 189 184 188 185 181 177 179 181 172 146 90 63 112 190 199 194 196 194 193 192 188 186 183 183 185 189 192 193 189 189 192 192 190 188 188 190 189 192 191 192 193 191 190 190 190 191 193 193 192 193 192 188 191 193 194 193 191 191 190 187 186 
188 190 189 190 189 190 191 190 190 189 189 191 193 192 193 191 191 192 193 193 192 193 193 191 191 191 191 190 188 188 188 190 192 192 190 190 189 191 192 193 195 197 194 190 185 179 159 121 68 167 233 223 223 223 227 226 226 225 226 226 227 222 219 225 221 218 219 217 205 208 216 224 232 226 224 222 222 219 220 230 226 225 186 71 76 137 184 198 199 197 193 183 133 91 186 188 189 188 181 180 186 165 160 181 181 186 188 197 185 182 181 180 184 182 187 191 187 189 187 190 199 188 179 187 189 179 183 175 175 177 167 98 153 191 202 204 204 202 201 201 201 197 192 183 165 121 67 38 50 59 95 170 211 223 220 214 210 206 203 205 208 216 220 219 200 159 100 66 54 57 93 137 168 183 192 196 199 199 200 201 202 201 204 223 179 95 121 174 185 171 168 171 174 187 190 186 187 189 183 184 183 180 183 176 156 162 121 67 96 179 197 196 195 196 197 196 196 193 190 185 183 182 187 190 187 187 187 188 190 189 189 192 192 193 191 191 192 190 190 191 189 192 192 190 190 190 188 186 187 187 186 186 187 189 188 188 
191 190 190 191 191 192 193 193 192 192 191 188 189 190 192 192 194 191 192 194 194 195 195 194 195 194 194 195 194 193 191 188 190 196 206 213 217 216 215 211 204 197 194 192 190 184 166 136 77 102 228 230 227 224 225 219 224 227 226 228 228 225 222 223 223 219 220 222 217 219 225 223 227 232 226 217 211 217 213 221 225 222 102 62 91 156 186 194 198 197 193 182 140 72 163 189 180 182 183 180 187 171 156 184 184 197 191 202 198 181 184 181 184 187 192 194 190 191 192 192 192 186 196 208 189 185 181 176 175 175 151 91 158 189 196 196 200 200 200 201 201 199 195 188 178 155 110 63 38 46 56 67 117 170 197 209 220 223 221 218 206 189 163 131 97 72 57 46 57 90 129 167 183 191 197 198 199 201 204 202 200 199 222 189 104 128 166 185 186 167 172 188 181 181 186 187 191 187 187 200 201 197 184 180 172 176 166 136 82 90 175 199 199 197 197 197 196 196 198 197 196 195 196 197 196 194 196 195 194 194 193 191 192 192 192 192 191 193 193 194 194 193 192 191 190 190 191 191 193 193 191 190 190 188 186 185 
188 185 187 187 184 183 184 186 186 188 191 192 194 193 192 193 195 194 193 193 192 191 190 189 188 188 188 189 192 192 192 203 212 202 181 168 164 164 168 178 194 213 214 200 188 182 168 145 97 60 164 240 230 224 227 223 224 228 229 232 229 228 227 225 225 223 223 223 223 221 224 225 223 218 219 220 214 204 210 224 237 151 62 65 116 165 187 194 195 193 190 184 151 69 140 197 184 182 189 185 184 178 143 160 182 183 183 182 186 183 182 184 181 187 191 198 193 189 184 176 176 181 187 179 182 183 178 180 181 177 128 97 167 194 199 200 201 200 200 203 203 201 200 198 189 175 148 105 66 38 38 56 69 74 93 119 138 144 140 128 113 95 76 65 58 45 43 63 87 127 164 183 191 196 200 201 203 205 203 200 197 211 204 115 130 175 181 180 182 178 176 184 174 180 191 193 192 202 216 217 215 207 188 185 182 177 175 173 144 79 96 181 194 199 197 198 197 197 196 196 197 196 197 198 198 198 197 197 196 196 195 194 196 195 194 195 195 193 192 194 194 194 194 194 194 192 189 188 190 190 191 193 190 188 187 184 
185 186 186 186 185 185 185 187 186 184 187 188 186 186 189 190 188 189 188 188 191 192 193 192 191 191 193 195 195 195 205 191 159 153 163 172 177 179 176 165 148 144 169 209 216 187 173 155 115 61 81 213 233 227 229 220 224 224 223 224 226 227 228 226 225 221 222 223 222 222 219 223 223 223 222 224 222 219 224 235 191 73 58 77 141 182 193 196 197 197 195 186 159 77 106 195 190 184 184 187 184 185 158 148 176 177 179 180 176 174 169 181 189 190 191 190 190 184 172 168 172 182 181 176 178 179 183 183 179 180 95 110 173 192 196 200 201 199 199 199 199 199 196 193 193 186 172 144 108 76 46 33 42 59 68 68 65 66 67 65 61 56 50 40 37 50 72 93 124 157 179 189 195 196 197 198 200 199 199 200 206 213 132 131 174 187 185 181 176 182 183 175 189 192 191 197 208 214 180 161 192 204 189 187 188 186 184 171 159 144 79 115 185 194 195 195 197 197 196 197 198 196 193 193 194 194 194 194 195 194 194 194 196 195 196 195 192 193 191 191 190 190 190 192 193 193 189 185 184 186 184 187 184 181 185 186 
186 188 191 189 188 189 191 190 191 189 187 186 181 182 185 185 184 184 181 183 187 193 195 193 194 192 191 189 196 196 167 156 175 186 187 189 185 184 187 186 187 179 163 151 180 214 189 166 135 79 51 124 234 228 226 221 221 222 219 223 228 227 228 228 227 226 225 226 223 223 219 219 224 227 226 229 231 228 227 215 93 59 60 109 156 180 189 194 196 195 192 186 166 96 74 172 195 183 182 182 180 186 175 152 169 177 175 183 192 181 170 167 178 178 178 183 181 169 170 172 177 186 185 166 170 183 179 180 180 159 75 123 179 196 201 202 201 202 203 202 202 201 201 199 196 191 183 170 146 118 88 63 43 29 27 31 33 36 36 34 32 34 40 53 70 84 100 129 161 178 189 195 196 199 200 199 202 200 198 199 219 162 123 172 189 188 185 185 183 183 189 185 188 189 201 191 190 183 186 178 179 190 193 191 190 190 179 167 162 166 134 78 147 183 194 195 196 195 195 198 199 199 195 194 192 192 192 191 190 191 190 188 188 187 186 189 195 197 198 198 197 196 196 195 195 195 196 194 192 193 193 193 194 196 196 196 
187 188 189 191 191 190 190 191 189 188 189 188 188 188 189 188 189 189 189 187 189 191 192 193 194 194 190 195 182 156 175 186 185 185 183 199 197 184 187 186 184 184 187 182 164 160 207 190 147 102 59 57 161 238 224 227 225 216 216 222 226 228 225 226 223 225 228 227 225 226 224 222 225 228 228 230 227 227 229 114 61 55 83 143 177 190 194 194 195 195 192 186 169 114 56 134 199 183 178 178 181 178 182 160 167 176 172 170 178 179 177 173 157 157 160 168 162 167 175 177 179 191 176 153 165 178 178 180 181 114 76 134 182 194 197 200 202 203 203 202 204 204 202 202 206 210 213 211 204 192 167 136 101 66 48 44 41 43 47 51 59 71 83 90 100 117 140 164 179 188 192 196 195 196 199 201 199 199 198 210 192 123 164 189 190 188 191 191 178 190 199 224 229 207 180 171 169 174 177 183 185 195 185 188 188 186 179 170 184 177 169 124 91 169 187 192 193 190 186 189 191 193 196 196 198 197 196 194 192 190 189 190 191 189 186 184 182 182 184 187 190 194 196 196 195 196 195 196 195 196 196 195 193 192 190 190 
182 180 182 186 185 188 187 186 186 185 189 189 189 187 188 189 189 190 188 187 189 188 189 192 191 182 191 173 160 181 182 181 177 177 189 185 187 183 189 189 184 181 184 185 185 175 156 202 177 124 78 51 67 176 239 220 223 221 222 217 216 217 221 221 218 223 222 223 225 227 224 226 229 228 226 228 228 232 134 63 57 68 120 158 177 188 194 196 198 198 195 190 177 131 60 83 184 191 180 181 179 181 184 177 149 178 176 168 162 161 165 168 163 175 175 153 168 176 178 184 195 170 148 174 173 172 179 180 166 75 89 149 185 196 198 198 199 200 202 200 200 206 215 218 213 200 185 174 165 167 175 189 199 184 135 86 74 80 85 91 95 102 108 113 128 153 169 179 187 193 198 200 202 202 202 202 202 202 201 213 143 145 188 191 187 190 193 191 188 189 180 204 210 184 175 180 172 179 179 189 194 184 162 187 183 182 186 181 166 184 185 171 112 120 185 198 199 198 198 198 196 195 194 190 194 197 198 197 194 197 196 196 196 197 195 195 195 196 195 193 191 190 192 195 194 193 192 193 191 188 192 193 194 195 191 188 
186 185 185 185 186 185 187 187 186 185 186 187 188 188 187 189 189 190 190 187 187 188 186 186 178 187 170 162 182 180 183 184 175 167 190 191 186 179 182 188 189 185 186 188 182 182 179 156 198 160 105 62 50 71 181 240 221 217 214 216 220 214 217 226 223 221 223 220 221 222 223 225 231 231 229 234 228 131 64 59 59 104 151 172 183 190 194 194 195 196 196 191 179 142 73 56 143 200 184 182 182 183 186 186 165 148 184 175 172 175 170 171 175 176 179 174 174 181 188 194 166 150 180 181 175 172 179 186 116 66 105 163 187 197 200 200 200 202 202 206 218 212 183 157 151 158 158 165 168 166 161 150 149 157 186 196 160 118 113 120 128 138 147 158 166 176 183 189 193 193 196 199 199 199 198 199 205 202 204 177 130 177 193 189 192 192 189 191 203 219 190 141 173 199 191 181 164 182 180 190 174 163 163 182 191 209 213 193 175 186 190 184 162 110 160 192 200 195 193 198 197 196 197 197 194 193 196 197 195 196 197 198 199 200 197 196 195 196 194 195 196 195 196 197 196 197 196 195 194 193 191 190 191 192 195 195 
188 187 187 186 188 187 188 190 190 189 189 190 190 190 189 188 187 188 188 189 188 187 189 187 185 174 161 183 182 180 184 187 178 174 183 188 188 186 179 187 189 189 186 182 183 187 193 195 161 195 135 89 53 51 70 177 239 228 212 212 214 214 221 220 220 207 216 221 222 225 228 231 230 226 238 212 111 65 58 54 89 140 168 183 193 198 199 199 200 198 197 191 179 154 93 52 89 188 193 180 182 177 182 188 184 164 147 174 188 174 175 177 174 164 168 183 187 196 193 155 152 182 181 180 180 180 186 166 74 72 125 171 187 195 199 202 199 199 213 213 175 147 158 178 190 191 189 186 188 186 187 187 185 173 152 152 187 200 166 156 164 172 177 182 187 191 193 195 199 197 196 201 198 196 198 199 201 197 202 141 159 191 196 182 192 188 188 194 206 208 200 170 160 199 194 184 163 177 183 159 158 162 179 183 195 177 175 188 185 186 187 187 176 149 134 182 196 196 194 193 195 196 199 199 198 197 195 195 192 187 186 186 185 191 193 194 195 194 193 194 194 193 193 194 194 195 197 197 196 195 196 194 193 192 194 194 
187 186 186 187 186 188 189 188 187 187 188 189 187 189 190 190 188 189 190 191 191 190 191 183 178 161 185 182 186 184 183 184 179 177 184 186 178 181 181 191 189 189 188 187 195 204 200 197 178 165 187 119 77 50 52 62 147 227 236 218 209 207 218 220 220 210 210 211 223 230 228 225 230 236 179 86 66 57 53 79 128 161 177 187 195 199 199 200 200 197 194 188 180 163 117 59 52 131 199 184 176 179 172 180 183 179 172 146 173 193 187 185 180 183 191 200 203 179 143 160 184 180 180 178 179 187 189 104 62 87 146 179 194 197 197 198 202 220 197 146 160 182 186 188 194 189 184 186 184 183 184 183 182 188 190 178 147 157 202 192 180 184 185 188 190 191 190 192 194 191 190 185 186 185 186 193 194 197 186 135 184 195 190 182 180 189 192 201 200 177 168 166 144 184 198 177 169 167 169 169 167 170 180 181 154 150 154 163 187 188 188 189 182 173 129 166 188 194 194 193 190 189 188 187 191 195 196 196 196 196 194 193 193 192 193 193 194 193 191 188 189 191 191 193 195 194 194 193 191 192 193 194 194 195 194 195 
189 187 185 186 187 188 189 188 185 186 186 187 186 187 189 189 189 189 188 189 191 192 190 182 161 183 184 184 187 182 184 184 184 182 179 181 190 196 182 180 187 188 191 200 202 191 176 167 183 161 184 163 104 68 46 52 51 108 193 235 234 225 217 215 216 209 206 204 220 231 237 237 203 124 70 64 53 53 75 115 151 170 182 192 197 198 194 196 197 197 197 195 188 171 137 76 50 67 176 195 179 176 178 171 179 182 179 178 146 148 174 194 187 184 183 167 141 141 173 187 188 181 179 175 174 190 141 60 66 110 162 188 195 197 196 199 220 182 152 179 188 188 188 188 185 186 191 186 194 195 186 182 183 186 186 183 178 159 140 192 200 187 192 192 193 193 192 192 195 198 197 196 196 195 196 195 194 201 158 155 193 192 189 181 187 189 193 175 153 174 196 183 147 163 191 189 203 183 172 184 165 195 191 194 187 195 186 162 177 182 189 190 188 181 152 143 184 197 198 197 197 197 193 187 180 178 182 189 194 195 196 196 197 196 194 194 195 195 195 194 190 190 187 181 180 179 182 186 188 189 191 192 193 195 195 195 
190 191 190 189 189 188 190 191 190 189 188 186 186 188 188 188 185 187 188 187 189 189 183 164 177 185 184 187 185 184 185 186 186 177 182 186 197 197 189 181 188 190 194 190 180 170 168 185 186 186 162 194 131 96 64 42 52 51 62 114 177 221 235 238 238 235 234 233 232 214 170 118 75 63 60 49 54 73 107 145 166 177 187 191 195 197 195 191 189 186 186 186 184 174 149 102 57 48 88 189 198 182 179 174 176 174 172 178 183 167 150 142 140 142 143 150 170 181 188 184 181 179 173 170 183 168 70 58 81 130 167 188 198 201 204 216 175 157 184 186 189 189 186 188 186 193 188 186 185 194 195 192 189 193 191 181 176 182 171 139 186 199 188 193 196 195 195 197 198 200 201 201 199 198 199 199 189 192 138 178 192 193 190 181 180 191 192 182 186 151 172 196 171 158 205 224 229 212 178 178 191 210 216 217 195 177 187 171 174 174 190 190 188 186 176 139 167 191 196 193 191 191 193 193 193 189 187 188 191 192 192 194 195 194 193 195 195 194 195 195 195 194 195 193 191 188 186 185 187 189 189 190 189 189 189 190 
188 189 190 190 189 189 188 189 190 191 192 188 186 187 185 187 188 190 190 186 186 185 173 169 184 187 185 187 187 186 184 184 178 180 184 187 185 170 180 188 193 194 190 179 175 179 186 187 188 189 172 185 170 128 94 63 45 48 54 50 59 89 122 144 151 154 147 130 102 78 65 64 63 52 49 61 80 106 136 163 177 186 193 196 197 198 197 195 196 194 194 192 187 180 164 128 76 53 43 99 193 200 187 180 172 178 174 177 183 174 181 184 178 182 182 181 178 181 173 177 174 175 179 184 182 86 59 65 100 147 176 192 199 201 212 175 161 188 187 189 190 184 181 185 193 187 184 188 187 173 183 184 188 188 188 184 188 192 185 175 144 189 199 195 200 200 203 201 200 198 198 201 202 203 202 200 187 178 143 187 191 192 189 179 175 209 218 191 182 161 161 186 174 153 180 210 207 220 206 187 204 208 188 173 193 192 172 201 180 176 187 188 189 187 183 152 154 181 196 194 192 191 189 189 190 194 194 194 192 193 193 194 194 194 192 192 192 191 191 193 194 194 195 192 189 187 186 185 182 184 183 180 183 183 182 183 
190 190 189 188 189 190 189 187 187 188 189 191 190 190 190 189 187 187 188 187 183 179 163 181 181 184 185 185 186 187 183 178 177 186 190 190 188 192 193 194 196 196 187 179 183 188 188 188 188 187 186 170 192 152 131 95 69 52 43 47 54 56 53 57 63 63 61 63 66 67 61 54 49 55 68 84 111 145 164 174 183 189 191 195 195 196 197 195 197 198 199 194 188 185 172 147 102 63 50 41 99 185 200 184 180 174 175 177 179 183 174 181 176 175 177 179 177 175 168 176 178 183 193 183 97 60 61 82 119 151 167 176 190 196 188 157 189 188 191 186 185 185 184 191 195 193 194 194 194 187 183 185 190 190 190 185 194 204 196 185 175 145 195 200 199 200 198 198 200 199 197 199 199 199 199 194 187 160 161 186 187 187 186 183 190 193 184 186 168 157 164 166 179 161 161 187 196 217 219 207 194 204 215 194 180 198 210 177 174 171 183 192 191 188 188 166 146 174 189 193 194 196 196 197 197 196 195 194 192 191 193 194 191 192 193 191 190 190 190 193 189 191 193 194 195 192 191 193 191 190 190 190 188 186 185 183 
185 186 186 187 190 189 189 189 190 188 189 189 189 188 187 186 188 187 189 192 187 174 168 183 183 184 186 186 186 186 181 183 185 194 199 209 201 194 192 199 192 187 177 183 189 189 191 190 191 189 188 169 193 168 156 134 101 76 63 52 45 42 45 49 54 58 58 55 51 47 47 54 65 79 92 115 146 168 176 180 187 190 191 194 196 195 195 199 197 196 194 192 189 188 183 168 134 88 60 49 41 89 169 196 190 181 177 177 176 182 175 174 172 175 175 176 174 172 177 175 178 195 183 98 55 58 73 109 150 175 187 190 188 199 161 187 190 191 190 189 185 188 191 186 189 194 195 194 196 195 194 193 193 192 193 189 195 199 199 187 183 169 152 204 200 200 199 199 199 199 197 197 196 197 198 188 188 149 175 183 181 191 185 181 190 172 158 189 176 177 176 175 192 177 162 181 172 178 187 176 195 201 193 190 198 201 176 184 188 185 173 192 190 187 184 181 152 169 185 194 194 195 196 197 198 199 197 196 196 196 195 195 193 194 194 196 194 193 193 194 194 191 191 190 192 193 192 192 191 192 191 190 190 189 188 189 
182 181 182 181 182 186 187 189 190 189 188 188 190 189 190 191 189 189 189 190 183 164 179 182 182 185 187 187 186 186 181 183 186 196 200 192 195 198 185 187 184 178 180 190 191 191 190 190 188 189 188 179 181 185 169 157 135 105 84 74 67 59 53 49 47 46 47 49 52 56 65 75 87 106 129 151 168 176 184 187 189 188 186 188 190 190 190 191 193 196 194 194 190 188 181 172 154 120 81 58 49 40 71 137 189 199 189 179 173 178 171 169 176 176 167 171 178 172 179 188 201 160 85 58 56 65 91 133 164 181 191 191 201 172 181 192 189 190 182 186 191 194 191 191 192 195 195 196 196 198 194 192 191 195 197 191 192 179 175 183 185 183 160 176 200 198 198 199 197 198 199 199 197 198 199 182 180 149 185 184 180 186 189 186 180 180 174 165 177 186 187 187 183 187 167 161 154 150 142 154 163 151 147 170 200 179 178 189 192 201 173 185 191 186 176 181 168 159 181 192 193 192 192 192 193 193 193 192 193 193 194 195 196 196 196 195 196 196 194 193 195 194 193 193 194 192 191 193 193 193 192 192 190 189 192 191 
189 189 188 187 185 185 187 188 189 189 186 185 190 190 191 190 190 190 189 187 179 165 188 192 188 187 186 184 184 186 182 183 183 191 186 184 186 191 181 177 182 190 192 193 193 191 191 192 187 190 186 184 172 192 175 171 159 141 119 100 85 75 72 70 68 68 68 70 74 79 89 101 119 141 160 170 175 177 180 186 191 198 202 204 207 205 201 198 196 196 196 195 192 191 186 182 167 147 109 75 55 48 42 45 98 155 195 203 192 184 179 179 177 179 180 183 190 192 200 178 128 71 58 55 63 84 120 156 176 188 194 196 187 172 195 189 187 186 190 184 192 193 197 196 194 195 195 197 198 197 197 194 193 195 191 178 182 184 193 191 189 187 185 153 194 195 199 200 200 201 200 200 197 194 194 177 170 155 185 188 187 185 182 182 185 188 181 175 181 187 178 183 175 197 167 149 185 167 180 166 161 177 170 182 180 178 189 213 200 183 170 182 188 188 194 202 181 148 174 192 192 188 187 186 186 185 185 183 184 185 184 184 187 192 194 193 192 195 196 195 195 196 195 194 193 192 193 193 192 193 194 194 190 189 188 189 
190 189 188 183 180 178 179 180 181 183 183 185 183 184 187 188 187 187 188 183 172 174 184 189 189 187 185 184 183 185 185 184 181 186 181 179 183 191 190 185 179 198 199 193 193 194 192 188 191 190 195 186 172 192 180 180 170 161 153 139 123 108 98 90 85 85 88 93 103 114 127 141 156 168 174 174 182 201 220 231 238 237 235 234 231 232 236 235 230 220 202 189 190 187 185 187 178 164 138 104 77 58 51 47 36 49 88 139 173 196 203 198 199 199 200 200 186 160 126 75 58 57 55 63 82 111 143 165 183 191 189 194 162 190 190 188 190 189 189 193 197 195 195 200 195 197 196 198 197 192 198 195 192 192 184 183 170 188 187 187 191 192 189 170 165 200 199 199 201 202 202 200 199 198 197 179 165 165 187 188 197 196 180 182 200 192 184 154 179 188 164 170 169 188 170 168 173 174 190 157 181 200 167 159 172 174 189 195 194 196 206 185 178 186 194 169 170 156 171 191 195 195 193 195 193 191 191 190 189 189 189 189 190 190 191 193 194 195 195 193 192 193 192 192 190 190 190 191 191 190 192 191 192 194 191 191 
187 188 187 188 187 188 186 183 181 184 185 185 185 187 187 186 189 189 190 177 167 179 181 182 184 185 186 186 184 184 187 185 178 182 189 172 173 182 196 198 184 190 198 197 194 195 192 192 192 188 187 186 173 186 181 184 180 174 168 160 151 145 140 137 132 130 132 136 143 150 157 162 168 176 193 217 234 231 216 191 170 149 135 127 127 138 153 176 203 228 238 229 209 192 191 188 183 174 163 138 103 79 64 53 52 49 43 40 49 75 100 123 131 126 106 97 71 55 52 55 55 56 69 84 107 139 165 179 187 192 184 180 176 188 187 187 183 190 188 195 198 199 204 201 198 196 194 190 193 195 192 191 184 184 187 189 185 182 196 197 189 192 188 186 157 188 196 198 199 200 199 197 198 197 192 175 159 173 187 185 187 192 186 187 179 185 178 151 167 188 185 169 176 181 187 168 163 191 172 169 184 191 164 148 145 157 173 172 177 193 199 180 180 184 165 157 171 167 167 188 196 196 194 195 192 192 191 191 192 193 194 195 195 193 191 191 191 192 192 188 183 183 186 190 191 188 186 185 185 184 186 188 188 190 192 193 
181 183 185 187 187 186 185 185 187 186 187 187 189 190 189 191 191 191 189 176 171 181 186 188 187 188 186 185 184 185 185 182 180 182 183 176 190 193 190 204 203 188 191 191 193 194 194 191 182 179 178 181 178 177 184 186 182 178 176 169 162 160 159 155 155 157 159 161 166 168 170 173 187 217 233 216 183 139 105 93 101 113 124 133 131 124 112 96 96 118 163 209 237 227 199 187 187 183 174 161 140 109 83 69 57 48 51 54 50 44 38 37 41 42 40 42 49 54 51 50 58 75 86 108 140 164 179 190 195 192 189 172 185 188 189 188 187 187 192 186 201 206 199 191 196 192 191 197 205 209 201 196 189 197 189 191 193 194 192 187 188 193 188 188 172 167 192 198 200 201 200 201 200 194 181 170 158 177 182 181 182 181 178 173 183 175 186 196 178 168 187 184 187 164 182 176 179 178 165 190 192 184 172 180 167 139 140 164 201 187 178 176 178 176 197 190 180 174 166 185 198 197 196 196 194 193 192 193 190 190 192 194 196 194 192 191 189 190 189 191 189 183 178 182 186 188 183 186 187 189 192 189 187 185 184 186 
185 182 179 181 179 180 182 183 184 186 187 186 187 188 185 182 180 182 175 173 177 181 181 188 187 188 187 186 185 184 183 179 181 180 181 194 197 199 203 194 205 198 190 187 195 195 194 192 182 186 185 186 184 171 179 188 189 186 185 181 177 174 171 167 164 167 171 173 176 177 179 207 234 217 167 116 96 120 158 181 193 189 189 189 195 195 199 193 171 140 105 102 157 214 231 204 187 184 177 167 157 142 115 86 75 65 56 50 47 50 53 53 53 53 52 49 46 47 55 68 79 91 108 136 159 174 183 188 193 184 180 178 187 187 185 190 195 197 205 210 202 195 198 198 193 185 196 206 207 211 207 205 206 201 196 194 191 188 182 176 181 184 194 185 182 154 182 189 195 198 198 198 197 193 174 169 162 182 188 190 193 186 172 174 182 187 202 200 179 163 182 190 183 174 182 190 184 162 188 174 188 174 168 193 182 162 163 170 185 185 186 175 180 203 190 179 184 172 168 175 193 192 192 194 194 193 194 194 194 193 193 193 192 192 191 193 193 190 191 191 191 192 190 188 184 187 188 187 185 185 185 187 187 185 182 182 
185 186 185 186 186 186 185 184 186 186 186 188 180 180 184 184 183 183 170 172 178 186 177 171 186 188 188 187 187 186 183 182 180 181 178 180 189 196 193 186 189 203 196 197 192 191 193 192 183 185 192 191 187 173 167 182 190 189 188 188 187 186 185 185 182 181 182 181 180 188 223 227 184 121 101 140 181 192 185 195 188 178 193 194 190 186 190 189 186 193 190 168 113 112 181 224 211 186 184 177 168 155 139 116 95 83 77 71 64 56 53 51 50 51 53 56 63 71 79 89 103 121 145 161 176 182 187 193 191 180 171 185 189 190 188 193 200 201 200 198 195 197 191 188 192 193 197 190 182 184 184 183 186 191 194 199 192 181 178 183 178 179 187 186 184 168 168 182 186 184 185 190 191 191 169 166 167 182 180 184 185 185 178 194 197 199 179 181 170 186 161 189 174 185 183 180 161 183 180 180 186 164 183 191 167 170 197 194 167 182 184 170 175 152 161 180 181 175 167 172 195 196 195 193 192 195 194 193 193 195 195 194 194 194 193 193 194 194 193 195 195 194 194 193 193 192 191 191 190 190 190 191 191 189 189 188 
185 183 186 183 184 183 184 185 187 187 186 186 190 188 189 187 189 188 172 169 180 181 184 174 182 188 188 188 187 186 185 181 182 179 173 180 189 183 179 180 191 197 200 193 193 193 194 189 189 191 191 189 188 178 161 174 191 190 192 192 192 190 189 189 189 187 188 186 197 233 213 140 96 141 186 194 183 186 190 183 183 192 183 185 190 184 185 187 184 192 188 179 186 155 97 154 217 213 183 180 174 169 158 143 128 108 92 83 79 77 77 76 77 78 79 81 83 89 102 120 141 157 166 176 184 191 194 197 187 177 173 189 190 190 196 193 190 194 191 188 191 187 191 200 194 189 192 188 185 185 183 187 194 201 205 195 191 189 186 189 188 182 180 183 184 182 161 184 194 194 191 191 190 186 163 166 167 183 191 193 195 190 177 184 186 170 162 177 171 191 179 184 172 189 186 158 168 189 176 187 174 179 187 186 162 187 198 195 170 176 186 164 179 188 180 176 166 174 166 164 186 188 189 188 188 189 190 189 188 188 190 191 192 192 190 187 186 187 187 189 189 188 188 187 186 187 189 190 190 189 190 191 189 188 189 187 
185 184 185 185 182 184 186 186 184 184 186 185 186 187 188 188 187 181 166 171 182 179 175 181 179 186 186 187 190 187 183 178 176 174 179 184 190 178 169 176 189 190 198 211 211 198 201 195 192 190 188 189 188 180 159 163 189 186 185 186 189 189 190 190 191 191 187 200 233 198 116 107 175 192 191 189 185 176 184 179 176 187 190 185 195 190 187 191 187 195 189 187 185 189 177 110 135 212 206 178 178 173 168 162 153 142 128 113 101 96 94 93 94 94 97 101 107 121 139 154 164 172 179 185 189 192 195 197 177 176 179 188 193 194 183 189 189 189 193 193 188 191 193 200 214 214 197 186 187 183 190 194 194 195 196 205 194 185 187 190 195 184 186 182 185 186 163 178 184 193 194 191 190 187 157 166 169 181 204 200 183 187 178 185 165 167 168 170 188 191 206 185 187 174 183 158 179 170 190 176 175 182 171 167 187 196 191 185 185 180 181 167 177 188 187 175 176 179 166 160 182 187 184 183 183 185 187 188 187 187 185 183 184 184 184 185 186 188 188 186 187 188 187 187 182 182 184 186 187 186 183 183 183 181 183 187 
187 185 184 186 185 185 185 187 185 185 187 185 185 184 185 185 182 176 165 174 181 180 179 178 183 184 186 187 188 187 182 175 177 178 183 182 190 181 186 182 180 178 177 177 187 191 188 194 197 194 187 186 188 180 161 152 188 189 184 177 183 186 185 183 189 188 198 226 190 103 121 189 191 188 184 197 187 190 184 187 186 175 196 199 184 183 206 184 184 194 187 191 181 179 187 189 118 127 206 192 177 180 176 168 163 158 152 144 135 132 129 127 128 129 134 141 147 154 160 166 174 180 187 189 193 195 195 196 168 176 185 189 195 194 187 184 188 192 195 201 199 185 192 195 201 200 188 211 208 195 192 192 192 191 192 204 199 196 193 189 186 184 187 188 187 187 171 172 181 194 195 193 190 187 155 160 172 177 161 166 164 168 178 188 162 143 147 142 175 189 171 190 203 162 168 173 193 177 160 162 180 190 168 166 182 191 185 173 186 179 181 179 179 179 183 186 184 182 164 160 178 187 185 185 187 188 186 185 186 185 186 185 186 185 184 181 177 177 182 186 186 187 188 188 188 187 183 183 183 185 184 182 183 183 182 182 
183 184 184 185 185 186 186 185 186 189 189 185 184 184 184 183 179 172 169 175 181 182 183 181 185 184 184 183 187 186 178 173 181 181 182 186 190 184 184 187 181 180 179 180 178 182 185 187 191 192 188 186 188 180 160 146 189 190 192 194 192 190 185 179 179 188 218 181 100 135 193 195 188 194 187 195 190 194 187 184 190 189 173 173 192 185 166 168 194 191 187 190 186 187 181 187 188 119 133 205 184 178 182 180 176 172 169 164 157 156 159 159 161 162 162 164 167 171 176 181 180 184 186 188 189 189 190 187 165 175 185 187 188 182 192 194 193 192 198 198 197 199 199 202 192 182 198 198 195 194 184 188 190 184 192 196 209 206 194 188 183 182 186 186 189 188 178 165 174 191 191 192 190 186 150 155 174 183 189 188 188 189 179 179 167 168 171 177 149 171 175 171 189 167 169 184 174 166 168 184 201 186 178 187 175 175 173 173 189 179 185 179 179 179 178 199 193 179 168 152 166 178 180 184 184 183 183 184 184 182 185 185 185 188 188 187 188 185 180 179 179 181 182 184 180 183 182 178 180 183 183 183 183 182 184 185 
177 180 183 182 183 184 183 183 182 180 184 187 183 177 177 178 178 170 167 179 181 185 184 182 185 184 185 184 185 185 172 178 182 183 183 187 187 184 186 189 184 182 185 186 182 181 188 188 187 187 184 184 186 183 158 145 191 194 194 191 191 192 194 191 187 212 185 100 144 192 181 203 191 193 190 188 194 179 182 187 194 196 194 186 191 191 189 192 197 183 173 186 194 174 184 181 181 189 117 145 202 169 179 180 180 181 179 178 175 171 171 173 178 182 181 180 182 180 185 188 188 189 189 191 191 189 188 174 168 176 188 188 180 179 190 191 192 193 198 188 185 196 200 191 182 183 197 195 194 194 187 192 203 212 209 203 216 221 205 192 188 185 187 188 189 187 185 162 172 188 189 189 189 187 148 147 173 186 192 186 178 185 178 177 171 173 175 159 150 157 172 152 164 188 176 169 169 189 178 190 200 160 172 173 164 171 171 183 174 195 175 171 179 185 183 181 167 174 174 147 167 186 189 185 184 185 185 185 187 186 187 186 183 184 187 186 185 186 188 188 187 184 185 188 187 186 185 186 184 185 186 186 184 183 183 182 
183 181 182 182 185 186 186 185 185 184 184 185 187 185 182 179 175 161 165 182 182 185 180 177 179 183 185 185 183 178 176 183 180 182 184 185 186 185 185 188 187 188 189 183 185 185 187 187 182 184 187 183 185 180 150 142 190 193 195 193 190 191 192 191 209 195 109 148 195 191 182 193 196 193 188 182 187 189 195 196 195 197 201 215 222 218 210 197 191 194 184 176 183 179 195 178 184 191 186 108 164 196 169 184 180 183 183 182 179 180 178 177 183 186 188 188 188 186 186 189 190 191 189 189 191 192 191 166 173 178 189 190 186 189 192 186 193 196 186 192 198 196 200 193 195 201 193 181 181 184 195 201 198 196 198 198 193 191 192 192 193 189 188 190 191 187 186 165 170 183 193 191 188 181 143 139 173 184 188 189 193 189 180 186 177 197 215 172 159 165 197 181 184 180 184 163 185 167 179 176 178 154 176 162 163 176 173 187 189 199 201 173 177 189 184 178 172 186 173 141 164 185 187 188 188 188 189 188 187 188 188 188 191 187 186 186 187 188 186 186 187 188 190 191 191 188 186 183 185 186 186 183 185 183 184 188 
184 183 181 180 181 185 188 186 184 184 185 187 187 185 184 183 179 161 165 189 181 184 178 177 184 188 186 185 183 178 185 189 184 180 182 185 191 181 185 189 186 190 185 187 183 183 187 187 180 182 186 188 184 178 143 142 189 194 194 195 195 195 194 202 208 125 143 193 193 192 190 183 202 188 183 190 197 196 197 195 197 207 227 243 245 244 247 240 216 197 192 191 168 173 196 182 190 188 189 174 108 188 183 178 188 186 185 186 185 183 181 183 186 187 190 189 189 188 189 190 192 190 187 187 188 193 195 162 173 180 190 193 189 188 191 187 181 189 196 192 187 194 196 189 197 195 193 204 205 191 191 183 193 201 193 187 185 186 189 193 192 206 203 192 189 189 189 169 168 177 193 193 191 185 141 131 177 183 188 192 191 188 181 182 189 179 187 191 182 173 183 196 190 165 186 205 170 177 187 168 173 162 179 161 187 189 205 184 183 171 191 180 182 193 189 185 187 183 169 136 156 179 182 184 186 189 190 188 188 189 189 188 189 189 190 188 186 188 188 188 188 186 186 185 187 186 185 186 185 186 187 186 184 182 182 184 
185 184 183 183 182 182 185 184 184 184 182 182 183 183 184 183 179 156 161 192 181 183 185 185 190 191 189 184 178 183 185 190 187 187 180 184 188 180 187 185 186 187 192 191 184 187 188 184 176 180 188 189 185 181 132 142 186 188 193 195 194 194 193 213 143 135 196 183 187 191 194 182 180 186 191 196 196 195 195 199 226 236 222 217 215 210 210 223 235 226 200 189 192 178 165 181 186 188 185 198 148 124 200 170 185 186 185 185 184 186 187 185 187 189 192 192 192 194 194 191 190 192 194 190 186 185 185 151 166 180 186 185 189 190 192 191 191 175 185 198 195 191 187 191 184 185 195 193 198 199 195 191 186 183 184 186 188 194 198 197 191 194 197 192 187 189 189 175 165 167 191 189 186 179 138 117 180 180 188 192 191 191 186 180 188 191 159 185 164 186 181 179 168 183 187 181 189 175 147 184 160 187 202 174 175 193 201 196 184 184 174 175 182 185 193 186 182 183 173 137 157 172 177 181 182 186 187 187 187 188 187 186 185 188 188 188 187 188 187 188 187 186 186 185 182 180 182 184 184 185 186 186 185 185 184 182 
184 184 185 184 185 186 183 183 185 187 184 183 183 186 186 182 176 151 151 191 180 184 190 189 185 183 183 182 177 180 182 186 180 183 178 176 183 186 187 183 181 185 187 182 188 192 188 183 183 189 189 189 183 181 118 140 183 186 189 192 190 187 207 174 121 185 195 201 183 193 195 186 187 194 194 193 197 196 196 217 230 218 209 207 206 206 212 217 216 218 218 202 191 191 180 178 184 187 193 171 185 120 156 186 175 189 189 191 191 190 190 189 189 189 191 192 191 195 198 197 197 196 198 196 195 191 185 147 167 182 187 191 190 183 186 191 202 193 184 193 197 189 188 185 172 178 193 191 186 182 187 199 197 194 192 191 191 192 197 198 190 191 189 188 187 187 187 181 170 157 188 187 186 180 139 104 181 176 185 188 190 187 187 173 167 171 150 165 189 155 168 196 194 181 169 160 159 154 160 165 150 189 181 171 180 185 166 165 161 179 173 161 179 167 161 175 180 180 168 133 164 181 184 186 186 187 187 186 188 189 188 186 182 184 185 187 187 183 183 182 183 183 182 184 185 182 181 184 184 183 182 182 186 185 183 181 
177 181 186 185 183 183 180 177 181 184 187 185 184 183 180 178 167 147 144 192 175 183 178 177 176 177 176 183 181 177 182 178 177 183 180 178 183 185 186 183 180 188 178 187 191 189 193 193 187 185 185 186 179 177 104 142 184 190 190 189 188 194 202 123 171 186 176 182 191 194 185 188 196 194 193 192 195 195 213 227 210 208 203 192 189 197 191 194 214 223 221 217 196 190 189 173 183 188 175 170 182 175 111 186 170 188 190 188 187 191 192 192 192 192 191 189 192 194 196 197 198 198 197 197 191 191 184 149 166 183 190 192 187 190 181 178 202 224 204 185 183 184 188 184 182 180 194 196 190 183 184 181 183 190 196 195 193 191 198 201 196 192 188 173 183 189 187 184 171 156 186 186 186 179 144 90 171 174 185 188 187 184 190 176 173 180 177 149 157 195 165 161 179 194 204 201 196 183 181 169 166 171 143 176 200 173 175 191 146 150 173 167 182 181 175 166 177 180 167 125 158 173 182 184 188 185 184 180 174 178 184 184 186 185 180 180 182 183 180 174 174 181 186 186 184 184 185 185 184 185 185 184 182 179 181 178 
185 183 184 183 184 182 183 184 186 185 185 184 184 185 180 175 166 143 133 194 176 182 170 174 173 174 174 175 177 185 180 178 181 176 182 182 179 189 187 183 183 180 183 191 189 188 190 187 186 183 179 184 179 162 93 148 181 182 183 190 189 207 152 144 192 184 212 190 189 192 193 194 194 193 194 195 194 215 240 228 200 200 199 198 194 191 186 189 184 203 213 219 211 191 189 187 176 185 170 184 178 174 144 138 186 173 194 193 191 190 190 191 190 189 188 192 193 194 195 197 197 195 194 195 195 189 182 145 168 183 177 185 189 193 195 184 161 193 197 183 187 188 190 178 179 185 185 192 173 185 196 195 182 181 189 194 192 191 189 194 206 195 190 187 191 191 187 186 174 146 184 186 187 183 151 82 149 175 185 187 189 205 206 187 175 178 193 194 166 160 184 171 160 148 145 152 157 170 140 177 198 171 154 168 162 150 184 188 177 157 160 152 179 183 185 176 177 181 165 121 166 179 184 184 185 188 188 188 185 181 183 180 177 180 183 183 183 183 188 186 180 177 177 179 183 185 186 186 187 186 185 183 181 185 185 186 
182 183 182 183 182 183 184 184 182 184 186 186 185 183 181 176 166 147 122 196 179 179 180 178 180 182 178 184 180 184 181 182 178 178 181 172 181 184 191 191 181 179 190 189 189 189 185 189 188 185 184 184 180 141 89 155 187 189 189 189 195 191 124 186 191 184 191 182 175 191 194 194 194 195 195 196 213 223 209 202 196 199 198 196 184 187 201 202 195 190 214 216 216 204 190 191 178 166 181 188 173 177 184 119 184 165 191 194 194 195 194 191 189 188 184 182 179 177 179 188 192 192 188 189 190 189 179 140 170 185 182 178 188 191 198 191 176 160 190 206 202 175 173 190 193 185 169 164 174 196 200 196 195 193 183 188 182 170 179 203 211 196 189 190 191 188 187 187 178 145 183 187 188 184 155 82 117 183 180 181 204 185 169 186 173 168 145 183 197 176 171 180 191 185 185 190 182 186 171 171 183 175 183 178 187 181 157 173 175 173 140 159 187 185 183 179 185 177 154 118 162 178 184 185 183 187 187 186 186 186 188 187 187 185 185 186 186 185 186 187 188 188 186 185 182 182 180 181 182 183 180 179 178 181 181 179 
185 182 176 176 173 174 180 185 185 186 185 182 180 177 176 175 165 146 110 186 189 179 183 182 181 183 180 179 175 184 184 176 178 180 181 180 174 181 190 189 179 183 190 190 188 187 190 189 186 186 182 178 183 109 89 157 183 186 185 184 204 146 160 194 187 187 179 199 171 194 192 193 195 196 197 212 223 210 193 189 196 196 194 188 197 192 197 198 191 184 199 213 211 215 196 190 191 167 176 182 173 185 186 154 143 182 174 193 194 193 192 187 181 183 185 186 187 185 185 185 189 190 186 187 186 185 173 138 172 185 184 184 187 191 198 190 191 179 188 184 189 206 203 198 189 195 190 178 188 184 179 190 200 199 191 183 187 194 196 205 207 194 174 181 188 188 187 186 179 143 175 183 183 180 154 85 87 178 179 179 185 175 171 165 171 186 170 130 147 203 200 189 176 175 178 178 202 195 197 183 186 195 201 209 187 181 182 182 188 150 164 184 184 182 182 180 182 173 138 122 161 172 179 182 184 187 188 188 190 190 188 187 187 186 185 187 187 185 186 188 185 183 184 183 185 186 186 186 183 185 185 186 185 184 185 184 
183 182 182 182 182 183 185 180 178 178 178 179 181 177 171 168 161 143 102 163 197 176 179 179 180 186 184 182 176 179 178 176 180 176 177 183 174 183 191 187 182 189 192 188 185 186 186 189 185 184 181 177 174 80 99 165 181 184 187 183 189 130 188 193 200 190 177 176 188 194 193 193 195 195 203 223 213 197 198 199 196 195 200 200 203 203 188 196 189 187 179 196 209 209 203 191 191 186 171 175 183 187 179 186 126 187 163 191 190 192 193 193 193 192 191 191 189 190 188 188 192 194 193 192 191 186 170 135 174 184 187 185 182 190 189 184 188 195 189 192 195 191 191 184 196 201 198 194 196 193 203 188 180 196 195 189 196 202 202 198 198 192 187 191 192 190 188 184 179 138 177 185 187 181 160 95 68 158 180 175 180 190 190 188 179 177 193 186 150 167 170 168 169 154 157 176 175 187 184 196 203 191 153 144 142 163 172 163 161 165 190 190 190 182 174 173 183 177 117 126 166 179 184 183 184 180 180 185 186 188 188 188 187 186 186 185 186 186 186 181 181 183 184 183 182 184 187 184 183 183 179 179 178 177 177 181 
180 178 178 175 170 168 169 173 175 181 182 177 173 176 176 172 161 145 101 127 204 173 177 180 183 183 180 179 183 183 187 185 178 173 174 182 181 181 184 182 188 191 190 186 186 188 187 188 186 181 178 180 139 69 109 165 180 182 170 184 155 160 186 177 192 202 181 193 193 193 194 193 194 193 216 216 203 191 193 194 194 193 195 201 206 208 202 199 209 204 194 176 190 205 202 193 190 187 183 175 200 183 185 188 151 162 177 178 180 181 187 194 196 195 196 195 192 191 192 189 189 187 187 188 188 186 168 127 173 185 188 188 183 179 181 185 180 177 186 190 179 179 186 188 182 193 199 198 196 194 190 204 196 184 197 192 199 204 204 200 195 186 185 176 188 190 190 185 177 130 178 188 186 182 168 105 65 121 184 179 168 194 206 187 177 175 178 190 200 198 184 178 159 144 154 189 199 191 153 145 168 163 145 157 164 164 169 166 150 184 186 176 185 190 181 174 177 176 95 128 163 178 185 189 189 189 187 185 182 185 183 182 185 187 187 187 187 187 188 188 186 187 188 186 187 184 182 181 182 182 185 183 184 182 179 177 
185 185 185 184 185 182 181 179 174 174 179 184 185 181 178 170 161 138 103 95 199 178 176 181 180 178 182 185 184 180 181 188 196 180 178 183 179 179 179 184 191 188 189 188 190 189 189 186 185 181 176 178 90 70 122 168 180 179 155 187 137 184 185 181 186 173 186 194 194 193 194 193 191 210 228 217 201 196 194 196 194 196 196 200 212 213 201 198 201 200 205 195 175 187 194 192 191 188 186 172 175 184 175 185 181 129 185 169 193 190 190 193 194 192 193 194 194 192 191 192 190 189 186 180 178 176 163 119 169 185 185 188 189 182 185 186 188 167 174 194 191 188 188 182 174 184 188 188 195 204 204 194 200 193 184 197 206 203 198 200 196 195 188 197 183 184 186 186 173 125 177 188 190 185 170 118 68 84 178 182 167 164 156 157 188 186 165 170 164 159 170 182 174 170 164 173 185 187 196 170 162 164 189 189 187 176 166 155 172 187 184 174 157 189 189 186 177 157 86 135 164 177 182 185 187 188 189 188 189 189 190 186 183 183 186 187 186 185 186 188 186 186 185 187 188 185 184 184 182 182 184 184 184 184 184 182 
184 184 185 186 187 184 183 186 188 185 182 184 185 183 180 176 168 153 119 77 171 194 171 171 180 179 185 185 184 178 183 180 185 194 185 183 184 185 182 191 189 187 189 191 189 187 185 186 184 178 180 151 65 77 140 173 185 179 162 171 151 196 190 186 184 184 192 194 194 191 193 194 198 227 227 225 206 198 197 195 198 196 197 199 192 195 200 196 192 194 199 208 199 187 188 189 192 190 188 182 174 175 185 188 185 134 174 169 191 194 192 191 189 187 185 189 190 192 191 190 190 187 186 188 185 178 161 111 168 183 183 182 181 189 191 189 200 201 186 174 167 169 177 195 181 184 184 178 186 198 199 208 203 204 196 191 172 167 163 179 195 197 189 193 188 189 188 188 166 120 174 184 186 184 173 134 72 67 154 180 175 180 187 192 192 189 177 164 158 147 122 128 160 178 168 142 140 134 163 195 178 164 184 196 186 176 160 168 189 184 187 187 185 159 172 189 182 126 93 143 172 180 180 179 180 183 186 189 189 190 190 192 190 188 189 187 186 188 186 185 185 185 181 182 184 184 184 185 186 186 186 187 184 183 179 181 
182 182 183 183 183 183 181 181 182 182 181 180 179 178 176 173 166 152 124 78 117 204 173 180 181 180 184 186 184 180 181 182 178 184 195 182 182 184 187 187 189 190 189 188 187 188 188 186 183 177 182 95 64 93 158 179 188 165 182 144 178 187 202 202 189 180 191 194 194 194 194 193 199 195 190 195 210 199 198 198 197 202 194 195 193 186 193 195 198 202 206 205 207 200 191 189 192 190 190 190 172 186 191 165 177 161 149 176 177 196 197 198 194 192 189 184 183 187 190 188 190 192 189 188 186 182 162 105 166 183 189 188 183 187 189 184 184 181 183 193 190 193 178 171 190 186 179 171 182 196 192 196 200 205 198 165 176 190 188 160 176 201 199 194 192 189 190 189 154 118 174 186 183 182 174 146 80 64 111 183 182 187 190 192 191 190 186 175 163 159 164 154 135 120 121 123 116 111 99 161 198 171 170 194 176 144 150 179 182 181 182 188 180 179 190 185 177 91 106 149 174 184 186 184 183 186 188 189 190 190 190 190 189 190 189 190 188 188 186 188 188 187 187 187 184 181 178 177 176 181 183 180 181 182 184 184 
179 180 180 180 180 182 184 181 180 183 182 180 180 179 180 176 169 156 128 88 74 189 187 178 181 183 185 179 182 182 181 183 179 176 175 174 179 188 189 189 187 187 187 189 187 189 186 184 182 180 150 64 67 114 164 181 185 156 181 141 193 181 177 193 192 187 194 195 196 195 195 193 182 169 183 191 194 202 197 196 192 192 196 198 203 201 207 195 190 191 195 197 198 198 194 186 190 190 190 189 182 176 174 188 180 176 131 186 166 191 194 197 198 197 195 194 190 187 188 187 185 185 187 187 184 180 161 98 151 183 187 184 184 189 191 182 192 206 199 188 185 191 204 179 158 176 199 188 185 191 184 178 189 189 189 195 199 196 195 193 167 188 190 193 190 190 193 191 135 124 175 185 185 183 178 154 96 64 76 170 174 189 191 191 190 183 186 184 169 164 150 150 171 159 152 144 168 158 138 168 192 189 175 176 176 151 163 184 185 183 197 181 181 182 196 184 150 73 116 154 171 178 182 184 185 184 181 177 178 180 182 185 188 187 188 191 190 188 188 187 186 186 188 188 185 184 181 180 176 178 178 172 173 177 176 178 
181 180 182 184 184 183 183 184 183 184 185 184 184 182 177 175 169 158 136 96 60 129 210 175 179 185 186 180 183 185 184 183 177 177 176 184 188 190 185 184 184 185 189 190 191 188 187 184 181 177 85 64 72 135 169 184 178 159 164 158 193 193 188 186 172 191 194 197 196 196 195 191 186 177 174 192 187 197 197 197 192 189 190 191 190 195 194 197 200 195 200 199 191 191 196 182 188 188 190 190 186 173 191 183 178 186 138 178 165 192 192 190 193 192 192 191 191 190 188 187 186 185 182 180 180 178 163 99 130 184 188 182 178 192 188 183 172 183 192 188 190 188 194 196 192 175 183 194 185 185 177 191 190 195 190 188 186 193 192 203 186 168 181 193 190 191 193 189 117 128 174 182 184 183 178 160 116 66 67 120 179 183 191 187 183 178 170 170 183 164 165 169 146 137 138 168 172 164 149 141 140 168 178 147 127 160 187 184 188 182 162 189 193 188 190 187 104 77 125 159 176 183 185 184 187 190 189 184 182 180 178 181 183 181 180 181 183 186 189 188 189 188 186 186 187 187 185 183 180 177 177 181 180 179 181 181 
177 177 178 177 177 180 180 182 178 178 179 179 181 181 178 177 173 162 144 110 70 71 187 198 174 180 182 184 181 187 186 179 184 189 187 185 185 187 181 180 183 186 185 189 188 188 184 183 187 123 60 60 95 145 170 184 161 172 145 175 184 186 195 190 190 195 194 195 196 195 196 194 201 195 176 164 172 190 198 197 199 195 194 188 188 186 194 196 197 199 195 196 200 181 180 178 188 190 189 191 188 178 175 178 178 182 160 161 174 184 193 193 192 194 193 190 190 193 193 192 192 191 191 190 186 177 162 105 105 179 185 185 194 199 189 187 194 169 179 187 190 184 185 186 188 194 176 194 197 192 186 186 194 193 181 179 189 186 192 188 191 184 190 191 190 191 193 186 96 133 175 187 188 187 179 164 132 77 64 71 163 178 195 179 179 181 172 171 180 186 168 147 164 177 157 116 111 114 114 147 170 152 136 127 165 186 187 200 192 184 171 152 166 186 193 163 68 88 129 161 175 182 186 187 188 189 190 189 185 183 181 180 182 182 183 180 176 175 177 180 180 181 183 185 185 185 187 185 186 186 184 182 180 181 183 183 
179 180 181 178 176 175 177 176 177 176 175 177 177 178 176 173 170 165 151 124 84 53 109 213 185 175 185 185 180 184 188 184 186 182 185 183 182 182 180 184 186 186 185 189 189 186 185 187 154 65 61 66 126 160 175 183 150 177 144 184 198 191 186 186 192 194 196 195 193 194 194 203 200 185 182 180 179 201 200 197 199 194 196 196 197 196 194 195 191 188 193 198 196 178 172 179 187 189 190 190 190 188 178 182 191 182 173 148 176 169 184 186 188 189 191 193 194 194 193 191 190 189 190 189 187 182 169 117 81 170 185 186 183 178 188 189 195 195 192 187 188 186 190 179 172 179 177 188 198 187 189 186 187 189 180 186 185 184 192 179 183 190 192 191 193 190 195 169 85 140 173 185 189 188 185 174 147 100 60 67 106 187 182 188 164 178 168 180 185 187 183 180 161 152 159 170 164 159 158 140 130 136 161 178 180 202 204 185 182 181 178 169 174 192 198 108 65 98 136 162 172 173 176 182 187 188 187 187 188 188 186 187 184 185 185 186 184 187 188 186 180 176 172 176 176 181 183 184 183 184 183 184 184 183 183 181 
181 181 183 184 184 182 182 182 182 182 181 180 176 176 179 180 172 166 153 132 98 60 55 144 215 177 173 174 175 185 189 181 185 184 184 184 185 183 181 180 185 189 188 186 186 185 190 169 75 60 54 98 151 170 179 181 151 176 157 180 160 189 198 184 193 193 194 193 193 194 195 206 195 182 185 204 210 205 198 195 195 192 192 190 190 203 193 189 191 189 190 190 201 193 171 178 189 190 191 190 190 190 185 189 187 169 180 144 177 164 188 184 186 187 191 193 194 194 187 184 184 183 181 178 176 173 160 120 66 146 185 184 180 186 187 180 176 177 184 174 178 173 194 199 189 187 187 178 192 186 185 189 191 186 183 176 169 169 170 186 186 185 191 190 190 191 199 139 87 147 177 187 190 190 180 167 149 116 71 63 71 144 179 185 175 150 169 187 186 188 184 185 195 191 172 158 150 154 158 161 171 181 185 197 191 179 180 171 173 181 169 166 186 211 158 65 76 115 147 167 177 179 177 171 170 177 185 186 185 185 185 185 184 183 181 182 185 183 183 184 185 185 185 183 181 180 184 184 184 183 182 183 184 182 183 185 
182 183 180 183 184 182 184 185 185 184 183 182 180 180 181 180 175 170 158 140 109 75 49 66 157 212 175 174 171 176 182 183 181 182 186 184 179 184 179 182 187 187 188 186 185 193 175 81 57 55 71 129 160 173 181 172 155 167 169 185 188 170 182 193 193 193 194 193 194 193 202 200 202 196 201 223 211 195 189 189 191 195 194 186 203 194 195 189 195 201 209 199 189 192 175 179 190 189 190 190 189 189 186 172 182 206 199 149 178 159 189 186 184 183 183 183 179 185 188 190 192 190 187 183 178 170 159 130 69 110 185 187 186 187 183 179 179 173 186 181 160 162 178 191 197 195 192 177 181 180 186 194 196 190 192 193 196 191 183 193 191 188 188 192 189 195 194 104 101 156 178 185 187 188 184 178 159 129 89 57 72 78 168 175 185 170 186 185 181 185 185 183 185 194 188 188 194 188 186 186 183 179 187 170 160 174 179 170 185 174 172 184 214 191 91 59 88 126 155 170 178 184 186 188 185 181 179 181 185 186 186 184 183 184 185 184 183 185 184 184 183 183 184 183 183 185 184 183 183 182 182 182 180 183 182 181 
185 185 182 180 180 181 183 183 183 181 183 183 183 184 183 181 177 174 166 150 125 90 56 49 69 159 215 183 170 176 179 182 182 181 183 182 185 183 178 180 180 183 184 183 191 164 80 57 55 58 110 152 166 179 187 158 163 164 179 191 184 190 170 194 194 193 194 195 197 194 201 195 203 208 214 210 197 187 183 185 188 190 190 182 184 182 187 193 198 204 208 206 186 179 172 182 190 191 190 190 190 189 187 188 206 184 179 157 176 155 190 192 193 193 192 190 187 188 190 189 192 193 192 192 190 185 172 147 80 76 174 190 182 176 177 183 189 176 199 193 188 186 182 195 196 196 194 188 174 178 181 196 194 183 195 183 176 195 192 184 189 189 188 190 192 202 171 76 116 163 179 187 189 186 183 179 165 141 106 66 56 70 95 181 174 188 187 186 182 184 182 181 188 173 174 186 171 176 187 187 188 177 183 180 187 182 177 167 152 167 180 211 211 129 58 67 98 134 159 171 179 182 186 188 186 186 186 184 184 184 185 186 185 187 186 185 185 185 185 188 188 187 186 183 178 178 177 179 181 182 182 183 183 186 183 182 
182 183 185 184 182 181 182 183 184 183 183 182 183 184 183 182 180 173 164 153 134 103 73 49 50 69 144 212 193 170 174 178 179 181 178 175 176 178 181 181 182 185 185 191 150 72 56 49 49 93 138 162 172 182 187 148 174 161 175 197 211 186 172 194 195 195 194 195 193 202 207 203 195 207 210 199 189 184 181 184 183 186 186 176 178 187 187 191 195 201 200 199 194 174 170 185 190 190 191 191 190 189 185 185 180 175 183 163 171 151 181 189 191 191 190 189 191 190 192 192 191 192 192 189 187 184 178 160 100 59 138 194 188 184 186 192 193 181 189 207 190 195 188 182 194 199 194 189 182 186 181 189 179 182 194 193 173 176 196 189 188 190 189 190 197 203 129 68 123 164 183 189 189 188 188 183 174 158 128 89 55 63 66 122 188 179 184 179 182 186 184 171 168 165 172 168 160 180 183 185 184 176 178 178 155 158 170 172 150 176 206 219 157 67 60 80 106 135 162 177 183 185 185 184 187 188 189 190 190 188 189 188 185 186 186 185 185 184 185 183 181 183 187 186 186 184 184 185 187 185 183 184 178 176 177 178 
179 178 179 182 183 181 178 178 181 176 176 179 181 180 177 175 173 171 164 158 143 124 91 66 46 50 67 114 183 206 188 174 173 179 177 178 177 180 180 184 192 195 177 119 62 55 46 48 87 131 157 165 172 182 185 141 178 163 184 159 173 175 190 194 195 194 194 195 184 174 179 201 192 205 202 190 185 184 183 185 186 186 183 184 191 187 191 196 186 192 197 201 212 185 174 188 189 190 191 191 191 189 187 176 182 173 181 170 166 152 170 188 193 194 193 192 188 189 190 189 189 193 194 190 191 189 182 168 122 63 89 184 192 185 191 193 189 189 169 206 206 190 191 180 169 173 184 189 192 192 185 174 168 184 184 203 212 180 178 191 189 187 188 191 205 182 80 80 142 172 184 187 188 189 186 185 178 165 143 107 71 50 66 64 134 188 179 186 174 183 177 177 161 177 178 165 176 181 180 181 172 165 177 184 198 198 173 176 182 202 212 174 84 57 68 92 124 145 158 171 180 183 185 187 186 185 187 188 187 185 183 182 183 184 185 186 186 186 186 184 185 182 185 186 185 181 176 175 178 176 175 172 170 172 167 164 
182 182 183 183 182 183 183 182 180 179 176 179 179 181 182 179 175 171 163 161 153 137 112 85 64 41 45 62 82 129 182 205 203 199 194 193 192 192 196 191 170 130 78 56 53 41 48 87 121 140 158 168 176 177 178 132 177 168 193 194 186 192 195 193 193 194 195 196 167 140 154 164 185 206 197 187 184 184 184 187 186 187 188 196 182 190 176 179 197 190 196 198 202 204 183 189 191 190 191 191 192 191 190 181 171 192 183 175 162 155 163 183 188 192 193 191 190 191 191 192 192 191 189 187 187 184 177 167 140 73 58 151 192 187 184 185 186 189 180 170 213 203 188 188 188 174 174 193 196 186 186 184 190 185 175 170 190 194 193 188 186 186 184 195 204 137 60 94 148 173 184 187 191 190 187 185 179 170 155 126 92 62 51 63 67 134 188 188 187 180 172 159 167 173 178 176 179 180 176 184 170 173 171 176 162 145 170 191 217 213 166 93 56 60 77 107 139 157 167 173 179 182 184 187 188 188 189 187 185 186 187 186 184 183 183 183 186 185 184 183 183 182 182 183 184 185 184 182 184 184 182 181 180 183 181 182 
183 185 186 186 183 181 180 179 182 182 182 183 178 179 183 182 181 178 172 167 161 149 128 105 81 62 45 40 55 65 75 104 137 164 178 176 170 153 133 101 72 57 55 46 37 51 83 120 146 159 168 172 176 178 169 132 177 171 193 194 196 194 194 194 194 193 193 195 189 173 165 171 196 202 195 189 183 184 187 189 190 187 192 191 166 190 169 185 196 197 193 195 196 207 199 188 190 190 190 190 190 190 190 187 193 187 174 176 159 155 156 190 188 188 190 192 192 193 194 192 192 192 190 188 186 184 178 168 147 91 55 100 189 191 183 182 188 190 194 167 166 205 209 202 200 196 197 193 191 189 189 191 189 186 183 177 178 182 195 191 181 185 187 209 183 82 66 112 156 174 186 188 189 190 190 189 186 177 163 143 109 79 54 51 66 65 124 184 204 201 188 169 157 142 176 162 173 162 169 161 178 170 165 175 165 178 201 227 212 167 91 57 54 71 93 121 146 157 167 177 183 184 184 185 186 187 187 186 188 188 187 187 186 185 184 183 185 185 184 184 185 186 186 187 186 186 186 185 184 184 184 185 184 182 182 184 
182 180 179 181 182 183 185 183 183 184 184 184 181 175 177 179 179 179 177 174 168 158 144 121 95 78 68 55 39 41 53 57 60 65 70 74 71 65 59 55 53 44 37 39 58 86 118 141 157 169 174 178 180 180 166 134 176 176 193 194 194 194 193 194 194 192 194 194 194 196 190 197 203 198 192 190 188 187 189 191 190 190 180 159 173 182 166 181 185 197 202 204 204 200 197 188 189 190 190 190 190 190 189 185 186 187 187 181 163 158 151 188 188 186 189 189 190 190 190 192 191 191 189 185 180 178 179 174 158 113 61 63 154 196 191 183 185 189 187 190 166 159 190 200 202 206 189 188 189 188 186 186 188 187 185 184 185 186 185 182 181 177 204 204 128 58 79 129 161 176 184 186 189 189 189 189 186 182 174 156 128 95 75 52 56 69 62 104 167 196 212 206 189 180 182 174 146 148 159 170 171 176 175 186 202 227 225 193 147 82 59 52 66 85 113 139 157 171 178 178 177 177 178 178 178 180 182 183 183 181 182 183 185 186 186 185 184 184 183 185 187 189 189 188 189 190 189 187 188 187 186 186 183 182 182 182 
184 183 183 184 184 183 186 186 186 185 186 185 185 183 181 181 179 175 174 169 161 155 147 131 116 93 78 71 64 49 38 36 43 48 50 52 52 48 44 37 33 41 56 72 93 121 143 157 167 174 179 181 184 182 155 134 178 182 193 193 194 194 193 194 194 194 194 193 194 195 192 174 192 198 192 192 190 189 190 189 189 189 189 182 184 165 166 170 176 186 192 198 198 192 189 190 190 190 189 189 189 190 189 186 178 167 163 177 158 158 145 184 184 180 180 184 190 191 188 191 191 190 190 188 186 181 181 176 165 135 77 56 86 181 200 188 183 178 185 184 184 182 164 161 159 163 182 189 189 189 188 183 190 186 185 185 181 185 184 182 182 193 216 166 73 59 97 143 169 180 187 189 187 187 185 183 183 181 179 170 153 120 87 71 52 54 63 60 81 137 178 199 214 210 201 196 190 184 184 185 188 203 221 235 229 204 170 119 67 58 50 59 77 101 127 150 164 173 179 180 184 183 182 178 179 179 182 183 184 183 183 185 182 182 184 184 185 185 187 184 182 183 186 185 186 188 187 185 184 184 186 187 187 186 185 184 
181 181 181 182 182 181 180 183 184 185 186 185 184 185 186 187 185 180 179 176 172 164 157 144 137 122 101 81 75 72 67 57 44 38 34 34 35 38 43 50 62 73 83 100 126 145 157 165 170 174 174 175 175 179 150 137 178 184 193 193 194 194 192 192 194 193 194 195 196 193 194 205 189 197 196 196 194 193 190 187 184 181 173 181 159 170 174 155 162 170 178 183 186 185 187 190 190 189 190 190 190 191 191 178 168 167 168 182 157 155 137 182 183 186 188 190 188 189 189 190 190 190 190 188 188 187 184 180 171 152 102 56 61 125 193 204 185 185 183 188 185 180 176 183 193 176 181 193 191 188 185 187 185 186 187 183 183 186 185 182 189 220 188 98 56 70 117 159 178 184 186 190 193 193 191 188 187 185 181 175 162 141 110 84 71 52 49 63 64 62 92 135 172 196 211 220 225 229 229 230 232 228 215 189 160 124 78 59 59 51 59 73 91 115 137 154 165 173 178 179 181 183 182 183 182 179 178 177 179 182 182 185 187 187 185 185 179 175 179 185 183 180 179 182 181 182 182 182 181 178 175 175 178 179 179 180 
179 173 172 170 173 175 176 177 173 170 172 176 178 179 181 177 178 177 177 177 173 170 166 158 150 142 129 109 93 84 81 80 76 73 68 67 69 71 76 80 85 95 109 126 146 158 166 172 176 177 178 178 179 179 143 135 181 187 194 193 193 193 194 192 192 193 194 195 195 192 181 188 191 191 197 198 195 193 190 185 183 181 169 150 166 192 190 151 154 166 174 168 175 179 183 189 189 189 189 190 191 191 191 184 177 183 182 182 159 152 131 176 182 187 189 191 190 191 189 189 188 189 191 188 185 187 185 179 174 159 125 73 55 67 149 197 206 188 184 184 186 184 183 158 179 192 188 188 186 184 184 186 185 187 184 185 184 185 185 192 223 194 120 59 55 90 129 162 181 186 188 191 192 191 192 190 190 189 185 179 172 160 140 110 85 73 59 49 54 61 65 66 80 106 137 157 171 178 180 177 166 147 124 95 67 56 56 53 53 62 75 89 112 132 145 157 162 172 179 182 182 183 185 188 188 187 187 185 184 185 184 183 182 184 185 187 186 186 185 186 185 183 183 184 186 185 184 184 183 185 184 180 183 184 183 181 
182 182 184 184 180 180 183 181 184 182 180 177 179 180 181 182 180 180 178 174 176 176 174 169 162 156 149 136 121 102 91 89 87 85 83 83 86 87 93 103 112 127 139 150 160 166 171 175 178 177 175 175 178 173 134 136 185 188 194 194 194 192 193 193 192 193 192 193 194 193 159 187 191 189 194 194 191 187 184 180 178 181 191 192 195 190 190 189 150 155 165 160 168 172 178 187 188 187 187 189 197 191 192 190 189 185 183 182 157 152 133 179 180 179 179 175 177 180 183 186 187 190 192 189 189 189 187 182 175 165 140 97 55 55 73 162 197 205 191 184 183 181 186 191 186 182 182 185 186 184 181 181 183 185 183 183 184 183 197 226 200 134 64 53 73 114 152 175 186 191 190 189 187 188 189 188 185 183 181 182 178 169 156 136 106 87 77 66 53 48 57 67 65 62 63 69 76 82 83 79 74 67 62 60 56 49 47 54 65 76 89 107 131 147 154 166 175 179 181 182 183 183 184 187 187 188 187 186 187 187 186 186 185 184 178 176 179 180 183 184 184 185 184 181 180 182 184 183 184 184 185 186 182 184 185 184 
179 181 183 185 186 186 187 185 182 182 181 179 177 174 174 178 180 182 182 179 176 177 176 172 167 161 158 151 143 128 115 112 111 108 106 107 112 120 127 135 141 150 158 164 169 172 174 175 181 182 182 181 176 172 128 134 183 186 192 194 194 193 192 193 194 194 193 192 194 194 198 197 188 184 189 187 185 182 179 179 176 181 190 193 193 188 190 193 180 133 132 145 164 172 168 186 188 187 188 192 200 211 197 190 187 186 184 184 161 148 132 179 187 187 187 186 186 184 184 185 186 189 192 192 192 190 186 182 178 167 151 120 75 48 57 76 171 197 208 197 182 181 185 188 190 191 191 186 184 183 183 183 185 183 184 187 185 210 226 187 140 68 54 59 92 130 159 177 187 189 191 191 190 187 185 190 191 189 187 185 179 167 157 149 133 110 89 79 71 59 48 46 50 55 60 62 61 60 58 59 60 56 50 46 44 50 58 68 75 87 105 125 142 156 168 174 178 184 185 183 182 182 182 185 186 185 184 183 182 177 174 176 175 179 184 188 188 184 182 175 171 170 176 179 184 185 184 183 183 180 180 182 182 184 183 180 
177 180 183 183 183 182 183 185 184 180 178 178 183 185 182 181 182 180 180 182 182 180 179 177 175 170 167 162 152 149 144 143 142 142 141 143 144 148 153 155 159 162 166 170 176 177 178 180 183 183 183 184 180 173 127 130 186 187 192 193 192 194 193 193 193 193 193 192 193 192 206 193 180 180 182 181 177 178 177 176 176 187 193 196 194 189 188 189 186 182 169 157 143 153 177 194 186 186 187 190 182 193 196 191 187 186 184 182 160 147 133 178 185 187 190 194 194 193 191 191 190 189 188 187 189 188 187 186 180 169 157 140 100 63 48 55 75 167 195 203 209 191 184 184 187 186 186 185 184 183 181 184 182 182 184 195 224 213 174 131 68 53 54 80 114 146 162 174 185 189 190 191 191 192 190 191 193 194 194 190 187 183 174 164 152 136 115 97 83 75 69 57 45 40 41 44 47 48 46 43 42 41 45 55 61 66 70 76 88 109 130 149 160 164 171 179 181 186 188 186 186 182 179 180 181 182 185 186 186 184 181 180 176 172 172 176 182 184 182 183 183 179 176 171 169 173 178 182 183 185 183 182 182 179 179 179 
178 176 177 181 181 178 175 179 181 185 185 186 187 182 182 182 182 183 184 181 182 181 176 172 173 173 171 171 166 160 151 146 150 152 154 156 159 159 163 167 167 169 169 170 175 174 177 182 180 178 181 181 178 170 124 125 190 188 192 191 192 193 193 193 194 193 195 195 195 175 185 183 174 178 179 176 176 175 175 174 182 194 193 194 196 194 189 188 184 183 183 184 175 174 189 193 196 191 194 194 191 179 171 186 188 187 185 183 163 137 133 176 182 185 186 182 186 192 194 194 193 193 193 189 187 183 183 185 186 180 172 157 128 92 61 50 56 64 145 190 194 215 213 196 187 186 185 187 187 190 188 188 188 196 217 225 193 165 112 61 54 51 70 104 139 162 174 178 176 175 182 188 190 193 193 191 188 189 188 185 180 180 178 174 162 150 138 122 102 87 80 74 67 60 55 55 54 52 52 53 57 59 64 70 75 78 84 94 108 130 146 161 170 175 176 179 182 182 182 182 185 185 185 185 185 185 185 189 189 189 187 187 188 187 187 184 182 181 183 185 184 182 180 183 185 184 181 182 182 183 186 186 184 185 183 182 
182 180 180 178 176 177 176 179 180 184 183 184 183 183 182 180 179 180 181 181 179 179 180 177 172 171 174 177 177 174 172 167 165 162 157 155 158 165 172 176 177 178 182 182 180 182 180 182 185 184 183 185 178 170 126 118 187 187 191 194 194 194 192 193 193 191 194 194 195 150 149 164 160 166 169 173 172 175 173 175 191 193 192 192 192 191 186 188 188 186 182 184 189 190 188 178 187 190 177 176 161 164 167 175 175 180 186 182 166 128 137 181 188 188 185 186 188 190 193 193 193 193 194 195 195 196 191 187 184 176 171 163 143 115 85 60 50 57 53 114 175 186 195 212 219 215 209 206 208 208 210 214 223 222 205 179 152 90 60 51 51 67 95 130 157 171 180 185 186 188 188 188 186 185 186 190 191 192 199 205 207 204 188 175 169 160 150 142 132 110 93 85 78 71 69 69 69 69 69 69 70 71 75 79 85 93 104 119 132 148 161 166 171 178 183 183 185 184 182 182 181 181 181 183 182 179 179 180 183 183 184 186 188 189 189 189 187 185 186 184 185 187 182 178 177 182 184 184 184 185 185 185 182 183 183 181 
184 184 183 183 181 181 182 178 176 173 174 176 178 180 182 182 183 179 178 178 179 180 180 179 182 181 177 177 178 175 172 170 169 170 172 173 174 175 174 179 181 181 181 183 182 185 186 186 185 185 184 184 179 167 123 112 191 190 190 192 193 193 191 192 193 191 192 193 196 168 126 132 132 149 162 166 170 173 173 187 191 192 191 192 188 186 184 186 189 186 184 185 187 188 185 191 184 188 185 176 171 183 193 188 182 182 186 179 167 114 138 177 183 187 187 188 190 191 193 194 195 196 196 195 195 193 191 189 186 183 176 168 157 137 107 82 59 51 57 49 69 115 155 173 185 195 203 209 203 199 201 191 184 171 149 107 68 59 50 52 67 88 126 157 173 180 182 185 189 194 194 196 197 193 193 203 213 213 208 205 201 200 197 196 191 180 162 153 152 141 128 109 94 86 82 79 78 77 77 78 79 82 88 95 105 118 130 138 146 155 166 172 176 178 180 181 181 184 183 180 185 193 199 202 202 200 201 194 184 178 179 179 182 183 185 186 184 186 189 189 186 185 184 181 176 173 170 170 172 174 179 185 185 184 182 182 
182 183 180 178 180 182 180 179 178 174 176 179 177 170 173 177 179 182 182 183 184 182 180 179 179 182 183 182 181 179 177 177 175 172 172 173 177 180 182 185 183 183 183 184 179 177 179 180 175 170 171 173 174 166 129 104 187 189 189 191 193 193 194 192 193 192 192 193 192 192 184 179 175 141 143 151 160 170 187 193 191 195 191 189 189 187 184 183 194 188 185 185 187 188 178 183 190 178 174 158 168 177 176 167 156 177 189 174 170 102 137 173 183 189 191 190 192 190 188 191 191 192 193 193 190 189 187 187 188 185 180 172 164 153 132 107 82 62 49 53 55 54 64 88 115 137 158 162 162 158 150 133 110 85 63 60 55 47 57 71 87 115 143 164 177 183 184 190 194 193 195 193 189 199 208 202 186 165 147 135 138 141 147 161 173 186 192 185 172 160 156 141 124 109 100 93 93 91 92 94 97 102 114 123 130 138 145 154 159 164 169 175 179 183 184 184 183 182 188 200 192 165 145 132 131 128 130 148 173 193 191 179 175 174 179 182 180 181 185 186 186 187 188 186 185 185 181 180 179 178 173 170 173 177 179 180 
179 183 182 179 180 180 182 184 184 183 183 184 184 184 182 180 182 182 183 184 186 185 184 183 183 180 181 181 183 184 179 179 180 179 176 174 175 177 176 180 181 184 185 185 185 184 180 180 183 182 177 174 173 161 127 97 187 187 191 192 192 193 194 193 191 191 191 192 191 190 190 189 191 184 156 151 162 184 195 195 193 193 188 187 188 188 188 181 187 188 188 187 185 188 181 173 179 182 178 179 181 179 174 179 178 186 190 168 174 95 143 178 187 190 192 192 193 194 193 193 193 192 193 200 204 207 207 209 206 206 205 196 179 162 148 127 105 85 71 53 46 52 58 59 57 58 64 73 80 82 72 65 60 60 55 48 49 63 72 82 106 137 157 170 180 186 190 192 194 191 190 190 204 198 175 143 113 113 127 134 137 134 124 114 110 117 139 169 190 177 157 158 150 135 124 116 116 114 117 114 117 122 129 140 148 153 155 162 169 174 175 177 180 181 181 187 186 202 197 144 111 131 151 156 150 139 124 115 115 114 144 185 188 180 184 185 185 183 179 180 180 179 181 183 183 184 185 184 182 182 184 185 180 179 178 178 
182 180 181 181 178 177 179 181 184 185 184 185 185 184 185 185 182 182 183 184 184 183 182 178 175 178 180 181 182 184 181 174 164 156 148 142 148 153 157 168 175 179 181 181 182 187 186 185 186 185 183 181 175 166 134 94 186 192 189 196 201 197 200 194 196 195 194 193 192 192 195 191 188 190 189 173 179 196 200 198 193 187 187 186 186 188 187 182 183 186 185 188 187 188 185 186 179 179 185 176 168 176 174 176 183 187 190 163 171 88 146 178 189 190 190 191 193 191 188 187 193 201 205 188 169 149 135 129 131 139 158 179 198 197 178 159 142 116 95 80 63 49 45 48 52 54 56 58 58 60 61 56 47 42 48 61 74 84 95 113 134 146 160 174 179 186 190 192 187 184 188 202 187 145 109 127 166 181 183 182 181 184 181 177 173 159 128 110 138 181 188 170 162 158 151 146 142 141 142 144 142 146 151 153 158 162 168 174 177 179 179 178 182 186 187 185 203 161 109 128 163 167 164 171 174 172 167 166 165 158 137 119 156 185 180 185 188 185 184 182 182 180 181 185 185 184 184 184 182 179 179 182 183 184 184 184 
177 180 182 181 180 179 179 179 179 181 178 177 179 179 183 183 181 178 178 178 180 181 182 182 177 176 177 180 181 176 159 134 105 86 83 84 84 83 84 94 115 142 172 186 183 184 185 184 181 182 180 178 174 162 137 83 175 198 188 185 183 186 182 184 187 192 197 197 193 195 195 199 190 191 188 192 196 207 201 198 189 183 184 185 184 185 186 182 182 185 184 187 185 186 176 165 168 170 170 173 175 174 168 175 175 185 188 164 157 80 146 177 187 188 188 192 191 187 189 201 197 165 127 100 90 95 99 99 98 98 92 93 107 146 186 196 169 148 133 109 88 76 64 56 49 45 45 45 43 43 47 50 55 64 73 77 88 102 121 145 162 171 175 183 187 190 191 190 183 186 196 176 121 120 171 187 185 183 182 180 181 181 180 180 180 179 181 173 135 117 161 187 177 163 168 164 162 156 152 153 157 162 165 170 173 176 177 179 181 183 181 180 179 181 183 196 135 118 158 170 162 174 179 168 178 175 169 170 166 171 173 170 138 129 175 175 185 189 188 186 184 183 182 182 180 181 183 185 185 185 178 176 177 180 180 181 
180 181 181 182 182 177 177 177 174 174 175 177 175 171 169 171 176 179 180 178 175 177 181 182 185 184 181 181 166 139 101 79 87 105 116 123 130 127 121 114 98 87 104 150 187 187 188 188 186 182 182 178 172 162 141 81 158 206 187 177 186 187 182 184 191 173 180 175 183 199 173 173 181 168 181 193 206 208 196 191 184 177 181 183 185 185 187 183 181 184 182 183 185 187 182 170 179 174 170 168 179 190 183 178 173 182 183 171 135 87 156 175 183 187 186 189 191 193 202 172 114 90 105 127 139 149 153 150 148 149 146 138 119 94 100 152 191 175 153 143 120 97 85 80 75 71 69 67 66 67 72 76 79 82 89 97 114 132 145 158 171 176 179 182 185 188 189 184 192 198 158 108 145 184 185 183 184 183 180 179 180 181 181 181 180 180 179 179 180 163 118 142 185 175 170 175 171 171 169 170 171 171 173 174 175 172 174 179 179 183 187 187 190 183 197 128 131 167 167 166 159 170 172 171 169 179 178 169 171 175 172 171 174 155 126 172 176 186 186 185 185 187 187 181 178 175 172 172 178 182 185 182 180 182 182 182 
182 184 184 183 183 182 183 183 180 180 182 182 182 182 181 180 179 180 183 185 181 184 186 184 184 184 181 152 113 84 94 124 133 138 134 131 130 136 130 131 126 123 106 86 125 181 185 186 188 185 180 172 163 157 142 84 137 205 190 184 187 181 181 187 190 175 172 192 182 185 180 184 180 188 183 185 207 201 189 182 180 178 177 178 183 186 187 187 182 186 181 185 186 187 185 186 185 185 184 186 187 187 188 187 186 189 175 179 105 92 162 183 189 192 191 188 195 196 141 92 105 143 155 158 156 157 156 155 153 155 155 157 159 154 121 91 123 182 184 161 151 132 110 96 89 86 85 86 87 87 87 90 97 101 111 127 143 152 160 170 175 182 185 187 186 185 182 189 199 144 110 162 184 183 184 186 186 187 183 181 182 182 183 182 181 180 181 180 178 179 172 126 131 183 167 175 177 177 176 178 176 178 180 177 179 176 177 178 180 185 185 185 175 195 139 137 170 173 169 165 162 164 180 167 167 172 178 187 176 174 171 175 175 176 157 128 178 181 187 186 187 188 188 185 186 186 185 182 181 178 180 185 185 185 182 181 
177 177 178 182 181 181 179 181 185 182 180 181 181 184 183 183 181 175 175 176 176 175 174 174 178 179 144 100 84 106 134 141 136 130 139 125 125 126 122 123 130 123 124 121 89 110 176 184 185 185 182 178 172 161 139 88 112 199 195 178 173 175 182 179 179 182 181 184 182 184 182 186 175 179 178 188 203 191 184 179 175 175 176 176 181 185 186 188 181 184 181 187 204 207 198 184 183 185 184 185 185 185 186 186 185 190 167 176 75 100 156 174 180 186 188 193 191 123 94 130 156 152 163 159 156 158 161 159 159 153 162 159 157 160 162 140 98 109 175 186 167 159 144 127 116 108 107 105 104 103 107 114 123 132 141 151 157 161 168 176 178 181 184 189 191 193 186 202 140 113 174 183 180 184 191 188 196 190 182 182 185 185 182 181 181 181 181 181 179 186 191 183 137 135 180 159 174 175 175 177 181 180 180 183 180 182 183 185 184 187 188 186 182 158 135 173 173 171 169 173 169 180 173 164 166 171 181 181 180 177 169 172 172 169 174 152 131 176 181 183 186 185 184 184 185 185 186 186 186 185 184 185 186 185 184 184 
172 173 172 170 170 173 174 178 182 182 182 181 179 180 182 181 183 183 180 181 180 177 175 177 179 142 98 89 113 122 126 132 138 140 135 138 141 129 125 138 137 133 130 133 129 96 109 177 181 185 184 181 175 165 144 93 87 190 203 185 185 185 187 188 185 193 185 179 184 174 175 176 180 180 182 193 195 185 176 171 171 174 174 178 183 186 187 189 181 181 181 194 194 185 188 187 183 185 185 184 184 185 186 186 186 189 169 157 60 116 162 179 185 188 189 185 110 102 141 152 151 156 162 160 156 164 167 164 169 169 161 162 165 168 175 166 147 107 103 172 182 168 162 152 146 141 136 133 133 132 133 140 146 151 157 162 167 171 175 178 183 181 182 182 184 174 198 149 115 176 182 180 181 184 195 194 186 188 182 184 185 185 184 184 182 185 183 192 214 220 205 182 182 136 142 171 167 181 178 179 181 185 183 182 183 183 182 179 178 179 184 172 178 126 168 169 171 165 169 167 165 179 168 160 169 172 173 176 195 179 177 180 171 173 170 175 139 144 179 181 178 180 183 182 178 179 180 182 184 185 185 183 185 185 185 184 
174 175 177 176 174 175 176 178 178 180 182 181 181 181 179 179 182 182 182 182 184 186 185 188 155 98 90 119 128 124 123 121 138 138 146 150 133 131 134 134 135 134 139 133 130 127 96 123 165 179 179 174 167 155 138 101 66 173 214 190 188 188 200 203 202 194 190 191 189 181 183 182 183 182 182 192 187 179 171 167 170 170 172 180 186 187 188 191 183 179 181 188 184 179 190 199 183 183 183 184 184 186 187 186 189 181 178 121 62 131 168 182 187 190 187 115 112 149 149 151 158 153 157 155 154 165 170 171 171 174 170 162 169 177 173 156 143 143 110 108 176 179 173 167 160 155 156 155 157 154 155 158 160 166 170 172 176 179 178 178 181 186 187 188 184 186 171 116 175 181 180 179 181 186 192 183 182 179 183 182 185 185 186 183 180 179 185 213 218 179 176 180 179 178 130 160 164 181 187 182 180 179 181 182 184 186 189 189 184 180 176 174 141 161 175 169 170 170 169 165 163 150 151 164 178 186 179 177 189 185 169 165 170 168 168 172 171 125 162 179 184 183 184 185 184 183 180 178 177 178 183 181 182 183 182 182 
181 181 182 183 180 177 174 172 170 166 167 170 169 171 176 178 179 182 183 184 184 183 188 168 110 89 122 131 132 132 135 137 142 136 138 147 134 120 128 130 134 132 133 134 136 134 127 92 137 156 179 173 168 159 136 102 57 145 210 195 187 190 183 175 190 191 190 189 189 187 186 186 187 183 175 187 183 176 169 165 167 167 175 185 187 188 189 192 187 177 177 173 174 177 182 190 183 183 183 185 185 187 186 187 189 177 180 77 77 143 172 182 186 187 121 115 150 152 153 161 155 157 164 165 166 174 178 184 192 180 176 192 197 183 168 171 158 154 146 107 117 173 174 173 169 167 165 167 168 168 170 170 169 171 177 182 184 185 186 187 189 188 190 189 179 189 125 162 182 175 181 182 180 182 186 183 178 177 180 182 183 182 182 181 182 181 184 200 182 174 175 179 182 178 169 130 172 167 185 181 181 180 182 183 183 182 184 190 188 185 173 171 138 176 168 169 173 172 174 168 167 167 167 175 202 206 200 208 187 180 172 166 163 167 166 170 167 156 133 172 180 181 182 182 182 185 183 180 178 179 181 183 180 177 178 181 
178 177 176 177 179 181 179 177 178 178 179 178 180 180 178 176 174 177 181 183 182 180 176 123 89 115 128 131 136 137 140 147 145 140 140 140 140 145 140 133 134 134 129 134 144 136 129 121 100 147 169 180 172 162 143 112 60 109 196 202 186 180 180 175 181 203 189 189 188 186 185 184 186 181 171 181 176 171 165 166 166 170 181 187 188 190 193 193 193 181 178 171 172 177 181 172 173 184 184 184 186 187 188 188 188 178 156 55 94 149 174 181 186 141 107 156 158 156 156 157 167 174 176 178 179 184 203 216 211 191 194 188 190 187 177 170 160 163 156 146 104 133 172 181 184 181 176 175 174 172 172 170 169 175 180 183 184 186 187 188 187 187 190 185 185 148 139 183 183 181 183 183 180 177 175 173 172 177 179 183 184 181 183 182 181 180 195 184 177 182 181 186 180 175 179 153 145 166 178 189 183 181 183 185 187 186 186 185 185 180 168 143 162 173 176 172 173 173 175 173 172 175 174 181 177 171 168 165 159 162 172 173 173 172 168 164 169 172 139 160 174 182 180 178 180 181 182 182 181 183 182 182 184 181 180 182 
179 180 180 180 178 180 178 179 179 179 177 176 176 176 178 179 173 176 180 175 176 180 148 97 101 121 134 131 130 133 128 133 144 141 127 135 136 142 142 151 143 133 126 134 138 134 126 125 105 117 147 181 176 167 149 121 71 72 176 211 192 182 191 192 181 189 198 187 186 186 186 184 187 183 176 178 169 166 163 164 169 179 189 191 190 192 192 193 194 188 178 169 176 181 181 166 166 185 185 183 186 186 186 189 185 185 116 55 115 159 176 180 158 103 149 157 159 160 165 171 172 173 183 188 196 204 187 182 179 185 169 143 147 155 179 176 163 164 169 152 141 100 145 171 191 184 184 185 183 183 184 182 180 180 180 180 182 183 186 187 189 189 189 174 181 121 174 180 187 184 184 185 179 174 175 188 182 177 181 183 182 184 184 183 184 187 196 175 177 181 170 173 180 176 177 177 137 166 164 190 191 187 187 185 184 184 180 183 187 171 167 136 173 171 167 178 175 176 175 175 172 178 183 180 166 163 160 162 165 171 171 169 184 174 168 173 178 171 159 144 170 185 184 185 183 182 183 181 177 177 182 183 180 179 182 179 
175 178 181 182 180 179 182 183 181 181 181 180 178 177 177 172 176 180 180 178 179 167 114 96 124 131 128 135 132 138 145 133 130 123 125 137 148 132 129 142 143 125 126 130 136 138 126 123 122 94 132 165 178 166 152 127 84 49 144 215 202 180 185 191 193 164 181 188 187 188 188 186 187 184 182 178 168 167 168 172 184 189 189 192 192 193 194 193 197 194 183 178 179 185 177 161 173 185 187 184 187 187 187 190 184 180 70 69 127 164 174 174 112 135 159 154 164 163 174 176 176 178 183 186 191 175 169 173 187 203 210 192 156 163 175 178 176 154 150 155 159 133 109 149 181 187 184 183 182 184 184 188 188 187 187 188 189 187 188 186 185 187 176 179 141 146 179 176 189 191 182 182 180 179 171 165 174 184 184 183 182 184 183 180 178 189 184 178 188 187 172 174 178 176 177 174 158 142 164 176 186 186 186 182 182 184 184 179 179 159 156 151 172 167 172 173 170 170 178 195 188 182 184 183 165 161 162 165 168 167 180 180 172 175 165 168 169 173 165 140 162 180 184 182 183 185 186 187 187 186 184 185 186 183 181 178 
180 179 182 183 181 182 181 181 180 182 182 181 180 182 180 179 180 182 181 179 183 142 98 113 134 135 133 144 141 148 140 126 117 115 132 132 143 141 140 131 118 123 125 133 135 136 133 122 124 103 115 140 177 168 155 132 91 52 96 198 216 185 176 191 181 173 186 186 188 188 188 190 190 200 205 195 186 185 189 192 192 191 191 192 193 195 194 195 196 194 189 181 183 184 172 167 181 182 183 185 183 187 189 188 173 138 49 84 137 166 169 143 117 160 157 146 160 170 175 178 177 183 184 174 167 168 175 172 176 186 191 199 191 179 177 176 176 176 160 169 165 162 112 131 165 190 185 184 185 185 185 186 190 189 186 187 186 186 186 187 185 187 167 174 122 175 181 180 176 183 197 184 179 176 176 175 194 197 181 185 186 184 181 181 182 189 183 185 183 176 180 183 177 178 178 173 174 134 165 166 187 182 180 182 181 173 178 184 178 156 145 170 175 171 170 173 170 183 214 200 199 199 183 172 159 160 160 156 162 168 176 179 171 167 168 162 170 170 170 152 153 174 187 182 182 180 182 183 184 184 183 183 184 185 185 183 
173 173 173 175 178 182 182 180 178 178 179 179 179 179 181 182 180 179 177 179 170 111 100 130 132 137 141 132 139 133 130 131 117 119 124 121 125 145 139 122 118 117 121 128 135 138 139 123 121 117 100 122 163 167 153 135 102 63 60 165 217 198 182 180 180 197 188 187 187 187 187 191 193 196 196 202 203 203 199 193 189 190 192 193 194 194 192 193 194 193 192 186 182 175 165 173 186 182 177 192 189 188 190 187 174 82 53 99 146 168 164 111 151 156 153 159 169 171 177 175 179 184 189 183 184 170 176 171 161 175 184 191 197 185 180 179 181 180 173 157 166 160 145 111 141 184 185 181 181 186 187 188 190 192 193 188 181 184 184 187 186 184 163 153 142 181 182 182 176 180 191 185 179 174 179 179 184 188 185 185 185 184 181 183 182 186 176 176 182 173 183 190 181 178 178 177 176 156 144 163 181 183 183 184 186 186 184 184 167 158 143 174 170 172 173 175 183 204 186 181 179 174 179 169 158 162 169 175 166 170 170 166 169 167 170 165 174 173 171 163 147 168 183 182 177 175 174 176 175 179 181 181 183 186 184 185 
173 172 171 173 172 175 179 180 181 179 181 181 180 180 182 183 181 182 181 185 150 96 112 128 128 133 126 123 126 114 113 127 128 125 124 124 127 137 159 143 122 123 125 128 131 129 128 131 128 124 100 115 148 173 156 141 114 76 45 115 209 214 183 178 183 173 178 182 185 189 189 193 192 197 198 203 204 198 196 195 193 193 193 193 192 192 194 195 195 195 192 178 183 170 167 192 189 183 188 193 188 182 192 191 146 49 72 118 158 169 139 124 159 151 154 164 171 169 174 175 172 178 193 187 170 169 176 161 168 172 182 183 194 198 188 182 181 180 178 173 162 143 165 128 124 168 192 185 176 173 175 177 179 179 181 182 187 190 188 185 189 173 169 135 166 179 182 192 176 175 182 180 180 182 181 177 173 175 182 184 183 183 184 183 184 183 172 174 175 173 194 199 178 177 177 180 177 171 135 165 169 180 178 181 180 181 180 183 154 162 150 173 170 176 173 181 202 189 180 185 177 181 174 166 164 167 170 174 173 172 179 175 177 171 170 168 165 173 164 166 150 164 180 182 180 179 176 176 176 177 176 179 179 183 181 178 
177 176 175 175 170 166 173 176 178 178 180 179 181 181 181 181 182 180 180 180 123 99 123 128 131 124 124 128 128 127 121 125 133 126 129 125 124 132 137 141 128 121 131 128 130 130 136 134 128 126 111 105 126 174 163 148 123 85 53 68 177 222 192 171 188 180 177 174 198 192 187 174 191 198 199 203 204 198 196 195 194 192 191 192 191 192 193 195 196 196 167 168 187 182 184 187 199 184 178 174 169 181 203 185 91 51 88 136 165 159 116 150 162 158 161 169 171 171 171 172 167 161 161 156 156 172 168 160 161 161 174 186 185 202 194 185 180 181 179 174 162 180 166 151 120 149 192 191 190 189 184 182 181 180 179 176 173 172 177 175 178 153 171 133 178 178 177 187 179 178 186 179 180 183 181 178 178 178 177 180 185 182 187 184 188 182 174 174 175 185 193 178 175 175 177 179 175 173 142 159 163 190 187 184 181 182 179 179 142 156 156 173 175 175 177 199 198 186 189 179 167 184 186 168 164 163 169 174 165 165 170 174 172 165 168 169 158 167 161 163 156 157 170 176 182 183 183 182 181 180 181 179 177 180 179 178 
178 180 180 179 178 175 172 173 172 170 170 170 173 174 174 175 181 181 181 168 107 111 124 124 123 125 123 137 152 153 122 115 121 123 121 124 121 121 124 124 124 124 129 128 129 134 135 135 148 164 128 100 114 164 164 152 128 95 65 46 128 212 217 183 179 197 180 184 192 197 190 145 145 176 191 195 197 196 195 194 191 191 192 192 195 197 198 188 165 140 152 187 188 191 187 177 180 204 187 178 175 195 202 146 51 63 106 151 162 140 121 158 166 163 166 170 172 170 171 171 172 163 156 160 169 164 163 173 173 160 168 168 163 179 196 186 182 181 177 177 183 167 151 161 127 136 181 193 190 189 188 189 190 191 190 192 189 187 187 187 186 150 158 147 179 179 187 183 182 177 180 178 177 181 181 180 179 180 177 181 181 179 179 185 184 177 176 176 188 200 186 173 172 173 174 175 174 175 160 145 158 180 186 186 186 185 185 178 141 153 163 168 174 178 173 169 170 172 170 146 158 167 177 180 165 165 165 165 157 161 166 165 161 159 163 154 158 161 162 170 163 157 172 183 182 182 185 183 182 183 183 184 182 181 179 178 
180 178 174 174 177 177 174 172 172 175 177 176 172 175 173 170 174 176 181 153 100 122 126 126 121 120 123 129 134 150 131 126 118 121 127 128 130 133 125 120 120 127 125 128 128 131 132 139 136 145 124 101 103 149 169 158 139 107 75 49 68 172 229 201 169 175 177 197 179 190 192 165 111 122 145 162 180 185 189 189 191 192 195 198 197 181 145 117 128 161 186 186 189 187 191 201 176 173 193 179 185 208 177 83 48 80 122 157 157 125 142 160 163 164 167 171 171 169 171 171 169 168 167 167 168 159 156 161 164 160 163 164 150 149 175 187 183 181 181 177 174 166 161 153 144 133 162 190 188 189 189 188 188 187 186 188 191 189 188 188 179 150 144 161 181 180 180 190 185 177 173 178 180 181 180 179 181 182 177 181 182 182 177 184 179 176 176 179 188 182 180 178 173 168 173 178 175 173 169 139 156 170 188 188 187 184 186 176 144 153 168 175 168 174 174 174 169 170 156 168 164 171 173 169 167 178 166 152 161 165 169 163 170 170 168 160 159 174 185 178 168 153 166 183 181 178 179 182 181 181 183 183 182 182 181 177 
177 177 176 173 175 178 178 180 179 182 181 180 181 180 182 183 182 173 164 125 106 122 121 122 118 116 121 124 120 126 125 132 121 114 115 127 133 146 137 122 118 125 124 122 130 149 139 131 117 113 118 105 99 131 172 162 147 121 87 61 41 113 203 230 189 180 184 174 174 185 182 184 174 129 110 111 114 117 122 132 146 155 152 140 124 110 128 166 186 190 187 183 179 190 174 178 181 182 176 182 209 194 127 44 60 96 137 162 144 122 155 163 165 166 168 168 167 169 172 164 162 163 166 170 164 152 159 156 154 162 169 155 146 138 154 181 183 181 179 175 172 164 155 154 162 127 146 186 189 185 184 184 187 189 191 189 189 188 186 187 166 156 141 175 182 182 185 187 177 171 179 180 178 178 175 179 183 182 178 180 184 185 184 181 177 180 181 183 180 176 184 175 168 167 179 177 174 173 171 141 152 161 190 185 184 183 182 167 144 158 170 177 178 177 173 171 171 163 160 178 181 177 167 172 180 186 166 162 165 168 174 179 176 173 167 161 158 171 177 162 165 151 158 174 178 179 177 178 178 178 181 183 180 179 181 182 
178 175 179 178 177 176 179 178 178 179 177 175 177 181 179 177 179 180 173 115 113 125 126 123 121 122 124 124 116 116 119 124 121 121 126 129 131 133 123 122 118 121 125 126 132 136 130 119 125 126 124 113 99 104 160 155 149 133 101 71 48 56 152 226 222 183 189 178 168 173 194 184 191 188 173 154 144 131 117 108 103 102 106 115 137 169 187 187 186 183 184 199 182 173 176 184 190 188 180 200 209 159 61 46 75 114 152 165 134 127 160 162 167 168 167 166 169 168 170 167 163 158 159 161 148 151 166 165 160 157 146 140 163 154 169 181 182 182 179 176 173 168 157 161 166 133 135 179 190 190 189 190 187 189 187 186 186 188 188 190 159 162 149 183 182 177 177 176 181 184 179 180 178 178 180 181 183 182 185 190 185 186 190 177 171 178 181 182 173 177 180 182 168 175 179 176 173 174 174 153 147 152 183 185 186 184 182 163 143 158 171 177 183 174 170 170 162 157 156 168 182 165 186 198 192 185 170 163 160 167 170 165 158 159 160 154 160 164 170 164 163 158 157 172 179 182 183 182 182 181 180 180 179 181 181 182 
180 177 179 181 181 179 177 179 181 181 181 178 179 179 178 177 174 174 164 111 118 131 129 129 131 135 125 128 124 117 115 117 123 126 125 131 129 127 127 123 122 121 124 125 128 127 125 130 136 127 129 115 96 99 169 164 149 131 105 75 59 39 92 180 243 209 181 174 171 173 179 181 180 205 193 182 183 182 180 175 172 172 175 182 186 184 184 183 184 197 199 196 197 171 181 184 193 184 193 219 179 92 42 60 91 132 162 159 126 140 162 163 167 168 168 167 168 168 168 171 170 159 157 157 159 162 159 165 165 163 164 169 187 165 184 177 182 181 181 175 173 176 173 173 170 145 131 167 192 189 187 187 188 187 190 192 188 187 184 188 150 158 156 184 182 176 182 179 180 181 182 180 177 179 180 179 176 187 198 182 183 187 184 174 168 175 173 174 181 192 184 185 190 178 176 175 176 174 174 161 144 151 185 187 184 183 181 155 141 156 171 175 169 174 174 167 155 155 161 151 148 146 141 167 179 173 171 181 175 171 164 155 146 151 159 157 161 162 180 170 169 156 153 176 183 181 180 182 183 184 181 180 179 177 178 181 
178 177 179 179 180 181 180 179 177 180 180 178 179 177 174 174 174 170 152 107 124 133 132 128 127 129 135 130 128 124 125 126 127 123 123 129 130 131 128 126 126 130 131 135 125 128 127 130 136 131 130 124 99 90 163 169 163 150 122 89 67 50 47 129 200 243 191 172 177 178 178 180 178 184 173 176 196 185 184 180 182 182 182 181 182 186 204 210 197 187 184 171 185 177 172 177 174 186 222 193 123 43 52 74 110 145 165 145 122 152 162 164 166 167 166 167 167 167 167 168 159 160 160 159 165 158 162 160 161 189 203 193 207 191 186 191 184 183 180 176 176 173 173 172 171 157 131 155 189 186 185 185 187 188 188 186 187 189 190 191 144 154 164 183 191 188 177 178 181 179 181 180 180 179 181 176 182 196 186 182 180 180 186 169 174 181 184 203 207 191 175 177 181 175 174 173 176 175 173 168 141 150 176 185 185 180 177 149 134 157 169 168 171 180 182 171 168 164 157 158 158 164 159 155 158 160 148 165 178 178 184 189 188 185 177 177 173 166 157 157 161 158 150 171 181 181 178 176 175 177 178 177 181 182 182 182 
179 178 178 176 176 175 174 176 176 177 178 178 180 178 177 179 176 174 145 107 128 126 128 127 124 126 125 120 128 129 125 123 123 121 119 125 124 130 126 127 130 138 142 144 140 127 128 129 131 129 128 127 107 86 157 172 168 158 137 106 75 62 43 64 150 216 241 186 178 176 178 181 179 184 182 175 182 195 199 189 183 190 197 194 189 187 173 179 189 187 176 184 179 186 167 169 181 224 206 138 53 45 65 95 132 154 165 135 124 162 167 164 166 167 166 168 171 170 165 152 149 162 161 168 157 165 169 160 161 191 210 208 203 196 182 197 181 181 181 175 173 174 171 169 171 164 131 142 183 187 188 187 187 189 187 187 186 187 186 179 140 155 172 178 176 190 188 180 180 180 180 180 178 180 177 182 197 189 190 195 187 187 177 177 179 184 187 187 182 178 182 179 179 170 174 173 172 175 173 173 140 150 168 185 185 185 181 148 128 156 168 171 173 182 186 173 171 170 169 170 170 176 181 169 163 162 158 155 160 166 171 171 174 173 162 162 166 162 169 170 165 160 148 164 175 180 181 179 179 181 179 177 172 175 178 178 
179 179 175 171 171 175 176 175 174 175 177 178 178 178 176 176 176 175 135 108 128 122 123 124 128 124 123 121 118 114 109 115 122 118 117 126 127 128 124 129 133 130 127 131 127 121 124 126 127 131 131 131 108 80 148 172 169 161 148 126 91 68 54 40 83 163 227 239 186 179 183 179 175 166 180 175 175 182 167 171 178 188 183 185 182 188 173 194 182 191 172 193 181 174 175 185 229 212 146 62 42 58 82 118 147 164 169 130 127 163 166 167 168 168 169 166 167 168 167 165 172 164 163 167 168 173 164 164 165 174 195 201 198 187 181 199 188 181 178 176 175 173 172 170 171 170 138 133 176 187 188 187 188 186 186 185 185 185 181 169 137 155 175 179 176 174 175 182 180 179 180 180 181 180 195 211 202 200 199 186 191 189 175 181 180 177 181 183 181 182 183 180 176 166 172 174 175 176 176 172 147 149 159 181 179 179 177 141 121 161 167 171 173 181 166 167 168 167 161 169 171 176 165 158 162 154 152 157 155 162 165 166 169 169 163 162 169 169 168 168 167 162 148 161 176 177 179 180 180 179 180 181 182 179 177 180 
178 176 174 168 162 170 178 181 180 177 175 173 170 167 167 171 173 171 127 111 131 122 123 123 122 122 122 132 133 124 122 124 124 122 122 127 129 123 126 133 131 126 124 122 117 117 122 119 123 129 127 130 112 76 146 172 167 162 152 135 108 78 62 48 41 93 169 236 241 193 181 184 173 177 174 174 179 180 171 173 175 179 186 175 176 195 177 186 171 176 178 180 177 172 194 241 214 152 69 41 51 70 102 132 154 166 165 124 135 165 166 169 169 168 168 165 167 168 167 166 169 161 160 163 171 170 159 162 165 161 174 189 185 174 183 180 184 181 181 179 175 173 172 172 173 171 148 130 166 182 184 186 184 184 180 180 182 182 180 153 133 158 181 177 173 169 174 181 180 178 179 180 178 191 203 190 181 170 172 176 182 184 174 178 185 180 179 177 178 178 177 177 175 165 177 175 173 173 174 175 152 148 148 175 178 177 174 139 109 164 166 171 177 173 168 175 188 172 171 161 168 167 158 159 150 142 146 154 146 163 164 164 162 171 164 159 165 156 159 159 164 163 146 157 178 179 179 179 180 178 180 182 181 180 180 181 
176 176 176 178 179 177 177 178 179 179 179 178 180 180 178 173 168 164 120 116 133 124 125 127 125 117 118 130 130 129 137 134 124 120 124 114 119 125 127 139 133 133 130 124 121 128 123 120 128 126 125 130 112 75 142 170 168 164 157 143 120 95 71 56 47 41 98 169 231 249 203 173 170 176 174 168 185 174 169 175 175 180 180 174 180 178 166 183 182 180 175 177 176 206 242 203 150 72 41 50 67 89 121 149 165 173 159 119 144 165 165 167 170 171 170 168 169 169 169 167 164 149 152 162 163 161 162 165 157 152 156 165 172 156 136 133 171 181 179 174 171 171 170 171 172 170 156 129 154 180 180 183 185 184 182 180 182 184 180 146 134 159 181 185 191 186 179 178 177 178 179 179 179 186 184 180 177 175 172 171 175 173 168 176 180 174 172 170 179 182 180 181 173 165 178 173 178 184 179 176 154 147 145 180 179 178 171 134 95 165 163 169 165 168 172 192 188 178 174 177 169 152 151 149 159 162 150 146 155 164 175 172 164 169 161 153 160 157 163 164 162 164 143 156 176 179 177 177 180 177 180 179 180 180 178 177 
177 174 171 167 171 173 177 179 182 181 182 182 182 181 179 178 174 170 119 120 136 129 127 125 131 123 133 123 118 125 130 130 124 118 115 116 118 125 126 132 135 132 132 122 124 132 128 130 127 129 132 132 113 73 137 170 169 165 160 152 138 113 85 66 56 45 40 87 160 218 253 222 183 168 168 164 174 170 175 171 173 178 175 173 171 185 172 165 169 175 172 192 230 236 189 143 72 39 47 62 83 111 139 160 171 173 152 121 148 166 164 166 168 170 170 171 168 170 169 170 169 155 143 145 161 158 160 168 163 157 154 154 163 182 165 160 176 179 176 175 173 172 171 173 175 172 159 129 141 175 175 178 180 183 183 185 184 182 180 147 135 159 183 174 184 188 180 177 179 178 179 178 180 177 174 172 173 173 168 170 170 171 177 170 171 167 167 175 180 179 178 177 158 175 175 175 176 175 175 176 157 151 136 174 175 177 177 144 80 161 165 171 174 177 171 171 172 172 179 174 173 178 182 173 165 163 162 158 157 166 173 174 170 167 159 153 161 158 153 156 162 167 137 153 170 172 173 176 178 180 179 175 168 176 179 178 
178 178 178 177 177 171 168 168 169 173 174 177 179 178 176 174 169 166 115 117 136 128 129 128 119 124 133 135 127 123 111 115 115 115 114 117 126 127 133 132 135 137 129 124 128 126 128 128 131 132 135 135 110 70 133 169 172 172 168 160 147 119 91 75 64 54 45 38 75 143 197 244 247 213 182 169 171 163 158 171 174 176 180 180 167 166 167 168 174 191 226 246 215 172 126 61 42 47 60 76 99 129 152 167 173 176 150 126 154 167 168 165 167 168 168 165 167 169 169 169 175 161 155 147 151 160 158 167 167 168 161 159 171 191 183 182 182 180 177 176 172 169 168 171 171 167 160 135 138 180 182 181 181 184 185 182 180 175 160 128 133 159 180 181 182 179 176 178 177 178 177 178 176 166 166 175 175 176 172 170 166 170 185 171 166 165 169 180 179 173 180 171 161 176 175 174 177 177 174 173 161 155 136 178 181 178 174 149 75 155 165 168 177 174 175 167 159 154 156 156 158 156 168 170 164 167 163 168 162 163 169 167 164 160 153 152 162 156 161 165 164 171 127 154 172 177 178 178 176 178 177 182 182 178 179 181 
177 178 177 178 178 180 177 177 177 174 173 176 178 176 176 173 170 164 114 114 140 127 126 124 146 137 129 119 125 122 121 122 120 125 121 126 120 126 131 127 136 125 122 130 128 126 121 121 133 132 134 128 109 71 139 167 164 166 165 163 155 137 112 87 72 62 51 44 40 62 119 170 210 246 248 220 197 184 178 178 168 173 177 177 174 173 184 206 235 250 229 186 150 93 46 41 48 61 76 99 124 148 163 173 174 172 143 124 157 167 166 167 169 166 167 165 168 168 169 169 177 168 160 163 162 161 154 165 172 170 167 167 168 168 177 187 185 177 176 173 171 170 167 169 170 166 163 135 135 185 186 186 185 184 184 185 187 183 175 128 128 162 176 181 179 178 193 212 185 177 178 178 178 160 165 167 174 175 178 174 172 173 182 172 165 172 183 179 182 177 178 157 169 173 171 175 176 176 174 174 165 154 134 179 180 179 174 151 70 133 173 166 171 165 182 168 156 156 167 148 161 146 136 150 160 158 165 170 168 157 165 172 167 158 154 155 163 168 172 169 170 175 118 153 172 178 178 178 178 179 178 180 181 182 181 177 
180 176 175 178 177 176 174 171 169 170 169 169 171 173 174 171 166 157 111 107 138 126 118 115 130 137 127 128 124 123 119 123 119 128 132 129 116 124 131 131 137 122 120 128 126 120 123 127 136 136 131 130 107 70 143 172 173 171 169 164 158 146 128 107 86 71 62 50 46 43 49 88 138 173 202 235 249 248 240 230 220 217 221 225 232 241 248 245 217 185 154 110 62 41 40 49 61 74 94 125 147 160 167 170 172 173 140 127 157 165 166 165 166 166 168 169 168 172 172 172 180 175 166 171 170 168 160 157 172 173 173 170 174 183 178 186 182 178 176 173 172 170 167 170 170 168 164 136 128 175 177 179 182 183 187 187 184 179 171 127 116 160 170 161 174 177 161 181 190 187 178 178 178 168 163 174 166 168 170 172 171 178 180 174 164 173 179 178 179 184 169 159 178 174 174 172 172 178 175 176 165 151 127 171 176 176 172 153 77 104 183 167 164 177 158 166 178 184 159 164 163 163 166 171 191 195 196 190 169 150 162 170 168 163 158 159 168 181 170 167 176 168 111 153 170 174 175 177 180 179 182 183 182 179 178 179 
177 178 176 178 178 178 176 178 179 178 175 173 170 169 173 174 170 155 111 105 138 125 118 118 117 126 125 128 130 126 121 115 120 127 128 126 122 124 135 132 129 129 126 129 130 125 120 134 138 140 130 132 101 70 148 174 177 175 166 158 160 157 145 127 104 84 71 63 57 50 43 43 56 92 125 151 170 189 208 220 228 231 228 225 221 209 189 166 129 104 68 43 41 43 51 65 77 94 117 139 155 166 171 175 177 175 135 126 161 168 170 176 176 179 173 171 172 176 176 180 186 187 175 179 171 166 160 152 166 175 173 175 182 192 174 185 182 177 175 173 171 171 168 171 170 167 164 143 127 178 183 184 185 185 185 187 186 180 167 126 104 159 175 177 170 163 157 150 182 197 183 179 178 178 171 172 169 162 163 171 170 175 176 172 162 170 172 171 175 164 149 175 175 177 175 175 173 175 175 175 169 145 131 173 178 179 175 157 89 75 178 171 161 160 172 178 167 159 158 177 164 165 171 190 185 175 166 171 168 154 157 162 166 161 158 163 162 161 166 166 182 155 106 153 168 176 179 179 178 178 175 174 176 178 181 184 
175 174 174 174 175 175 175 176 174 176 179 179 180 178 173 173 172 162 117 101 140 123 120 121 108 115 122 125 128 122 121 113 118 121 129 131 126 118 121 123 130 134 132 137 132 126 126 131 137 136 126 130 87 74 157 177 179 175 171 167 163 158 150 140 126 106 87 75 69 63 55 48 43 44 51 70 93 109 122 136 143 147 149 145 134 125 110 82 56 43 39 40 45 54 64 79 96 120 139 154 162 168 175 179 179 173 126 128 166 171 166 160 161 159 174 178 178 188 187 180 183 182 173 181 185 169 164 151 152 162 166 172 183 206 213 186 182 179 176 175 174 172 167 169 169 167 167 144 124 180 186 186 184 183 183 184 184 182 177 138 97 159 172 174 172 177 186 161 141 176 191 185 182 178 193 185 167 171 162 167 171 174 171 165 169 176 168 168 157 148 170 173 173 176 176 172 174 172 174 176 168 142 134 172 180 178 175 162 104 55 153 182 164 167 171 176 165 160 171 168 168 168 163 152 149 154 158 160 159 156 155 162 160 155 158 162 163 164 163 164 192 131 110 156 168 175 179 179 179 178 178 176 178 180 180 180 
173 174 176 178 180 180 179 177 176 175 178 176 177 179 179 176 170 158 119 90 140 125 122 126 127 126 123 127 123 112 117 124 115 120 131 126 127 121 119 120 131 138 134 138 130 131 130 135 131 135 125 128 73 79 158 176 180 180 177 174 170 163 157 147 137 128 108 89 77 71 68 63 55 48 45 44 41 48 51 57 64 66 67 64 56 50 43 43 42 42 46 52 59 66 76 94 118 138 151 161 170 175 175 174 175 169 121 128 167 171 164 160 162 162 161 163 174 181 182 175 178 179 160 170 185 191 170 154 142 149 157 165 175 185 192 182 179 175 174 174 172 171 169 172 171 169 168 144 118 177 182 183 183 183 183 178 175 170 167 138 91 159 170 180 182 180 181 191 157 155 177 188 185 185 171 175 173 169 169 163 170 173 166 166 165 172 173 169 162 171 174 174 174 172 171 171 175 174 172 175 166 135 134 174 181 185 178 168 122 58 109 186 172 169 172 170 177 165 162 163 165 167 167 166 159 150 147 154 164 165 157 160 161 153 158 156 154 166 168 170 193 103 117 158 175 182 181 182 180 179 180 180 179 177 180 180 
180 177 178 178 177 177 176 176 174 177 176 174 173 174 174 172 165 157 123 80 139 136 122 122 119 118 118 125 127 112 108 105 114 119 130 128 128 125 122 125 130 137 133 134 129 128 132 137 140 125 127 123 59 91 158 175 179 180 178 175 174 173 169 164 153 142 127 108 90 79 77 73 69 64 58 53 50 47 47 44 42 43 43 43 43 43 44 46 47 54 61 66 72 84 98 114 134 148 157 162 169 170 174 173 172 166 121 127 169 171 171 163 157 160 160 162 172 170 170 174 183 178 154 156 164 184 182 158 139 139 146 150 151 150 144 179 178 177 175 174 169 168 170 169 166 168 169 140 114 173 184 186 186 186 186 186 183 178 170 137 82 155 169 181 179 177 181 177 181 148 174 184 182 178 181 173 174 171 169 164 171 173 164 170 166 169 177 180 177 171 169 174 171 173 172 175 176 173 171 174 167 121 136 172 180 185 183 175 139 65 69 171 180 163 166 179 168 166 171 170 170 168 167 167 171 168 168 151 136 145 166 171 167 152 164 169 158 159 160 187 167 83 126 156 167 178 180 178 178 179 179 178 181 180 177 178 
178 179 177 180 179 180 176 178 179 177 178 179 178 178 173 169 163 152 128 74 127 143 120 117 124 130 120 127 123 113 109 109 115 115 122 125 125 130 126 129 128 133 134 134 131 132 140 125 116 124 134 103 53 107 161 173 172 174 179 179 176 171 168 168 163 157 149 136 117 99 87 80 75 74 72 67 64 59 57 54 52 51 50 51 52 55 57 59 64 69 72 80 93 112 130 140 150 161 168 174 177 177 178 179 176 170 124 128 171 169 164 154 147 152 161 165 162 156 162 180 188 165 152 155 159 168 185 178 154 129 134 123 119 122 151 178 173 177 173 172 172 168 169 170 167 167 169 136 110 163 172 180 183 185 185 184 185 181 174 149 79 150 167 181 177 178 180 176 174 169 172 201 186 171 179 200 180 162 171 171 171 168 167 168 184 176 169 177 175 173 173 175 174 172 174 173 172 173 173 173 170 106 135 171 179 181 181 177 154 83 48 124 192 171 165 163 171 163 185 190 180 168 162 164 170 172 163 163 164 148 139 164 172 159 161 161 162 161 157 198 125 87 132 161 170 172 176 181 176 177 178 177 176 176 177 175 
177 179 180 180 180 179 180 181 181 180 179 181 181 178 181 179 173 160 133 74 105 145 123 129 130 126 125 126 126 124 113 116 119 118 110 117 126 129 131 133 128 126 129 127 138 145 123 122 115 128 131 74 56 121 162 173 174 172 174 174 176 177 174 171 168 164 159 153 140 125 111 94 83 83 81 77 73 70 69 69 65 66 65 68 67 70 70 71 76 80 87 99 116 133 148 157 160 165 173 175 178 181 183 179 177 169 123 122 170 171 167 165 156 155 153 160 155 162 173 183 170 159 159 158 156 162 172 193 182 156 129 147 171 174 180 177 177 175 171 169 170 170 170 172 168 168 173 133 109 167 180 180 180 181 183 185 182 181 176 150 75 136 165 179 177 179 178 178 169 194 202 186 178 171 186 200 187 171 158 168 174 178 168 171 174 184 172 165 174 177 182 188 178 171 175 174 175 172 171 177 167 91 140 173 181 182 182 176 160 106 52 70 174 187 163 169 166 174 183 162 171 169 194 178 168 168 171 168 170 173 155 137 153 157 163 162 164 155 179 185 84 100 143 164 173 176 174 173 177 177 177 178 177 176 176 181 
174 169 169 174 179 181 182 183 182 183 181 182 182 181 180 178 173 164 142 82 79 146 127 129 120 123 125 119 125 128 124 115 124 118 115 121 117 124 124 131 129 125 128 136 119 118 120 123 125 141 121 53 67 136 167 173 177 177 177 176 174 175 175 172 170 168 164 160 157 149 139 125 106 95 88 84 82 81 80 78 76 75 76 75 77 78 80 87 97 107 120 131 140 148 157 163 168 172 176 179 178 178 180 179 179 169 126 118 171 172 169 171 170 169 170 171 174 177 180 177 160 157 159 160 160 160 164 181 199 178 159 173 178 179 177 175 174 176 175 170 171 171 168 167 169 173 176 127 113 171 181 180 182 182 186 185 183 181 177 156 74 109 165 178 174 179 181 180 168 151 169 138 150 174 176 178 169 175 176 163 170 176 174 179 173 166 173 187 188 183 181 176 172 170 174 172 174 173 171 180 148 83 144 171 179 180 180 177 168 131 63 52 114 191 175 165 169 179 163 163 160 172 183 181 166 165 169 172 173 170 173 166 138 141 162 159 155 159 205 133 70 116 155 169 176 180 181 179 181 177 175 175 178 178 176 176 
180 180 178 176 175 174 170 170 175 172 172 174 177 179 176 176 173 165 143 96 59 135 142 120 122 119 124 123 126 120 117 120 118 113 115 124 121 124 131 129 130 128 126 126 128 123 119 122 130 142 93 45 84 146 169 173 177 177 177 178 181 181 181 179 175 171 168 163 161 155 147 140 130 117 109 99 92 92 92 91 89 87 88 91 96 102 108 120 129 135 141 144 146 154 162 167 172 175 174 177 178 177 176 174 171 164 129 107 167 172 169 170 170 170 173 177 177 177 177 163 161 162 160 161 159 155 162 167 191 192 174 180 180 177 178 178 177 175 174 172 169 170 170 170 170 174 179 116 119 168 174 179 182 183 185 185 184 180 176 157 81 75 163 172 176 178 181 179 175 142 116 151 154 150 167 165 168 171 175 171 169 192 181 167 178 187 190 171 169 177 177 171 170 173 171 173 173 168 173 184 124 88 150 174 180 179 177 176 166 146 88 48 61 153 191 169 163 172 165 160 161 171 169 163 172 166 167 169 172 171 168 167 159 157 168 162 149 191 179 76 79 124 155 164 170 176 177 175 180 184 181 171 172 177 180 179 
181 180 178 178 176 175 170 165 165 167 171 171 174 175 173 167 158 153 138 104 56 104 159 126 122 127 126 123 125 121 127 114 112 114 113 119 126 126 128 129 126 128 131 121 127 127 121 126 143 133 62 51 104 157 174 180 181 182 181 183 184 184 183 181 179 180 178 173 168 163 154 150 146 143 135 126 118 113 109 110 109 111 113 117 125 130 135 138 144 148 152 158 161 166 168 170 170 173 174 175 178 181 182 181 176 163 131 97 163 174 170 170 170 167 171 173 173 175 169 152 153 161 165 164 162 154 158 167 177 192 168 178 179 178 174 175 177 173 171 170 168 168 167 170 170 174 173 101 121 159 165 167 170 169 171 174 175 173 163 151 91 54 150 167 178 178 179 176 178 179 172 172 173 155 163 177 166 172 171 169 160 165 177 177 184 180 162 172 182 188 191 182 177 172 170 169 168 161 178 180 93 100 154 173 180 181 181 179 171 147 110 57 50 81 179 188 161 163 169 168 166 169 162 161 170 170 171 168 168 168 169 175 165 159 166 164 177 201 108 57 92 132 157 168 175 177 177 174 172 174 179 183 178 178 179 181 
181 181 180 179 179 179 180 179 176 173 175 178 179 178 178 173 164 152 138 111 66 64 146 150 128 126 123 128 130 120 115 116 105 117 120 119 124 129 131 130 134 133 126 129 126 129 126 136 151 98 41 68 125 159 171 178 180 179 181 182 181 179 175 173 176 178 178 176 174 173 170 163 159 156 151 144 136 137 136 137 138 137 138 140 142 145 150 154 155 159 160 162 163 165 167 171 172 171 171 175 177 177 176 176 175 166 136 89 158 178 171 172 170 168 173 176 170 175 164 153 149 153 161 165 163 159 156 163 173 169 162 173 179 176 171 174 176 174 172 172 169 167 171 171 172 178 164 85 132 172 180 183 184 183 177 171 169 166 162 146 97 50 116 168 182 175 179 179 178 178 176 176 175 179 199 183 169 165 174 174 158 153 170 168 169 166 183 175 169 169 171 185 194 191 177 171 169 165 187 161 71 116 161 175 179 179 180 179 177 168 140 89 48 50 99 185 184 150 149 164 168 169 171 169 156 157 166 162 161 167 171 169 167 160 160 178 212 139 56 70 111 143 161 169 174 177 178 176 175 175 177 180 179 178 176 176 
180 180 177 175 176 177 178 180 181 179 178 179 179 179 177 175 170 163 152 128 83 48 99 162 133 129 129 129 130 119 116 112 113 121 121 117 125 128 129 135 134 122 126 122 112 111 128 152 129 56 42 83 138 165 174 179 180 180 180 182 182 180 181 181 176 170 165 162 163 164 163 160 164 167 163 153 143 138 142 143 143 143 147 150 154 158 162 164 163 167 170 171 172 171 171 174 178 179 177 178 182 179 175 171 169 161 142 86 145 181 170 172 174 170 175 169 167 170 171 165 153 151 161 163 163 165 153 153 166 170 169 168 178 183 179 183 178 175 174 173 171 167 168 169 175 184 147 77 135 172 182 182 181 182 183 183 181 177 172 162 117 59 77 168 176 180 177 178 179 175 177 177 176 180 174 164 160 165 188 176 169 142 151 162 148 151 166 170 169 175 172 166 173 175 173 172 169 179 191 125 67 127 158 170 177 179 174 170 172 170 155 120 71 44 48 114 192 195 159 153 162 156 176 181 169 166 165 169 163 165 166 162 162 154 176 219 153 65 55 85 127 154 167 174 177 179 177 177 179 182 182 183 181 182 182 179 
176 176 176 174 175 173 172 175 177 180 178 179 181 180 178 177 174 168 154 134 98 54 56 135 155 130 130 128 127 117 126 124 119 111 116 121 133 130 127 126 132 126 118 117 118 121 144 145 81 39 58 109 149 160 168 174 177 181 180 181 182 186 180 166 167 180 189 191 194 197 198 189 177 164 159 164 163 162 162 161 161 163 164 164 164 166 166 167 164 164 167 169 172 178 179 179 179 180 181 183 184 186 185 182 175 166 142 87 122 184 172 172 171 170 174 164 172 166 164 171 179 163 158 160 162 164 156 155 159 174 177 164 169 172 173 179 182 180 183 175 173 172 175 171 174 187 118 78 136 166 180 182 185 186 187 186 185 182 173 160 127 71 52 146 174 181 177 181 181 175 176 176 175 166 166 183 174 174 188 176 178 186 159 150 166 158 143 143 162 161 153 162 172 160 158 170 170 200 181 85 80 135 166 176 175 175 179 172 171 170 164 144 102 59 45 51 113 186 202 177 163 164 151 153 178 154 163 174 169 164 161 158 157 187 217 155 64 48 69 105 134 153 165 172 174 176 179 179 180 178 178 180 182 182 183 183 
181 179 179 181 183 181 178 178 179 179 178 179 179 180 180 178 176 171 160 140 109 69 43 81 156 144 127 124 112 113 119 118 126 125 122 121 119 119 126 136 130 133 120 121 127 142 151 103 45 46 78 127 156 169 175 178 181 179 182 185 184 168 168 188 180 156 137 128 127 127 131 145 173 201 200 176 164 172 167 165 165 166 169 174 172 174 175 175 174 177 179 179 179 177 178 180 180 181 180 182 182 184 180 178 177 167 147 99 92 179 175 171 168 171 166 169 167 160 155 154 156 166 169 164 162 165 155 153 155 169 177 166 163 155 159 160 152 158 156 164 164 185 193 192 185 179 87 88 146 172 185 188 186 186 186 184 185 182 173 165 143 88 51 99 171 180 179 179 181 183 177 175 173 171 143 151 166 177 173 158 175 173 160 162 164 170 172 165 166 158 148 141 144 142 167 165 180 202 148 58 95 140 164 178 182 182 182 183 179 176 173 159 128 89 51 46 49 94 175 207 191 169 165 166 157 161 167 164 161 153 158 175 208 210 134 59 48 61 89 126 147 158 166 168 165 163 166 175 179 181 179 178 179 179 178 178 
180 180 180 180 181 181 181 179 178 180 176 175 173 169 169 173 174 170 162 146 119 82 48 45 103 166 142 124 122 122 117 122 115 118 126 122 123 121 130 135 134 129 122 122 139 154 113 53 41 61 104 145 164 173 176 180 185 185 187 181 164 182 169 128 120 136 157 169 174 172 168 153 134 122 148 196 198 171 176 177 173 172 175 172 168 167 166 169 176 179 182 184 182 182 179 177 179 182 183 184 183 182 182 180 178 171 158 115 71 162 182 168 167 168 162 162 159 156 155 152 153 152 158 179 169 163 156 150 150 167 182 185 175 156 158 159 153 155 158 171 153 164 162 171 191 151 64 98 148 171 180 183 183 184 185 183 181 182 181 174 156 104 59 55 152 174 182 176 172 173 168 179 177 175 166 139 161 150 144 162 167 162 164 168 165 172 171 171 167 171 175 174 163 170 175 169 200 181 95 57 109 151 170 179 183 184 183 183 182 178 172 163 145 115 81 52 44 50 68 136 192 210 197 180 170 159 162 164 171 185 206 214 175 98 48 47 62 83 110 140 161 169 174 175 174 175 173 174 178 178 177 175 173 168 172 173 
178 177 176 177 179 179 177 177 176 176 177 175 174 171 169 168 169 167 161 152 132 101 66 42 52 115 167 140 121 117 114 119 125 112 114 117 122 122 125 130 121 123 123 143 158 118 61 39 50 87 130 158 170 175 178 182 184 187 176 167 177 133 130 160 173 174 172 171 174 175 177 171 173 168 146 120 156 202 172 176 180 177 177 174 170 169 172 173 170 176 177 179 182 180 179 180 175 168 172 176 177 177 179 180 176 172 162 129 69 127 190 172 169 161 158 150 152 156 154 152 153 151 151 154 171 167 162 155 153 177 192 180 178 169 161 151 162 150 163 163 147 156 151 173 193 111 61 113 159 176 183 184 182 181 180 184 181 180 178 171 161 124 67 49 101 166 182 172 174 169 166 176 178 193 177 166 142 157 167 173 172 170 169 168 168 166 165 169 172 171 170 171 173 172 165 182 209 144 54 71 120 154 171 180 183 183 181 180 180 181 174 169 163 142 108 75 51 42 50 53 83 137 174 197 206 205 208 208 208 194 165 117 63 44 46 60 77 100 129 152 165 171 176 177 176 177 174 172 172 174 175 175 176 173 173 173 
178 178 180 179 176 175 173 174 176 179 178 179 177 177 179 176 174 174 170 161 146 122 87 56 38 53 115 165 149 117 115 119 112 116 125 124 125 120 120 123 124 127 151 154 112 58 38 44 68 112 149 163 171 176 180 184 184 170 167 160 124 157 175 171 168 171 171 170 171 171 172 170 170 170 171 168 134 132 193 172 176 180 180 183 181 179 178 179 181 181 181 182 179 179 182 183 183 185 182 182 182 182 183 182 177 169 159 135 79 83 184 184 172 152 151 150 148 154 152 154 152 152 153 151 155 172 164 157 160 182 179 169 168 168 165 160 164 163 149 147 161 160 166 192 167 69 69 121 159 174 178 183 186 185 185 183 182 182 181 174 165 141 87 54 58 149 166 183 172 175 175 175 179 173 181 176 172 167 176 172 172 169 169 167 170 171 173 171 169 170 169 169 169 167 170 214 176 85 49 83 126 155 167 177 180 178 181 183 181 180 178 173 166 156 134 102 75 58 44 48 52 53 65 89 114 131 130 127 108 82 59 42 41 50 65 78 99 123 147 161 167 172 173 175 177 179 179 177 175 174 177 177 180 182 180 181 
180 177 175 179 178 180 181 181 183 182 181 179 177 179 180 179 177 174 172 166 154 140 111 74 49 35 53 102 152 164 142 127 119 119 107 109 110 117 124 129 147 161 141 98 52 35 39 56 93 135 159 168 174 178 182 183 169 167 152 132 172 174 170 173 179 174 174 172 171 172 172 173 170 168 166 167 170 149 129 190 170 181 185 184 185 185 181 180 180 181 182 181 182 184 187 188 186 184 185 184 182 181 183 181 177 171 161 142 96 56 146 199 173 153 148 152 152 152 153 152 154 152 154 160 155 162 166 159 159 167 163 160 164 164 166 165 168 168 167 165 166 160 176 198 120 52 86 138 166 179 183 183 185 184 185 187 188 185 181 178 169 151 108 62 51 90 165 177 181 162 168 172 169 181 172 172 175 173 171 171 170 169 170 171 172 169 172 170 171 172 172 169 171 165 212 198 124 48 64 100 138 162 176 180 184 184 183 181 183 180 179 174 166 157 143 127 101 81 67 53 46 46 48 50 51 51 45 44 46 42 42 45 57 68 83 102 123 144 158 166 170 173 173 175 175 177 178 178 181 183 181 182 182 181 179 178 
178 179 173 167 164 164 169 172 172 175 178 178 177 175 177 178 179 176 173 171 164 149 128 94 65 44 34 44 80 125 158 169 163 150 144 134 137 145 158 161 147 117 77 41 32 37 53 77 116 146 160 171 178 182 185 169 167 150 138 172 172 170 172 171 176 178 174 176 176 168 168 174 170 169 170 166 163 170 154 132 189 169 182 184 181 183 183 183 185 182 179 178 179 178 180 184 184 184 185 183 182 181 181 181 177 176 167 149 111 58 92 194 191 153 153 151 150 151 151 154 154 153 154 155 157 157 163 159 160 158 154 156 154 153 167 168 169 165 165 164 160 166 198 171 73 57 99 142 167 177 180 184 185 186 186 186 187 187 186 180 173 154 118 76 54 51 124 166 190 181 169 161 165 168 169 174 173 172 173 172 173 181 176 172 172 171 168 166 170 170 168 172 164 204 214 149 65 49 78 113 144 163 172 176 179 182 184 182 180 181 182 181 178 168 156 141 127 107 88 76 70 60 51 46 43 43 42 43 44 49 59 67 77 88 106 121 135 147 157 165 170 172 174 176 175 174 174 176 171 167 169 172 177 178 180 180 
180 179 178 177 177 175 176 175 172 172 173 176 180 176 168 160 159 161 163 164 164 155 139 114 86 63 43 33 38 53 75 102 130 142 149 156 151 139 120 96 71 48 32 32 38 55 77 108 136 151 155 158 168 178 173 161 155 135 176 171 171 171 172 170 172 171 174 170 173 171 168 169 178 174 165 167 168 168 171 150 146 190 175 184 180 178 177 178 180 181 181 178 173 173 172 169 174 176 181 185 182 180 180 177 173 174 170 157 126 75 57 152 204 166 140 157 151 155 155 157 154 154 152 153 154 158 160 158 154 151 149 149 156 154 158 174 170 166 167 168 163 186 198 115 51 69 113 151 168 177 182 185 188 189 187 185 184 183 183 178 175 164 136 96 63 53 60 144 173 196 182 163 160 163 168 173 170 172 174 174 173 167 165 172 173 174 170 173 166 170 171 164 196 225 163 87 43 63 95 130 155 170 174 174 174 173 173 177 180 180 179 174 172 169 160 152 149 136 117 100 88 80 75 69 65 64 64 67 70 73 79 85 98 118 140 150 159 164 168 171 170 168 170 174 177 180 177 177 177 175 173 172 175 174 174 174 
175 177 180 180 180 178 179 180 178 176 175 174 171 174 180 180 175 169 163 160 160 158 150 133 107 81 62 46 36 34 36 39 50 62 69 73 70 57 46 36 31 30 33 42 59 75 99 128 148 160 171 178 180 180 151 161 132 172 173 177 175 174 182 170 170 171 173 173 171 171 172 173 184 186 172 166 170 171 168 172 141 165 180 181 185 187 186 184 183 185 187 187 185 184 177 172 171 169 170 173 179 179 174 167 166 162 160 154 132 91 51 89 187 198 137 137 161 154 158 154 155 154 149 156 153 152 156 159 152 154 158 164 165 162 157 173 170 168 170 170 180 208 153 62 54 87 130 158 172 179 184 184 188 190 190 189 189 183 178 178 177 172 155 122 85 57 51 65 158 170 197 187 163 162 168 170 169 170 168 173 173 165 169 172 172 169 171 169 163 167 167 200 230 173 105 46 55 75 104 133 150 164 173 176 177 176 173 170 173 179 180 180 179 179 175 169 162 155 146 134 119 106 97 91 84 81 84 85 88 93 102 114 130 141 152 161 168 170 174 178 177 178 178 178 180 179 179 178 177 177 175 176 177 177 178 174 
178 177 176 178 179 178 180 180 177 178 180 180 180 177 172 174 180 183 180 176 172 166 156 142 126 105 82 65 56 42 33 30 31 32 32 32 32 31 29 26 28 39 50 62 75 98 126 146 155 162 169 178 177 153 160 136 166 172 172 181 174 176 182 187 171 169 169 165 169 171 171 173 170 180 181 174 174 170 166 172 170 133 180 175 186 185 186 186 185 184 186 184 185 187 186 184 184 184 182 182 184 184 184 184 180 176 168 158 146 112 66 51 131 204 179 122 147 152 156 154 149 151 152 153 152 152 161 164 154 152 159 162 160 156 154 165 177 175 174 177 208 181 87 46 68 105 140 163 174 175 170 174 176 178 180 181 184 184 186 184 181 178 166 142 108 74 56 52 70 157 165 196 186 162 163 170 175 171 167 171 174 167 168 171 167 167 170 169 165 169 212 229 173 113 49 49 66 91 125 149 162 169 173 178 183 182 185 184 182 181 181 184 183 182 179 175 174 166 160 156 150 140 133 127 119 113 113 117 122 127 134 144 152 159 160 165 172 176 177 179 179 179 179 181 180 181 181 181 180 181 182 179 178 178 179 179 
177 179 180 177 176 178 177 179 177 175 176 177 179 178 179 180 176 174 176 175 172 167 160 148 135 121 100 81 70 62 52 43 37 34 31 30 30 31 33 38 46 55 62 75 98 125 144 154 165 172 174 178 174 151 152 152 171 169 171 174 175 172 169 170 171 169 171 167 166 168 176 173 164 173 169 171 172 172 171 169 172 154 148 183 184 187 186 185 186 183 182 181 177 178 183 183 183 183 185 185 186 188 186 182 182 180 177 165 156 130 87 53 65 158 203 163 128 157 155 155 152 149 151 151 151 150 157 162 159 159 160 153 154 156 155 152 176 179 177 206 197 113 46 55 84 120 150 169 173 178 179 178 180 181 181 176 172 171 176 181 181 178 170 151 128 95 68 56 49 68 149 168 192 194 175 168 166 168 169 170 170 168 168 164 164 168 162 157 175 227 226 160 107 48 46 59 76 103 133 154 169 180 183 182 183 183 183 183 173 173 172 173 175 178 179 176 170 170 168 164 159 156 152 145 142 138 136 138 143 148 153 158 164 166 170 170 172 176 178 181 181 180 181 179 175 172 173 176 176 177 178 180 183 182 184 183 
180 181 182 182 181 177 174 178 178 177 176 178 179 179 179 180 179 174 172 172 171 168 165 159 150 138 122 105 86 74 68 61 58 56 55 53 51 53 55 57 62 70 85 104 125 142 149 155 163 170 174 182 154 159 141 173 170 168 165 166 174 181 173 169 169 171 170 170 168 166 171 168 167 161 170 182 173 179 185 168 170 171 137 177 177 189 188 186 188 190 191 189 187 183 181 183 183 185 185 182 181 182 182 182 180 177 175 168 157 142 107 68 42 84 170 205 140 126 152 158 156 151 148 154 154 151 154 156 159 153 154 154 159 163 152 147 149 173 204 205 133 57 49 69 103 137 159 170 176 182 185 185 188 190 190 188 185 184 179 182 184 182 176 162 148 124 91 64 53 47 61 137 164 181 200 192 179 169 166 164 171 167 161 162 165 166 178 212 238 203 147 94 48 44 57 72 95 121 143 158 167 174 181 183 182 182 179 181 183 184 183 180 178 177 178 180 178 176 172 169 166 164 160 156 157 155 151 152 153 160 163 165 167 168 168 166 160 163 168 173 178 182 180 180 181 181 180 177 177 177 181 181 178 176 178 180 
166 163 168 179 182 183 182 178 178 180 180 179 180 180 180 177 179 177 175 175 173 171 169 165 160 155 148 137 118 99 83 74 70 71 69 65 68 72 74 78 87 101 120 133 143 150 156 161 166 165 173 171 145 152 161 176 170 173 168 169 171 172 170 172 172 172 168 165 168 164 176 172 176 180 179 186 182 177 177 169 168 172 154 153 176 185 187 184 182 180 183 186 187 187 187 184 181 181 179 182 183 180 181 183 183 180 177 172 162 148 125 85 52 41 96 178 204 139 118 142 159 155 154 153 153 152 152 155 152 151 157 158 161 145 144 140 149 206 207 138 63 43 59 82 115 145 163 175 179 181 183 184 185 186 185 184 183 181 178 181 182 184 182 175 162 142 113 83 61 53 46 44 103 153 171 191 210 215 202 188 182 180 180 191 213 232 233 210 172 126 72 43 45 56 70 85 110 137 156 166 175 180 182 183 185 184 183 183 184 184 184 184 184 182 178 179 174 170 168 169 174 171 163 158 155 158 160 160 157 157 162 164 166 170 175 175 176 175 175 175 174 172 175 179 179 181 180 180 180 182 182 179 176 176 174 174 
172 169 165 165 167 170 173 174 175 179 179 180 182 182 183 181 178 180 178 177 178 176 171 168 165 156 144 137 137 132 120 107 98 96 92 87 88 94 103 109 118 131 141 151 155 162 168 171 173 173 179 155 154 148 176 175 171 169 169 169 168 167 173 175 172 172 177 184 189 194 199 199 171 178 175 170 173 168 169 171 168 167 166 140 173 171 188 188 188 183 184 183 185 187 187 187 186 186 185 184 184 186 186 187 186 184 181 177 171 159 140 103 66 47 43 100 183 209 154 113 124 149 157 156 152 153 149 156 157 159 158 146 131 127 137 157 209 202 132 68 44 53 72 99 134 157 170 177 180 179 181 184 182 185 185 187 187 184 184 185 182 179 178 175 168 154 134 106 80 60 50 46 40 64 121 150 162 176 199 222 229 233 233 230 217 181 151 131 94 49 42 45 55 70 83 103 126 146 155 166 172 178 185 184 183 187 189 189 187 184 181 181 182 181 180 179 174 172 169 166 168 170 173 173 172 173 175 175 173 170 167 168 168 166 168 172 174 173 178 181 183 181 177 178 181 180 176 172 170 170 175 178 178 178 178 177 
179 176 174 174 172 174 177 176 172 170 173 175 176 175 177 178 179 178 179 181 181 179 178 176 175 170 164 158 148 142 139 135 134 129 126 123 125 131 137 143 148 152 154 157 163 166 169 172 176 180 182 146 155 162 178 174 174 175 171 170 170 173 174 175 175 178 179 174 175 175 174 181 176 164 165 167 165 166 171 172 169 168 169 149 162 163 187 187 185 185 185 184 182 185 185 184 187 186 186 184 183 182 183 184 180 180 181 179 177 168 153 126 85 59 43 40 93 171 213 187 133 109 119 135 142 149 150 152 154 144 126 111 113 142 176 212 185 121 63 41 49 67 90 119 145 160 170 179 182 185 184 184 186 185 187 186 184 182 175 174 177 179 183 178 172 163 153 132 102 80 65 49 48 43 39 60 98 131 147 155 160 166 163 153 135 108 80 52 39 40 43 54 67 80 98 122 145 162 168 174 178 178 173 171 162 155 155 159 165 177 184 184 182 182 174 166 172 177 173 166 160 163 171 171 172 174 173 171 171 171 171 171 173 171 168 167 172 176 176 179 181 183 183 183 183 183 184 185 183 181 179 183 181 181 180 179 
177 174 170 165 165 165 169 173 174 177 177 177 174 169 160 159 167 169 171 175 176 178 180 180 175 169 165 162 162 161 158 152 152 155 152 149 147 149 153 156 160 164 169 169 169 169 171 175 177 177 168 146 150 174 180 179 173 172 168 171 170 172 177 180 175 178 177 179 180 177 178 184 179 166 171 190 187 172 176 188 173 169 169 162 149 161 179 185 184 185 181 182 184 184 184 181 179 183 185 186 187 187 186 185 185 183 183 180 179 173 162 141 107 75 54 40 37 76 141 198 211 184 139 108 101 102 104 105 104 106 121 146 178 212 206 157 106 55 40 47 61 80 105 135 157 169 174 181 181 183 183 182 184 180 176 178 176 174 177 178 182 185 184 180 175 172 162 148 127 98 80 71 57 51 46 43 39 45 64 79 92 96 89 72 53 42 39 39 41 48 57 67 82 104 126 144 156 168 176 179 165 151 142 133 120 120 122 129 132 135 144 167 189 189 184 182 179 178 174 173 169 162 165 171 173 174 174 174 173 171 171 171 172 174 176 177 172 169 171 175 178 179 180 182 183 183 185 185 186 186 185 185 185 183 183 180 
177 176 176 178 177 173 173 172 169 169 173 175 176 178 182 180 177 175 171 167 168 168 170 170 168 169 169 165 164 167 167 164 163 163 165 166 164 164 165 163 160 162 165 169 169 174 181 184 183 183 157 152 152 177 175 172 178 171 173 171 174 176 179 175 172 181 182 182 174 181 178 172 173 162 163 166 168 175 170 168 169 169 169 167 145 163 167 191 190 189 188 184 184 185 186 187 185 180 179 178 180 182 183 184 186 184 180 176 172 171 163 147 127 92 68 55 40 36 53 95 147 189 209 205 189 176 170 169 178 195 206 215 204 166 117 76 44 39 45 60 76 100 128 149 164 172 176 179 182 185 182 173 173 179 182 182 177 174 177 178 179 173 173 183 183 175 168 159 144 125 101 83 73 66 58 52 47 42 41 39 38 35 37 39 39 42 44 48 54 61 68 82 104 130 146 154 162 170 163 146 130 108 91 85 85 86 87 85 87 96 116 123 139 176 189 184 177 178 176 175 173 171 169 167 167 164 166 168 170 173 174 174 174 175 176 177 177 178 177 175 178 178 179 179 181 182 178 177 180 178 173 171 171 174 179 180 
177 177 174 172 173 175 176 176 178 177 178 179 178 178 178 181 180 178 179 180 179 176 173 172 174 175 173 174 175 176 174 171 171 170 171 172 171 170 172 173 172 171 169 165 159 159 165 174 178 182 145 151 164 178 171 175 173 171 179 178 174 178 177 172 178 178 177 180 173 173 177 173 162 162 169 161 159 164 170 168 168 169 168 167 153 162 158 188 185 187 188 189 185 187 188 189 192 191 189 188 188 188 188 190 188 186 185 180 173 169 166 157 141 112 83 66 55 45 35 38 60 92 124 153 174 192 202 201 194 180 163 138 106 69 46 36 38 46 57 70 90 115 141 158 167 172 176 181 184 175 174 179 168 150 128 108 102 101 107 121 138 153 161 169 169 173 173 162 155 146 129 106 87 77 72 67 62 56 52 49 46 46 45 48 51 56 60 61 66 73 88 107 129 146 158 163 167 158 136 108 87 91 106 116 121 121 122 123 119 110 100 88 110 128 157 185 179 178 179 178 176 176 177 178 175 174 174 173 171 171 175 174 175 176 177 178 178 178 179 178 175 175 175 172 175 182 180 178 176 176 178 178 175 172 174 178 
178 179 176 176 179 180 179 177 180 179 178 179 180 182 180 179 180 183 183 183 182 180 179 178 180 181 179 178 174 171 173 172 176 174 172 173 174 175 177 177 180 181 183 181 179 180 176 174 176 171 141 149 177 178 181 178 175 176 176 173 174 177 174 179 178 176 174 171 171 172 176 169 165 158 159 174 168 164 169 167 167 168 168 168 158 158 162 180 182 181 179 182 189 190 189 189 191 189 187 189 188 188 191 193 191 189 187 185 180 175 171 163 149 130 106 84 69 58 49 40 36 36 42 61 78 91 98 102 95 85 70 55 43 37 38 42 50 61 71 87 107 128 145 155 166 172 176 176 167 175 164 126 96 83 90 101 106 112 111 105 95 89 107 141 169 171 168 174 168 159 150 133 113 96 83 76 74 70 67 65 60 60 60 59 62 65 70 75 83 90 105 127 142 153 163 170 151 133 96 93 117 126 127 132 132 131 129 130 129 130 133 121 99 98 117 143 180 179 179 180 179 181 182 179 179 177 177 181 181 178 177 178 179 180 181 180 180 182 181 178 178 179 178 178 180 179 178 177 178 180 181 181 183 183 178 176 
177 175 177 179 181 180 176 176 177 177 175 169 173 172 170 174 178 179 179 179 176 180 181 178 179 178 177 177 177 174 173 172 174 171 170 170 170 173 176 177 177 180 182 180 180 183 183 181 180 157 146 154 191 172 172 189 181 176 175 176 176 174 173 169 171 171 171 168 173 169 177 169 168 164 160 164 169 167 166 164 166 167 166 168 165 153 168 178 187 187 190 185 187 185 187 189 190 191 189 183 187 193 195 193 192 189 196 202 201 194 181 169 158 145 127 104 81 71 63 54 46 39 36 35 36 38 39 39 41 41 40 39 40 42 47 53 62 74 89 110 133 151 161 167 171 176 171 170 168 126 85 93 114 131 138 141 156 154 149 148 142 130 111 91 104 145 169 167 172 169 161 154 141 122 107 92 83 78 76 74 72 72 71 71 72 76 83 91 101 116 131 143 151 161 167 148 131 91 106 125 125 127 131 133 131 132 127 133 138 136 125 127 130 110 93 111 134 181 178 177 176 176 177 177 176 176 173 171 177 179 183 182 180 180 180 179 180 183 185 183 181 181 178 179 181 182 183 183 183 184 184 183 183 181 179 179 
177 177 175 176 177 178 176 174 175 173 171 168 172 176 178 179 179 178 180 176 178 178 177 178 172 173 172 178 177 177 178 177 171 173 177 177 178 179 176 176 178 180 182 182 182 181 182 184 183 145 152 160 187 197 188 174 175 175 172 172 173 172 170 164 165 172 168 168 172 167 162 161 155 162 166 154 164 169 164 162 164 168 166 169 169 151 168 173 191 191 190 189 189 189 188 189 188 190 190 190 188 192 201 197 180 154 138 132 140 160 185 203 190 159 140 129 106 84 73 67 60 56 52 46 42 42 42 41 40 41 43 46 52 56 60 66 79 94 117 133 146 160 168 175 178 177 175 164 101 88 120 146 141 138 137 139 141 142 147 156 144 142 140 137 118 99 125 164 167 172 166 159 153 145 134 118 105 96 91 87 85 85 85 90 94 99 105 116 126 138 146 154 160 170 152 132 94 115 132 129 121 124 128 131 132 129 126 139 147 151 138 131 126 127 115 90 106 143 184 179 180 182 180 180 179 179 181 179 175 175 175 180 182 179 180 182 179 179 180 182 182 184 182 183 181 182 182 181 183 182 183 180 179 180 181 180 
175 176 176 176 176 179 177 179 178 177 177 178 176 175 179 178 180 180 180 180 180 179 179 181 182 181 180 181 180 179 179 179 174 168 170 172 168 166 173 177 180 175 173 175 177 179 182 185 185 138 155 167 172 164 173 182 174 174 174 176 173 172 165 166 171 169 168 172 169 162 156 152 161 160 154 155 174 173 167 164 165 170 175 166 168 150 167 165 186 185 190 190 188 188 190 193 194 196 194 196 201 188 134 92 80 90 98 103 97 88 81 97 147 199 185 145 133 114 94 79 72 69 65 61 58 56 55 54 55 58 60 62 65 66 71 78 95 114 132 146 155 161 166 173 172 177 157 91 102 141 135 132 140 143 157 147 149 145 148 147 146 145 140 143 154 144 108 109 164 167 173 170 159 151 142 135 131 123 114 113 111 111 114 118 126 131 132 137 145 149 157 167 171 157 131 99 110 131 131 129 118 127 131 133 132 129 125 117 133 148 131 125 127 127 127 115 88 106 158 183 180 178 182 183 182 183 182 179 183 182 181 176 178 180 180 181 181 182 183 182 178 179 182 181 180 182 185 183 183 182 181 181 181 181 181 182 
176 175 176 175 175 175 174 172 176 179 178 177 177 178 178 178 177 176 179 179 178 178 181 182 184 183 183 180 178 177 178 179 179 180 179 178 175 176 177 180 180 181 181 179 182 183 181 181 179 136 158 172 181 182 178 167 173 174 172 177 172 170 163 170 162 162 166 164 162 158 161 168 173 166 161 154 154 162 168 165 165 165 167 163 166 153 165 159 190 187 187 187 188 186 182 185 185 187 192 190 135 87 94 120 137 140 141 141 144 142 137 113 87 92 155 186 150 133 121 102 88 81 76 72 69 68 67 68 69 71 70 72 75 79 87 101 117 132 144 157 167 172 174 172 177 152 89 113 137 137 139 136 141 148 153 144 147 144 149 151 148 142 145 149 145 146 149 124 107 157 161 175 170 162 156 150 143 139 136 132 137 141 138 137 139 143 146 149 152 152 158 170 171 134 105 101 129 126 124 114 123 131 133 142 128 124 129 111 110 125 142 127 124 125 126 128 111 92 113 170 179 175 180 183 182 179 179 183 184 181 182 181 182 182 181 181 179 178 181 180 179 181 180 178 179 179 180 181 181 182 180 181 180 181 180 178 
177 177 176 177 177 179 178 176 177 179 179 179 179 179 179 181 180 181 181 179 177 180 179 175 177 178 177 179 181 180 180 180 183 185 183 185 185 185 185 183 185 184 184 184 183 183 180 177 163 132 160 175 177 186 189 172 177 175 175 174 173 168 167 169 171 163 164 174 190 175 171 174 178 170 169 168 160 166 168 167 167 168 167 169 171 154 162 153 191 192 190 189 190 190 188 189 186 193 173 99 92 126 140 141 138 133 126 129 133 138 143 143 146 124 83 114 178 158 143 135 122 111 99 90 84 82 80 79 80 82 85 88 94 103 111 123 131 138 148 160 172 177 178 172 157 89 116 143 138 138 138 141 142 137 135 148 148 144 150 146 148 150 145 147 145 136 146 151 128 105 155 161 173 168 166 162 161 160 156 153 148 146 149 151 151 151 154 160 163 166 171 178 144 115 95 120 126 128 124 115 130 125 128 137 136 136 135 131 116 104 107 130 126 120 129 131 128 102 94 130 184 185 183 182 181 180 181 181 181 180 181 180 181 181 180 181 182 184 184 181 180 179 177 178 180 182 181 178 179 181 180 179 181 182 182 182 
176 177 177 175 175 177 177 178 179 175 174 180 179 178 178 180 180 180 180 182 180 180 179 179 176 175 176 176 179 180 181 179 180 180 182 183 183 186 187 185 183 183 181 179 179 180 180 182 162 135 163 179 168 160 168 176 176 176 176 177 171 166 172 169 171 166 167 172 180 173 176 172 171 166 165 168 166 168 167 166 164 173 177 184 176 159 161 148 184 187 186 187 189 189 190 189 191 156 86 114 145 140 138 137 132 136 146 141 138 143 142 135 137 146 139 94 97 171 151 147 141 136 129 119 113 107 105 104 105 106 112 116 124 135 142 148 154 157 161 165 169 179 166 167 98 112 140 141 141 147 146 146 147 143 145 147 149 157 157 157 148 145 147 140 137 150 144 148 157 126 109 155 167 175 169 168 167 161 158 158 159 161 160 163 164 164 168 171 173 171 173 168 121 98 109 123 136 124 124 129 138 133 128 130 143 132 143 138 121 108 107 108 139 152 146 125 127 120 91 98 157 184 181 184 186 185 182 182 183 183 183 182 182 180 180 180 179 181 182 182 183 182 183 181 180 180 182 180 181 180 180 182 185 182 180 183 
176 176 177 176 174 173 175 177 178 177 175 177 177 179 179 179 179 179 180 180 179 180 182 180 180 179 180 178 177 177 177 178 181 178 180 179 183 184 184 186 181 182 180 179 176 173 175 178 151 135 167 182 171 164 165 171 175 174 176 174 172 175 175 175 176 166 165 164 178 180 174 168 170 178 170 168 169 169 166 162 163 172 178 184 172 157 156 142 183 189 191 190 188 188 187 189 153 87 127 139 138 142 138 143 146 141 129 138 140 143 146 142 138 136 132 137 107 96 171 150 155 149 140 135 131 133 130 129 130 131 137 140 145 149 155 159 164 168 173 176 178 170 162 112 106 144 141 138 141 148 140 145 146 145 142 150 183 210 213 208 202 177 159 148 144 146 146 152 144 145 119 125 155 176 177 169 168 168 162 163 164 162 163 165 167 168 167 168 165 169 177 141 113 93 116 117 118 118 121 123 123 119 129 128 123 117 120 133 127 120 118 111 104 133 133 124 128 120 113 91 113 184 184 184 186 185 183 183 182 182 183 183 183 181 181 183 181 181 182 184 184 184 184 185 185 182 184 182 181 178 181 181 180 182 183 183 
175 172 172 175 178 178 177 178 177 177 178 177 177 179 177 178 179 179 182 182 178 178 179 180 182 183 182 179 180 180 180 180 180 179 173 171 175 177 176 176 180 183 184 184 185 185 182 177 142 137 173 182 182 181 177 179 176 176 179 181 176 177 173 175 175 172 165 157 170 174 165 171 172 179 185 172 170 169 171 166 163 161 164 170 172 157 158 138 181 188 187 187 190 191 189 155 88 130 142 134 136 143 142 141 133 139 136 135 138 142 150 143 135 134 138 121 149 112 107 167 157 153 141 135 130 133 135 135 139 146 152 155 157 157 156 158 162 167 172 177 177 155 134 98 138 137 140 145 138 141 145 146 144 142 148 172 173 170 157 150 164 187 180 152 148 143 150 151 145 141 145 107 144 158 180 176 174 173 175 177 176 175 171 166 168 171 173 174 175 173 165 119 98 106 130 108 111 121 120 117 124 123 120 122 134 134 119 114 126 129 121 115 109 106 119 122 124 135 120 98 89 151 185 181 184 184 185 185 186 184 184 184 184 185 185 184 182 183 183 184 187 187 186 185 185 186 184 185 185 182 182 183 185 183 182 182 
172 171 168 164 164 166 160 160 164 173 175 177 177 180 178 175 175 177 180 177 175 176 175 177 181 182 182 178 180 179 177 175 180 181 183 183 180 181 180 180 181 181 183 181 182 183 182 178 134 138 177 181 178 186 181 183 178 181 186 178 174 185 181 173 168 171 172 164 160 161 170 178 179 179 179 171 170 170 172 167 164 167 168 170 169 157 158 132 173 184 183 182 182 178 158 85 120 139 137 140 132 140 141 136 137 141 144 143 148 143 136 142 132 126 129 116 146 139 100 124 161 166 167 162 156 155 154 155 155 158 162 165 168 167 168 165 163 168 171 175 164 147 99 127 137 142 148 147 146 147 147 147 144 154 188 176 147 139 143 143 147 154 155 158 149 144 149 144 143 146 149 132 114 150 163 179 179 174 173 175 176 176 177 178 180 175 175 174 174 179 146 116 88 126 118 125 130 118 124 136 131 118 124 126 134 140 132 125 117 128 121 120 114 107 112 121 148 159 121 117 88 113 186 185 187 186 187 187 188 186 184 185 185 187 189 187 185 183 181 176 177 178 176 179 182 183 182 183 185 185 184 182 180 183 182 181 
170 172 173 174 175 174 171 167 163 161 164 167 171 171 172 172 173 173 173 173 171 172 173 176 177 180 181 181 180 180 178 178 182 179 179 180 178 178 177 174 174 171 171 171 172 175 174 168 129 139 180 179 172 174 181 183 177 168 175 174 176 170 180 181 168 169 173 169 157 172 169 177 172 162 162 169 167 167 170 168 163 159 167 157 160 157 158 126 166 182 181 184 185 160 99 110 139 127 134 140 140 143 142 144 147 150 144 141 146 146 141 138 131 126 110 121 130 138 133 97 152 160 173 170 170 167 165 165 167 167 169 171 174 176 174 177 180 181 180 176 150 122 114 141 145 146 147 148 151 149 148 147 160 204 179 151 142 136 138 139 137 137 140 153 158 148 142 139 147 151 148 144 122 134 149 176 177 177 178 176 176 176 178 176 176 175 174 177 179 178 127 106 97 127 132 138 128 125 112 122 133 118 116 126 121 125 131 121 120 131 121 117 117 106 102 137 147 109 120 118 97 93 167 184 181 180 183 184 183 186 187 187 184 185 185 183 183 182 183 183 182 179 179 180 180 181 181 182 181 182 180 183 185 182 181 180 
169 172 171 168 167 168 171 177 178 173 170 170 169 168 170 172 172 176 176 175 177 175 174 173 171 171 172 172 178 179 178 178 177 174 173 175 177 178 178 174 174 177 179 179 176 175 171 165 124 140 188 184 187 178 176 177 176 174 171 172 172 175 173 166 163 162 171 174 162 158 170 164 160 162 167 170 165 164 169 168 166 161 160 167 166 158 156 121 170 185 185 186 167 122 99 136 133 136 134 142 145 150 148 145 145 148 145 142 141 144 141 142 142 140 120 123 131 130 130 122 107 156 160 166 163 160 161 160 160 163 161 162 167 173 172 173 176 178 179 170 146 104 137 143 148 149 142 146 151 152 150 154 194 168 145 140 139 139 136 140 142 143 157 152 159 156 149 147 148 149 147 145 143 117 147 160 181 181 180 178 175 174 174 173 171 173 174 170 174 158 116 92 112 119 128 121 115 126 123 116 125 119 117 130 116 115 117 121 123 134 131 121 120 141 145 128 117 109 123 130 107 86 140 186 181 181 180 179 181 180 182 182 184 180 182 184 184 184 182 181 182 180 178 177 173 172 175 179 178 179 177 178 181 181 180 180 
170 169 171 173 174 173 176 177 178 183 180 176 177 177 178 178 178 176 177 178 178 177 177 178 175 172 171 171 166 170 176 184 182 182 181 182 182 182 182 178 174 178 178 175 177 176 173 167 126 137 191 174 171 170 176 177 175 171 175 175 173 172 173 173 164 167 166 165 169 147 164 171 175 178 176 177 167 166 171 168 167 165 170 182 182 164 156 115 169 184 188 184 139 91 134 134 136 138 141 138 138 136 137 136 141 146 146 141 139 140 139 139 132 132 132 130 127 125 139 141 107 134 154 167 167 169 167 166 163 164 165 167 167 171 175 178 177 178 183 159 127 119 143 143 141 147 146 150 151 152 150 173 178 149 145 141 143 148 151 145 139 147 152 152 155 158 148 148 150 149 149 144 148 128 131 148 174 173 177 180 182 182 179 178 176 177 178 177 180 139 106 90 119 125 126 116 116 108 118 116 118 121 125 116 122 116 115 118 123 111 122 135 127 136 124 116 118 115 152 132 120 88 115 181 175 179 176 176 177 175 172 174 177 177 180 184 185 185 185 187 186 186 186 186 187 184 181 181 182 180 179 180 182 185 182 180 
175 176 176 173 173 177 178 175 175 176 178 181 180 177 177 174 173 175 175 178 180 181 178 176 175 177 177 175 178 179 179 182 182 182 183 182 183 183 183 183 183 180 181 181 177 179 177 166 127 131 193 171 173 179 186 178 175 176 174 174 173 172 174 177 168 170 170 164 156 155 156 171 169 165 177 186 170 170 170 167 166 168 169 171 173 169 154 112 172 182 187 161 117 107 140 137 141 134 136 134 130 137 139 142 143 144 144 140 137 155 166 153 136 131 131 140 129 134 152 136 134 104 146 173 176 177 176 176 178 178 179 176 175 178 180 179 180 181 171 146 111 138 143 143 142 146 148 150 151 152 157 176 153 143 142 141 142 153 161 154 153 160 148 147 151 155 152 146 149 150 148 153 151 143 118 142 164 179 175 176 180 179 180 180 177 175 176 175 175 119 102 93 123 129 125 119 123 118 118 118 119 115 119 122 128 118 112 115 112 123 123 126 134 120 126 135 123 154 167 129 124 98 96 167 175 174 174 177 177 178 175 175 176 172 167 168 174 179 180 181 184 183 182 182 181 181 181 181 183 184 182 182 183 181 182 181 
168 169 172 174 175 172 171 168 168 165 162 163 170 176 178 178 178 177 177 178 176 175 177 175 176 178 176 170 175 177 174 178 179 180 181 180 178 177 178 178 178 177 176 176 176 175 174 162 128 121 193 178 174 177 177 178 175 172 171 173 173 173 174 175 168 170 170 168 161 161 154 168 166 175 170 177 173 170 170 167 169 171 167 170 170 172 145 111 169 186 181 141 99 129 137 136 137 146 152 151 136 132 136 138 140 138 140 145 168 167 158 159 154 138 131 134 131 140 133 132 139 113 122 154 181 178 179 180 181 182 181 182 181 179 177 177 179 178 159 132 117 145 144 141 141 149 150 150 149 149 171 176 148 145 146 145 150 149 154 159 156 157 164 158 149 149 150 146 148 149 153 147 148 145 123 136 149 182 178 177 174 173 174 176 176 174 178 179 174 112 100 100 126 125 117 116 123 123 114 117 117 121 114 133 128 115 114 113 112 126 125 124 122 120 126 128 134 140 134 134 123 107 85 149 175 175 176 173 172 176 176 178 180 177 176 170 167 172 175 175 178 178 176 176 177 180 178 178 178 179 177 177 179 179 180 180 
174 172 173 176 173 175 176 175 176 177 178 179 177 174 172 175 176 176 176 175 174 178 178 176 178 178 176 177 180 180 177 174 171 172 173 174 174 177 178 179 178 176 171 174 178 174 172 162 132 111 190 183 176 176 178 176 180 175 175 173 172 172 169 173 168 165 168 172 172 169 164 156 168 173 163 167 170 166 164 167 166 163 162 169 168 175 131 112 171 183 161 122 103 142 140 136 133 137 132 134 149 153 149 142 151 166 177 176 146 130 130 126 130 144 132 131 153 133 133 143 137 133 107 139 176 177 178 180 178 178 179 180 181 184 185 183 183 177 149 112 133 139 150 147 143 150 150 151 151 150 153 141 146 148 148 148 152 148 151 152 152 151 153 161 157 153 147 144 148 152 145 150 152 142 136 125 142 173 177 178 175 174 173 171 173 177 173 171 161 107 96 106 127 123 118 111 121 118 115 113 116 116 122 137 125 123 123 114 109 112 124 120 123 127 126 119 128 105 115 136 121 113 86 134 179 176 177 176 174 175 176 177 179 178 178 177 176 175 177 179 174 174 177 175 176 178 178 178 178 178 178 176 175 176 177 179 
174 172 172 173 173 174 174 176 174 173 176 177 174 177 176 177 175 176 175 175 174 175 175 175 172 175 177 177 181 181 176 172 172 175 174 170 171 169 172 178 178 179 178 175 177 175 172 164 134 99 181 184 172 170 170 174 180 178 174 173 173 170 172 167 166 165 167 167 164 165 168 164 152 169 157 164 168 169 168 168 168 164 161 163 167 178 111 119 171 177 136 105 125 143 138 136 129 127 127 127 129 137 157 174 169 156 151 131 129 127 127 127 134 146 139 128 137 132 131 143 130 128 109 125 166 183 179 179 179 179 181 179 179 179 180 181 184 171 141 113 140 151 141 139 144 147 147 146 148 147 139 147 146 143 145 149 153 150 147 146 146 156 152 155 154 149 147 142 148 151 152 152 144 145 145 121 136 161 181 180 181 183 180 180 176 177 177 176 149 96 92 115 123 117 124 123 118 115 113 115 117 118 116 101 109 111 119 115 108 123 124 116 116 120 131 118 117 107 112 136 122 116 88 115 178 173 170 175 177 174 174 174 176 178 178 177 177 180 179 176 175 174 173 171 169 167 174 177 178 177 179 177 173 173 175 175 
172 173 174 176 175 176 175 177 175 176 177 178 179 179 179 178 178 180 178 177 177 175 177 175 173 170 173 176 174 174 172 174 174 178 178 179 180 179 175 175 172 174 175 174 175 175 174 165 136 89 168 190 172 174 179 173 177 178 172 172 172 170 170 166 165 169 166 164 165 167 171 171 154 161 188 181 173 166 168 168 167 174 173 167 165 175 92 130 173 164 120 104 132 133 138 143 133 128 130 131 128 127 122 117 135 137 133 133 135 130 132 132 126 135 137 135 129 141 137 122 135 141 120 109 147 182 177 180 181 179 180 182 185 184 182 183 183 162 131 123 139 146 140 143 145 143 145 145 146 147 135 145 152 144 148 148 152 148 144 150 150 147 152 157 152 148 147 142 148 152 151 147 150 151 147 128 132 149 182 181 184 183 181 181 180 180 178 178 144 97 94 115 114 117 112 114 116 117 115 114 116 125 122 124 112 114 118 117 114 127 118 110 119 116 123 123 114 111 111 133 118 114 86 98 171 175 173 172 175 174 173 172 173 176 176 178 177 176 174 176 177 174 173 174 175 172 172 169 167 169 169 167 173 169 163 160 
172 175 173 176 174 175 176 178 176 175 176 174 178 177 175 173 174 177 178 177 176 178 181 182 178 177 177 176 176 175 178 178 179 180 181 180 181 182 182 182 182 180 181 179 178 174 173 165 141 84 148 199 171 175 176 174 177 175 172 174 173 170 171 168 167 167 165 165 166 166 167 169 169 155 179 188 176 163 179 180 167 174 172 166 169 161 80 142 179 149 109 116 140 142 139 138 130 129 128 128 129 129 129 120 112 115 121 131 135 129 146 151 141 128 131 135 134 142 143 134 133 133 130 103 129 179 182 180 179 181 182 184 185 186 184 183 181 150 122 131 146 143 145 145 144 148 148 146 150 152 143 150 138 147 150 149 146 143 146 145 149 151 147 151 148 149 145 141 146 150 152 146 151 149 142 135 128 137 180 184 185 182 180 181 180 178 177 177 132 99 97 116 121 134 128 121 117 113 116 122 122 114 113 129 127 114 113 120 123 112 112 119 122 119 109 133 122 120 119 124 115 123 93 93 167 178 176 173 169 164 162 166 172 177 176 172 173 176 176 175 174 176 177 177 177 175 175 174 172 167 167 169 170 170 171 169 
174 177 176 175 172 171 170 173 178 173 175 175 169 171 170 164 161 161 165 167 171 172 173 173 174 176 177 177 176 176 177 177 178 177 179 179 178 178 178 180 179 177 177 174 173 174 171 161 136 84 122 203 175 173 175 174 174 181 172 170 171 170 173 174 169 167 167 165 169 165 168 170 170 158 167 168 155 168 166 170 169 161 162 163 177 130 83 156 180 129 102 125 145 142 139 132 129 129 127 133 132 128 128 129 122 122 122 131 134 130 130 130 138 150 145 136 135 133 140 133 127 130 132 111 114 165 183 181 181 181 178 181 185 185 185 184 173 138 121 142 147 153 148 143 145 150 150 146 151 156 143 140 144 150 149 149 148 144 151 153 153 155 152 146 148 146 145 139 144 150 151 149 140 140 144 143 126 134 168 173 176 179 182 179 179 180 179 180 124 96 101 123 121 116 131 148 120 113 127 120 119 119 121 112 125 118 110 116 124 116 114 115 124 120 116 132 127 128 115 117 113 117 95 86 153 171 172 175 178 177 173 167 164 162 166 173 174 174 175 177 177 178 179 179 180 178 177 178 178 180 178 176 175 175 173 170 
167 165 169 172 171 171 173 173 172 173 175 175 172 174 173 170 171 173 170 168 172 173 173 173 176 176 176 177 176 178 179 173 168 170 170 170 172 172 172 174 175 173 174 175 172 172 168 161 144 95 93 192 182 173 174 178 175 173 172 171 171 170 169 169 168 168 167 166 166 166 167 170 169 159 150 158 162 171 169 171 170 163 163 167 182 91 93 160 171 116 106 137 140 137 154 149 133 128 130 130 130 132 129 130 128 130 138 129 133 136 134 128 132 138 148 141 136 131 134 131 137 135 136 121 104 148 181 180 180 180 182 181 172 176 179 180 161 135 122 143 139 137 142 146 148 149 148 145 162 154 153 166 159 151 148 149 148 138 141 147 150 150 154 147 148 144 138 139 145 150 150 149 146 150 146 140 127 133 160 177 178 179 179 181 179 180 177 175 118 96 98 120 123 111 117 110 115 135 126 121 106 108 119 113 119 120 117 119 124 125 121 112 127 116 125 118 122 134 105 108 114 115 98 84 151 172 172 175 177 179 181 182 181 180 177 177 179 176 174 177 177 177 176 175 177 177 176 179 178 175 174 174 175 174 176 180 
176 175 172 173 176 176 175 175 175 177 174 173 171 170 171 171 170 168 168 167 170 173 176 175 176 176 176 179 182 181 182 181 179 176 176 175 174 175 174 175 176 176 177 180 182 179 173 166 147 104 71 172 193 168 169 170 172 171 169 172 170 169 167 168 167 167 169 167 166 166 165 167 171 171 154 153 167 169 169 174 176 168 163 176 162 66 108 159 158 108 112 142 143 137 146 147 135 131 130 122 125 126 130 137 132 133 136 134 138 142 142 137 142 140 143 133 136 135 129 132 135 138 139 125 105 135 182 184 185 183 181 184 180 176 179 178 146 134 130 142 155 151 145 148 147 150 148 148 165 151 178 174 149 153 152 153 146 143 149 149 159 148 149 154 148 142 135 136 148 153 152 150 151 153 159 152 131 129 155 184 182 180 180 177 178 180 178 173 114 97 100 117 125 127 120 120 115 125 137 128 106 107 108 119 124 114 121 124 115 116 110 107 112 121 123 113 128 117 105 116 119 119 104 86 149 175 171 173 178 179 180 180 179 179 180 179 179 178 176 177 178 178 175 170 169 166 170 177 178 179 176 176 174 177 177 175 
174 173 171 169 169 171 173 172 171 174 175 175 175 174 173 175 175 176 176 175 171 171 175 177 173 176 176 178 180 178 175 171 172 176 176 176 179 179 176 178 179 179 177 177 176 175 174 166 150 114 65 131 207 170 170 167 169 178 172 170 170 170 169 166 169 169 167 166 167 168 168 168 171 171 171 169 169 173 173 168 175 168 166 187 119 65 129 167 150 101 118 139 145 142 134 132 132 135 130 130 149 150 137 140 134 137 135 135 136 139 140 145 145 144 130 128 142 146 134 137 146 144 133 129 108 121 175 178 179 181 183 183 184 182 181 181 140 132 139 147 139 149 145 148 150 153 150 157 161 164 182 156 152 155 153 150 144 145 149 143 148 150 149 159 157 139 138 146 149 151 151 150 155 166 155 151 140 130 145 177 172 175 180 182 180 178 178 171 111 94 97 117 119 124 139 137 154 132 114 109 118 116 110 111 110 120 116 106 104 104 112 122 112 120 119 123 121 93 111 113 114 119 106 86 142 171 172 174 175 176 177 176 178 177 176 179 179 178 177 176 178 180 178 180 176 176 172 172 174 172 172 176 176 174 174 176 
173 172 174 175 171 171 172 170 172 175 176 175 176 177 177 179 176 177 178 176 175 176 175 176 174 173 175 176 177 178 176 174 171 172 170 168 170 175 177 177 179 177 176 174 171 165 163 160 150 123 70 93 200 189 166 171 172 176 177 172 170 171 167 166 168 169 167 165 166 168 167 168 169 170 169 167 167 167 182 174 162 165 177 180 72 79 140 169 136 104 123 133 128 141 137 135 135 140 138 129 129 134 146 130 125 137 137 139 138 136 134 148 147 135 141 132 135 157 154 137 130 134 133 132 111 115 180 182 181 179 179 181 183 181 180 177 134 129 141 144 141 143 147 148 149 151 152 174 156 153 163 153 152 152 152 150 147 146 146 142 144 153 153 158 167 156 143 150 151 151 149 154 155 144 141 142 143 132 136 175 173 173 178 181 178 174 173 170 114 89 93 119 136 144 125 106 108 105 107 113 122 111 120 119 114 111 111 112 107 107 132 132 123 130 124 120 99 94 112 114 118 116 107 84 142 171 173 174 173 175 176 175 170 167 164 165 173 177 176 178 177 176 177 176 175 174 171 166 167 173 171 171 176 174 172 170 
164 168 171 172 171 176 173 170 169 170 173 174 176 174 173 175 172 174 177 176 175 176 177 176 178 176 175 176 178 179 179 179 181 179 177 176 171 169 166 167 168 174 178 178 178 178 175 166 156 134 87 63 159 210 169 172 178 164 176 171 167 170 170 167 167 165 167 166 168 167 166 166 168 169 170 169 167 171 167 176 173 167 196 135 53 103 149 168 125 103 128 139 141 133 132 136 143 138 135 127 122 120 132 137 131 131 134 135 145 135 134 141 134 133 136 138 131 133 142 141 140 147 135 131 118 106 171 182 181 183 182 183 182 181 179 172 130 129 142 145 144 144 148 150 150 150 149 156 143 135 149 154 150 150 149 147 150 146 147 139 144 153 156 153 164 179 152 150 152 150 149 166 163 156 160 159 147 135 131 175 177 173 174 177 175 174 167 160 112 83 91 115 150 145 117 108 107 117 115 123 120 108 118 123 128 118 111 109 118 127 140 111 127 130 123 114 100 106 113 112 116 115 107 86 140 171 171 174 173 172 175 177 178 177 176 171 171 174 176 175 177 175 176 173 173 177 178 178 177 176 174 172 173 172 171 170 
169 170 171 169 166 169 169 170 162 159 156 161 168 170 171 173 176 176 175 175 177 176 175 169 171 169 171 169 167 168 169 175 181 180 180 181 180 180 178 173 168 169 170 168 169 168 166 166 155 136 100 56 105 206 188 162 167 170 178 168 167 167 170 170 167 167 168 167 166 166 168 168 166 166 171 169 164 172 167 174 167 184 183 77 64 118 157 172 117 107 133 136 138 133 130 134 146 121 122 121 125 130 120 130 142 133 118 126 135 142 135 136 133 131 131 136 138 133 137 141 136 125 129 134 127 103 159 181 181 181 181 183 181 177 172 164 128 128 142 145 146 146 146 150 151 152 145 128 131 146 147 152 149 148 145 146 146 142 143 136 142 147 150 149 153 157 151 151 153 150 148 153 153 157 151 148 146 137 128 172 179 177 175 180 181 178 175 158 112 80 90 112 141 134 128 131 139 137 121 120 108 105 109 113 118 126 124 123 114 124 113 111 135 126 123 99 106 114 112 110 110 109 109 82 142 173 174 176 176 175 175 175 175 178 178 177 176 174 172 171 173 175 176 178 177 175 174 173 174 173 174 172 169 169 171 171 
170 167 165 166 169 169 171 175 175 177 176 172 168 170 174 179 180 179 179 179 179 180 177 171 172 173 173 174 175 174 172 173 173 176 180 179 180 181 180 179 177 178 179 179 173 170 172 171 162 147 117 70 64 160 215 168 166 171 171 166 172 167 170 174 170 168 169 167 166 166 166 166 168 165 168 172 168 171 172 166 172 197 128 51 86 135 164 170 110 108 140 140 141 135 131 132 141 146 139 124 123 130 132 133 138 133 126 126 128 138 137 140 138 133 134 138 134 133 140 140 132 128 129 131 126 101 152 176 174 178 178 178 177 177 176 158 126 130 145 145 147 150 148 150 151 152 153 143 146 161 151 149 148 146 145 145 144 149 142 137 136 142 145 146 149 151 150 150 152 149 151 151 149 152 155 153 145 137 128 163 171 172 174 177 177 179 176 167 118 73 93 107 126 124 132 128 114 120 129 119 112 114 107 101 108 118 130 113 113 118 110 131 120 123 113 100 114 120 117 109 117 112 110 79 143 174 177 182 183 182 183 183 180 179 177 177 176 175 176 175 172 176 175 175 176 179 182 181 178 178 179 179 177 173 171 171 
173 168 169 168 170 173 175 172 174 176 175 177 178 176 172 174 176 175 176 177 177 176 178 177 176 178 178 174 177 176 176 175 170 165 161 163 168 171 173 175 177 178 176 173 175 174 174 172 162 149 127 87 54 100 197 199 161 164 178 170 170 169 174 174 178 175 171 168 167 166 168 169 173 169 164 165 168 165 166 165 193 167 68 61 108 147 164 170 106 110 139 152 152 136 128 130 133 146 135 129 124 136 137 139 134 140 135 120 128 133 138 134 132 134 135 132 137 136 138 134 151 172 162 131 126 97 147 179 182 180 182 181 176 174 174 157 125 130 144 147 147 151 149 152 152 154 153 147 141 151 155 148 146 144 144 146 143 137 134 140 135 136 143 148 148 151 150 152 151 150 152 148 146 149 148 151 148 137 127 161 176 177 179 177 175 176 171 166 125 66 95 109 122 121 120 110 115 122 127 120 108 113 118 113 114 125 113 118 128 112 118 109 106 118 106 110 117 120 119 119 112 113 110 78 146 169 173 177 177 180 183 179 178 179 179 180 179 177 179 180 178 176 175 172 175 176 173 173 177 179 176 175 174 175 176 176 
168 171 173 174 173 174 174 172 174 175 174 175 177 177 174 167 167 168 169 166 166 170 175 177 179 180 179 178 179 177 176 178 177 175 171 167 164 167 170 171 169 168 170 167 166 166 168 169 168 156 134 102 63 58 137 219 184 163 160 173 176 166 171 169 171 179 173 171 169 178 169 163 165 168 166 171 162 171 166 190 189 97 49 84 128 157 159 156 100 113 138 142 128 123 133 128 116 116 130 134 135 126 126 126 132 134 134 132 125 122 132 133 138 134 132 129 137 140 129 131 139 141 145 137 130 95 144 181 181 178 179 179 181 181 179 153 123 131 143 147 148 149 150 152 151 150 151 148 157 165 155 152 148 146 144 145 144 141 146 153 145 126 132 144 147 148 148 151 153 151 153 153 150 149 151 150 147 137 124 152 174 180 180 177 178 176 167 163 129 66 92 107 116 113 124 114 113 116 125 134 117 111 122 117 112 108 107 115 127 118 115 110 119 119 104 115 117 119 119 126 122 111 103 78 151 170 170 171 170 171 172 177 178 180 178 177 177 178 181 180 179 180 179 179 178 175 173 171 167 172 176 175 174 173 172 170 
171 172 173 174 175 173 172 171 170 171 169 169 170 173 174 178 175 175 177 174 171 173 173 167 171 175 178 178 178 180 179 179 178 179 179 179 177 178 179 177 175 176 175 176 178 177 175 172 169 160 143 115 76 49 76 167 225 176 163 160 166 175 169 167 169 165 166 170 164 167 168 167 165 169 165 168 165 160 186 199 120 47 68 112 149 168 167 153 96 114 137 132 133 132 134 123 116 116 133 150 124 124 124 131 135 133 131 133 136 131 129 135 139 137 135 141 137 137 129 127 127 127 126 136 135 96 133 174 178 179 177 172 172 175 176 149 123 134 145 146 146 150 152 152 153 150 151 150 138 156 156 158 152 147 145 143 143 147 151 148 149 146 134 130 141 144 146 150 161 162 160 152 152 153 156 151 147 141 125 143 164 170 174 169 169 172 168 157 126 68 84 102 115 115 119 121 104 114 132 129 122 113 117 114 108 112 111 112 118 121 126 121 122 104 112 115 120 114 119 118 117 119 97 83 154 172 174 175 179 179 173 171 167 165 167 173 175 173 172 174 173 174 178 178 176 174 176 178 178 174 174 174 173 173 173 173 
167 167 167 169 172 173 173 175 173 172 173 173 171 169 169 172 173 174 176 177 178 178 176 173 173 168 168 171 172 174 176 177 179 180 180 178 179 178 175 174 175 175 175 178 180 180 180 177 173 165 152 131 94 61 45 93 184 232 182 166 163 170 167 166 168 168 175 165 162 171 169 166 169 164 167 167 163 186 198 133 55 56 91 132 158 170 170 155 94 117 131 132 134 137 139 128 135 128 119 124 134 137 140 143 139 124 122 130 133 135 131 130 137 135 140 138 134 132 129 132 131 135 152 136 131 95 127 159 162 166 170 174 173 171 171 138 118 134 144 146 146 149 153 152 153 153 153 151 162 164 153 154 149 146 145 142 142 150 151 150 151 151 154 143 128 136 138 148 159 153 156 166 165 165 158 159 148 142 123 147 171 171 170 170 165 166 167 162 142 75 78 100 113 114 117 123 105 112 131 106 107 108 110 116 107 100 108 112 107 120 133 127 112 109 118 119 129 122 118 116 116 122 84 88 157 172 172 171 171 171 174 177 179 176 169 164 163 169 167 164 167 166 169 176 175 173 175 176 178 176 175 175 175 174 173 173 
166 164 166 166 167 165 169 173 172 174 174 174 173 173 175 174 171 171 172 170 171 175 175 174 174 173 171 171 166 161 164 167 175 177 178 178 181 180 180 180 175 171 170 174 176 177 178 175 174 170 159 141 112 77 52 47 92 189 242 195 158 155 170 170 167 168 167 170 172 164 160 168 167 165 163 166 199 205 139 60 50 77 116 148 163 171 168 150 92 118 134 140 138 136 145 145 134 134 126 128 134 131 131 133 123 123 120 122 125 129 127 127 132 140 141 138 134 137 134 137 131 129 128 132 136 93 132 167 171 168 165 168 165 162 165 134 118 135 144 148 148 149 151 149 152 153 152 156 172 159 152 148 147 145 145 143 147 151 151 153 153 149 148 151 145 131 137 156 152 152 146 159 150 144 146 149 147 142 120 148 174 179 178 175 176 174 169 164 146 87 68 100 115 116 117 115 137 112 110 112 114 116 114 108 108 110 107 102 96 100 97 110 113 120 119 117 117 118 122 120 110 124 71 98 160 173 178 176 175 176 175 177 176 175 176 177 174 174 175 175 174 175 174 175 175 177 179 178 174 171 172 170 170 172 172 173 
169 174 174 171 170 172 173 175 176 175 175 176 175 176 173 171 172 173 174 175 174 174 173 175 176 174 172 173 175 176 176 175 174 175 176 176 176 177 179 179 177 175 177 177 176 176 175 175 173 169 162 149 132 99 68 47 43 97 179 241 217 169 153 158 166 162 161 164 162 167 165 169 160 164 180 216 204 132 60 47 69 101 137 160 171 174 169 154 91 117 134 148 150 133 129 137 139 129 130 126 126 127 127 124 131 128 125 125 132 128 132 139 135 133 136 132 133 132 132 138 128 130 128 134 134 89 133 170 175 177 176 176 176 173 165 132 118 138 147 148 149 152 151 149 153 153 152 143 149 147 145 143 145 144 141 143 151 151 151 153 154 149 152 150 149 152 153 161 162 163 151 151 153 150 152 145 148 144 118 147 173 176 180 179 179 179 176 169 150 94 59 95 111 118 116 115 127 122 102 114 124 114 115 110 117 111 107 99 93 94 93 94 107 113 117 116 120 118 121 119 122 116 65 115 162 173 179 180 181 181 181 179 177 178 176 174 173 173 173 176 175 174 171 167 170 173 176 172 172 173 170 169 169 171 170 172 
167 167 168 171 170 172 172 173 171 169 171 174 174 173 169 170 171 172 169 167 163 165 169 172 175 174 175 174 177 176 172 170 170 171 172 175 178 175 175 176 173 171 165 164 171 173 175 171 172 173 168 156 139 115 84 61 46 44 85 157 224 241 207 175 162 158 160 157 156 162 160 164 188 225 230 182 113 53 47 66 92 127 150 163 170 171 170 157 94 112 136 136 133 127 132 126 136 132 138 134 131 134 126 127 135 132 134 143 132 137 132 133 137 136 131 133 137 126 135 137 142 139 130 136 132 81 131 166 173 177 177 177 177 174 169 134 115 142 147 147 147 150 150 152 152 153 154 145 129 132 128 138 143 139 136 149 155 151 149 151 154 148 150 151 151 151 149 146 151 156 154 152 149 152 152 146 147 145 115 143 170 176 180 180 180 177 173 171 156 107 57 82 113 119 112 114 119 126 114 102 102 107 125 117 120 111 115 109 110 102 103 104 107 115 121 120 121 116 119 111 129 96 62 125 164 174 174 175 176 176 179 177 180 182 181 180 177 176 174 176 177 175 177 177 172 175 176 173 174 175 176 178 177 174 173 171 
172 169 169 171 174 170 170 168 169 169 168 170 172 171 172 174 174 172 174 174 170 168 166 165 170 172 174 174 175 176 173 167 168 165 166 170 170 174 172 171 169 172 172 168 163 162 160 168 172 170 171 163 149 132 105 74 60 47 44 68 122 176 224 244 235 215 203 197 189 197 218 233 230 197 145 82 45 48 64 86 118 142 159 168 170 165 156 148 92 107 137 131 137 139 130 128 125 138 129 131 140 131 130 133 127 131 123 133 134 136 134 138 135 131 128 140 135 123 135 134 135 138 132 139 131 77 134 164 169 171 173 175 174 170 167 137 108 147 146 145 149 150 149 151 150 151 155 153 146 142 135 129 133 130 144 159 154 150 149 149 151 148 153 152 154 154 154 155 154 152 147 153 158 154 149 149 150 144 112 147 169 172 173 171 171 173 173 167 156 122 65 57 102 118 116 111 108 113 118 112 112 126 116 117 119 111 110 111 107 110 111 111 110 117 124 123 123 120 114 118 128 73 69 135 163 171 176 178 177 176 177 176 176 176 178 177 179 180 179 179 179 178 177 176 176 176 176 176 174 175 177 175 173 173 173 173 
173 172 173 173 173 172 171 171 173 173 172 167 171 174 175 175 177 176 175 174 174 176 176 174 175 171 171 175 172 176 177 179 176 176 175 174 172 173 176 176 176 175 176 175 175 173 170 165 162 163 167 165 157 145 123 93 74 60 48 41 50 78 115 155 193 217 227 230 227 219 201 174 141 101 59 42 50 64 81 108 135 153 163 172 177 175 164 148 95 100 139 126 122 122 123 120 117 131 134 140 134 127 131 128 132 131 122 120 145 139 135 130 131 129 133 134 137 133 135 132 127 127 133 145 123 71 129 155 166 171 171 161 162 168 165 135 97 147 144 145 158 154 160 162 157 167 164 168 167 152 153 145 136 140 163 160 153 149 147 149 150 150 152 154 156 155 163 168 153 147 148 152 152 152 155 149 149 145 105 150 170 177 178 176 174 174 174 173 163 131 77 43 87 115 116 109 102 112 132 114 102 106 116 113 106 107 112 108 102 110 117 113 116 121 124 122 122 121 117 135 112 57 85 142 162 169 171 176 176 178 177 176 175 175 175 175 177 179 178 177 177 174 170 167 168 169 171 173 172 172 172 175 178 175 176 175 
166 167 169 170 171 172 173 172 171 173 173 175 174 174 173 173 175 175 176 176 174 175 176 176 177 174 172 173 174 170 172 174 176 174 173 175 176 175 174 177 177 180 180 177 176 177 177 175 172 167 162 156 148 140 130 110 88 74 65 52 43 44 49 61 81 108 126 132 131 116 98 78 55 43 45 55 67 81 105 132 144 149 159 167 173 174 167 153 105 86 143 133 126 132 122 124 124 119 135 130 128 130 133 128 133 130 125 139 132 136 133 140 139 135 134 131 120 128 136 138 140 129 135 144 113 76 144 162 162 157 164 171 162 156 155 134 89 149 145 148 148 147 146 143 148 148 152 156 153 153 154 161 145 155 170 159 150 144 146 150 149 151 151 155 154 152 155 146 147 148 149 149 145 144 146 150 148 147 101 151 169 172 176 178 175 175 172 167 158 134 88 45 57 103 125 113 108 107 115 116 107 112 111 115 103 105 114 104 106 108 111 113 111 117 118 115 110 122 125 140 84 50 101 147 163 170 174 175 174 174 177 177 176 175 175 175 174 175 174 175 174 175 174 169 172 174 174 174 175 175 175 171 172 172 169 170 
171 160 156 152 156 161 169 172 174 174 173 173 173 172 174 171 169 168 171 171 169 171 172 172 171 173 175 171 170 165 167 173 169 170 170 166 166 171 176 177 176 173 175 176 177 177 178 179 177 174 171 169 166 156 149 137 113 91 77 68 58 50 44 39 41 45 49 52 52 47 41 38 42 50 60 69 81 100 126 147 158 157 156 161 164 170 167 154 112 77 142 134 132 139 139 126 122 124 120 122 130 135 126 139 129 134 147 134 128 134 133 133 135 137 134 124 121 146 133 144 147 135 132 149 92 84 151 167 175 177 177 173 169 166 159 131 83 141 146 147 152 151 143 145 147 148 152 153 153 153 148 147 144 165 175 154 147 145 145 149 149 151 152 156 153 156 166 160 155 152 149 148 151 150 150 152 147 138 98 155 169 174 177 176 176 177 175 170 164 145 105 60 39 82 119 120 109 113 120 113 114 108 108 115 112 109 107 108 106 108 108 111 109 114 115 117 117 117 148 116 59 60 110 147 159 165 169 172 176 178 175 175 178 180 174 172 176 175 173 171 171 172 174 175 176 178 180 179 177 175 175 172 171 169 170 171 
171 172 172 173 173 171 168 168 164 164 167 168 170 169 172 172 172 169 170 173 171 172 174 174 173 169 172 173 171 174 173 175 176 172 171 173 169 161 160 168 168 171 174 175 175 174 175 176 175 175 176 172 168 162 157 150 135 118 97 84 74 67 59 51 47 46 41 41 42 43 47 52 58 66 75 87 105 126 141 156 164 168 165 165 170 171 169 159 122 68 132 137 128 131 124 117 120 121 116 123 133 131 126 129 137 145 137 135 141 131 129 128 135 138 134 119 135 136 131 127 130 132 141 144 69 99 159 175 179 178 177 175 174 171 165 140 83 125 150 147 150 154 143 157 146 147 152 157 156 152 151 151 144 170 168 149 145 144 144 147 150 154 152 151 160 178 159 157 149 146 145 149 154 153 152 153 147 128 99 158 172 174 174 176 173 173 173 171 168 156 123 79 45 49 100 121 112 112 116 119 121 113 107 103 109 112 119 114 111 109 117 116 119 136 127 118 119 131 142 83 47 80 124 151 161 160 160 156 157 159 161 167 170 172 175 176 176 177 179 179 175 174 175 172 170 167 170 174 172 171 169 166 174 173 174 172 
170 172 173 170 170 171 168 167 170 169 166 168 169 171 173 173 172 174 173 174 174 173 173 172 171 173 173 175 174 172 170 172 172 171 172 172 174 173 171 170 170 167 170 172 173 174 174 173 173 172 170 170 168 163 157 154 144 137 126 109 94 82 74 67 64 62 60 61 61 65 67 70 75 82 97 115 133 143 151 161 167 170 172 169 172 175 172 162 138 73 110 149 128 125 135 138 131 126 127 131 139 127 125 130 135 129 135 132 127 133 136 138 142 138 132 127 135 130 134 131 125 129 148 124 57 112 160 175 179 180 180 179 174 171 165 145 91 106 157 144 148 147 147 148 145 147 144 147 146 146 141 142 147 169 157 144 145 146 146 148 156 155 154 151 167 158 153 158 155 152 149 150 157 158 155 153 151 112 99 158 171 173 170 173 172 173 175 173 169 160 143 104 63 39 63 110 127 105 112 113 116 117 115 112 116 108 105 109 108 110 113 113 117 117 110 114 120 155 102 57 56 99 137 158 167 169 173 173 172 173 171 168 164 165 164 162 164 169 175 180 180 181 181 180 179 174 168 167 166 175 176 174 175 175 175 173 
175 175 173 173 174 174 173 174 175 176 173 170 170 171 174 176 177 177 176 174 175 175 172 171 171 172 172 171 171 170 170 171 174 177 177 177 177 177 176 175 176 175 173 173 172 174 174 174 172 172 173 173 173 173 172 167 159 151 142 130 118 105 89 81 77 75 76 77 76 79 80 86 94 109 125 138 148 154 157 161 164 167 169 172 174 174 171 162 144 85 82 151 134 126 141 153 142 138 127 127 132 133 131 133 125 127 130 124 116 121 126 138 135 131 119 133 134 136 143 132 130 138 159 95 59 127 165 174 177 179 178 178 175 171 165 149 102 86 162 146 147 148 149 146 150 148 150 152 151 149 148 147 147 160 147 143 144 146 145 151 156 154 154 150 150 150 154 153 155 151 151 151 150 153 153 152 154 93 107 157 168 171 171 171 173 176 175 173 173 163 147 121 82 50 38 75 124 130 108 112 116 112 111 109 107 110 117 114 112 117 117 116 114 118 114 111 161 121 65 42 70 114 147 161 171 175 174 175 176 176 176 177 176 178 178 175 173 172 170 171 172 173 174 176 177 178 179 178 176 172 175 179 174 175 174 173 
173 171 172 175 175 174 175 173 172 174 174 170 171 172 167 157 159 168 171 174 175 175 175 173 173 170 169 172 172 174 174 176 177 178 178 178 178 179 177 176 175 175 175 172 172 174 174 171 170 169 173 177 176 175 173 173 169 164 159 149 139 130 120 107 101 95 91 91 94 95 102 111 120 133 144 153 158 161 163 165 166 168 169 171 172 170 168 159 135 88 63 141 152 124 123 130 125 124 130 136 121 129 126 123 124 116 116 112 119 127 120 134 137 121 125 139 135 132 130 132 131 149 146 69 71 126 157 167 173 174 173 175 172 167 161 147 109 69 151 148 143 153 153 144 151 148 150 153 152 152 149 143 145 154 143 142 144 145 148 155 156 157 154 148 148 147 152 150 150 154 157 152 151 151 151 150 145 79 116 158 173 176 174 175 174 175 174 169 169 166 155 138 106 66 44 40 81 132 130 108 111 112 108 102 104 121 116 117 117 116 109 124 115 113 114 157 131 72 44 56 91 128 154 165 170 171 175 179 179 179 178 175 173 176 177 178 173 175 177 169 166 168 172 176 178 175 174 174 176 176 175 176 174 174 175 177 
172 170 171 171 173 173 170 171 173 174 174 173 170 172 172 171 162 159 158 163 170 171 175 176 176 175 174 173 174 175 177 178 178 178 178 179 178 180 178 180 180 179 179 177 176 176 177 175 176 176 172 176 177 175 174 170 168 166 163 158 154 149 143 137 129 126 123 125 124 127 131 135 141 149 156 162 164 167 168 168 171 170 170 172 171 169 167 161 145 107 59 103 164 136 124 124 130 127 129 134 128 118 122 128 130 120 111 122 129 117 124 124 119 120 131 130 136 135 130 133 137 160 111 50 92 141 157 153 154 156 159 164 166 172 170 154 120 65 122 152 140 152 156 147 147 148 151 152 149 150 151 143 144 149 143 143 143 147 154 156 155 158 159 151 147 146 150 147 151 159 159 155 150 153 150 152 129 74 122 158 171 175 176 172 170 170 171 170 161 156 154 144 121 85 56 41 40 79 121 138 113 105 107 104 102 101 106 108 108 112 115 112 104 116 161 131 71 44 49 76 112 140 158 169 173 174 175 177 178 178 178 177 175 177 178 179 178 178 176 173 171 167 166 168 169 170 172 171 168 169 170 167 175 173 173 179 
169 169 169 171 171 171 169 167 168 169 172 172 168 169 169 169 171 172 172 170 168 169 170 171 173 174 174 174 176 179 177 176 176 173 174 173 175 175 178 179 181 179 176 168 168 172 176 175 177 176 177 175 174 172 169 169 170 167 166 164 162 160 158 155 151 146 143 141 140 141 145 147 151 157 158 162 168 171 170 169 171 170 172 173 175 175 171 163 151 119 72 68 153 150 123 130 128 125 135 120 118 117 126 127 134 133 129 134 130 119 121 110 123 136 134 136 136 134 137 137 152 155 79 57 111 153 170 173 172 170 166 165 166 168 168 160 132 72 87 156 140 143 147 146 143 148 151 151 152 148 149 146 143 146 142 142 147 149 155 155 156 159 158 154 149 148 147 150 153 151 160 155 153 150 154 162 103 79 132 160 168 170 171 172 164 162 166 167 170 167 161 155 143 108 75 54 38 39 76 112 135 123 106 103 107 101 104 107 108 108 111 111 138 169 121 71 42 46 69 98 131 153 161 165 168 168 171 173 173 174 173 174 172 169 171 170 169 174 176 176 176 174 176 172 171 169 172 174 175 175 173 171 174 172 174 177 
169 171 170 168 170 173 172 169 163 162 164 165 168 168 169 171 171 170 171 169 167 164 164 171 171 170 169 172 173 175 173 171 173 173 172 173 167 171 175 176 173 179 182 179 174 169 169 174 176 176 176 177 176 175 175 174 177 173 171 168 167 167 163 161 160 159 157 158 154 147 148 154 159 162 162 158 154 159 169 172 173 173 174 175 172 167 169 167 157 128 89 54 113 166 134 129 127 128 125 119 128 135 132 134 124 130 131 123 124 133 117 124 132 120 127 138 138 131 130 140 171 129 54 77 130 158 169 171 170 171 174 173 168 164 161 152 131 82 62 148 150 142 147 149 148 148 151 149 149 149 150 150 159 155 155 158 155 157 159 157 158 159 157 153 150 150 149 155 155 151 152 148 153 150 163 156 73 94 138 159 164 165 166 167 170 176 177 175 175 171 170 164 153 134 98 70 51 38 37 61 94 125 142 140 129 117 112 115 116 124 144 165 152 99 64 38 42 64 88 120 143 155 162 166 170 171 170 166 168 170 171 172 172 164 164 168 170 171 172 172 177 174 174 176 177 180 176 172 173 174 175 175 173 172 172 173 
168 171 171 172 170 173 173 175 175 172 171 170 171 171 170 170 169 169 168 169 167 166 169 167 161 157 161 165 167 167 167 170 171 171 172 175 169 170 172 176 177 178 178 178 180 177 172 171 171 171 171 173 173 174 174 172 172 173 172 169 167 167 165 161 151 150 150 156 154 155 156 158 165 166 167 168 167 160 160 162 170 176 177 179 181 179 177 175 166 149 112 63 68 151 152 132 130 120 124 126 129 129 136 136 125 127 130 135 133 135 138 132 125 129 136 135 137 138 137 161 159 78 49 94 139 162 170 171 174 178 176 174 173 173 168 159 139 94 52 114 160 140 140 152 153 150 150 147 149 149 148 152 170 179 184 171 155 155 154 156 161 161 158 157 153 151 153 156 166 152 149 152 153 154 175 126 65 114 150 166 171 174 175 172 169 172 176 173 173 170 168 166 158 146 122 91 66 54 40 34 49 75 100 126 146 154 152 147 152 155 137 102 71 49 37 45 63 81 105 134 150 160 167 173 174 173 172 171 171 170 168 169 173 172 171 176 176 167 169 175 174 170 170 174 174 174 175 171 166 167 168 168 171 173 175 173 
166 164 164 167 167 167 170 170 173 174 174 176 175 174 174 172 171 171 168 168 173 174 174 174 173 172 170 166 160 154 155 155 152 155 160 164 166 164 159 159 160 164 170 172 174 177 173 171 163 159 162 165 168 168 171 172 173 174 171 163 160 162 161 160 162 165 165 161 159 162 162 164 167 172 178 179 177 177 172 168 169 174 177 179 178 177 175 170 166 155 125 80 48 103 169 141 135 130 127 130 126 125 129 121 123 125 128 130 130 136 130 133 139 137 140 133 127 135 148 175 110 46 66 112 145 162 169 171 173 173 172 173 173 171 169 161 147 111 61 71 159 147 144 159 151 155 149 145 150 149 147 153 162 157 157 152 155 157 156 155 160 160 157 159 152 151 154 154 148 152 149 150 151 163 169 83 74 123 154 169 176 178 179 181 180 178 176 176 173 172 173 174 165 154 138 117 90 73 57 41 34 36 44 57 68 76 82 84 80 71 61 46 35 37 49 64 80 102 123 142 155 161 166 168 169 171 174 175 174 172 174 173 171 171 174 172 169 171 170 169 169 169 168 169 171 170 171 171 170 171 174 172 175 174 174 170 
167 160 159 157 158 167 171 170 169 172 171 170 174 172 173 173 173 174 172 168 169 170 172 173 174 171 173 172 167 172 170 165 167 169 172 174 174 171 169 170 167 163 165 168 170 174 171 166 173 176 176 170 166 160 157 162 163 167 169 171 171 170 170 167 163 162 162 166 171 171 172 173 176 176 177 176 177 179 179 177 177 174 174 174 176 176 176 173 166 159 138 98 54 52 132 173 133 129 131 132 127 133 135 127 125 129 128 123 129 138 134 140 139 131 132 137 138 140 174 132 55 51 85 129 154 166 169 172 172 168 170 175 175 173 170 162 152 125 78 49 124 163 145 145 149 145 149 150 153 152 143 152 157 158 157 154 153 155 155 156 160 163 157 138 137 153 157 156 150 153 149 150 153 185 131 61 87 131 157 168 174 177 178 181 180 180 180 177 176 175 175 171 168 160 149 135 114 94 77 65 50 40 36 34 35 38 42 42 39 37 36 37 44 56 67 80 101 126 143 151 160 164 165 169 171 171 174 172 170 172 173 174 175 173 172 171 165 166 171 167 165 166 169 169 172 173 175 176 173 170 167 167 171 173 173 174 
169 167 165 169 170 170 172 172 169 168 167 163 163 164 166 169 170 172 173 174 171 170 172 171 171 171 172 174 167 168 173 173 172 174 173 172 174 175 176 178 174 172 172 175 173 177 178 177 176 178 176 178 176 175 171 167 164 167 169 170 170 170 172 171 171 168 164 164 167 170 171 173 174 177 179 177 175 176 175 175 176 177 179 176 176 176 175 174 167 157 142 113 74 45 67 150 171 134 129 132 134 132 123 129 138 131 133 136 135 138 131 130 134 130 130 130 138 175 148 66 41 69 106 142 161 169 172 173 174 174 175 173 173 172 170 164 151 128 92 56 73 163 155 146 148 151 146 153 153 154 144 124 130 136 143 148 152 154 155 155 152 140 129 139 151 151 152 145 152 154 151 149 174 170 80 64 103 140 160 167 170 173 176 177 178 180 179 178 176 173 171 172 168 165 159 150 134 111 93 81 71 63 54 47 42 39 38 37 38 43 50 56 62 69 85 107 126 140 152 159 160 165 168 169 173 173 174 174 174 173 174 172 172 171 171 173 175 174 175 175 174 174 174 175 173 170 168 171 173 178 175 171 168 170 171 168 
171 171 171 170 170 170 172 171 166 164 166 166 166 169 164 161 164 168 172 175 174 173 173 168 165 161 163 172 175 175 175 176 176 176 173 173 175 176 176 174 174 173 174 174 175 176 177 174 174 174 176 176 177 174 176 175 173 173 171 171 174 175 175 175 172 171 171 170 165 164 162 166 171 174 175 177 178 178 179 178 180 179 179 179 176 177 179 177 175 167 155 132 95 63 44 81 162 176 131 124 130 132 135 134 133 129 131 132 127 132 134 134 141 130 129 140 178 152 74 41 56 80 114 145 162 166 172 174 174 171 170 170 172 172 170 166 156 139 105 69 47 116 172 144 142 147 143 152 154 153 152 142 126 119 116 116 121 120 122 123 127 132 147 154 153 149 149 144 151 155 151 159 191 120 57 79 118 150 165 170 172 174 172 172 176 179 178 175 174 176 177 176 171 165 161 155 145 134 119 104 87 79 73 69 65 61 59 57 60 63 66 70 79 95 112 130 143 153 161 166 169 166 165 168 169 167 167 173 174 170 172 175 176 174 171 170 170 173 174 173 174 173 174 176 176 176 174 170 172 171 172 173 173 175 173 172 
169 170 169 172 172 168 167 173 173 171 172 173 171 171 170 168 167 167 172 173 172 171 170 170 171 173 169 164 172 172 171 170 170 170 170 172 177 178 178 178 179 178 180 178 177 178 179 178 177 174 174 171 173 178 177 179 180 178 178 177 176 176 177 177 178 180 180 180 177 176 176 173 172 174 173 176 179 179 179 179 177 177 175 175 173 172 169 169 171 170 162 146 117 81 53 42 80 163 182 142 126 123 117 120 124 126 126 135 139 135 135 137 138 130 146 180 153 76 42 52 72 103 136 152 161 166 170 173 174 176 174 169 170 170 171 170 161 149 126 88 57 63 150 164 143 143 153 144 154 150 146 152 150 147 142 141 139 138 143 148 147 150 152 151 154 152 146 152 148 154 156 197 154 68 64 94 130 154 170 173 177 180 178 176 174 174 176 176 177 175 174 174 177 178 172 168 163 154 146 135 119 105 90 83 78 75 73 74 77 82 88 97 107 120 132 144 154 162 164 166 168 172 172 172 171 168 168 171 170 173 174 173 172 175 174 174 174 172 170 173 174 177 178 175 176 175 174 172 175 172 169 168 165 167 168 171 
173 172 170 169 173 173 174 175 173 172 173 174 174 174 174 176 173 172 171 174 175 174 170 171 175 175 173 173 170 172 174 173 176 175 172 171 166 168 175 179 178 177 178 180 178 179 178 178 176 176 174 173 176 177 178 179 177 178 178 177 178 175 177 176 177 177 177 177 176 178 181 179 175 172 174 177 174 176 177 178 178 177 175 176 178 177 173 171 169 167 162 151 131 103 71 49 41 78 155 193 161 134 124 124 125 123 123 121 123 129 129 132 142 173 182 141 75 41 50 70 94 124 149 161 168 168 166 166 169 167 172 175 173 170 169 166 163 157 140 108 72 51 88 173 162 139 145 159 151 147 162 154 150 147 145 146 146 148 149 146 145 148 159 168 155 148 151 152 144 148 189 184 90 54 79 113 142 154 160 166 173 177 179 180 179 178 179 176 174 178 179 175 175 172 170 170 167 161 158 155 144 137 126 114 101 98 96 98 105 112 118 125 136 145 148 151 156 160 164 166 166 167 168 169 172 169 172 175 175 176 178 175 174 176 175 175 176 175 176 176 174 174 172 171 172 171 172 173 175 173 169 169 172 175 174 175 
167 160 162 160 161 165 165 168 170 170 172 172 173 172 170 174 176 175 173 174 173 174 175 174 172 172 171 170 170 169 172 172 169 174 173 173 174 170 169 168 170 167 168 170 168 169 173 172 171 173 175 174 175 178 177 176 177 176 176 174 176 177 172 172 176 175 175 176 176 175 174 176 172 162 160 160 165 167 172 176 176 176 175 172 170 170 171 175 174 170 166 159 145 124 90 65 47 41 68 125 178 188 165 146 135 133 129 126 132 140 154 175 188 161 111 62 39 49 68 91 119 143 157 166 171 173 177 179 181 177 178 176 172 168 168 169 164 153 141 122 90 61 51 111 177 156 142 152 145 151 151 149 153 153 157 147 150 157 152 152 162 159 165 153 144 144 154 150 143 182 201 111 55 68 97 129 153 165 169 171 173 174 174 174 174 172 170 171 167 163 160 161 169 173 172 169 171 168 162 161 159 153 147 142 137 135 132 131 132 135 135 139 148 153 158 160 163 166 167 169 170 174 173 172 175 173 169 168 176 178 178 176 178 177 176 176 173 172 175 172 172 172 173 172 168 167 166 165 165 168 174 174 172 170 172 175 
166 165 168 170 167 164 161 161 168 168 167 165 169 170 171 170 171 172 173 174 172 173 172 174 174 174 174 173 173 172 171 176 176 176 177 179 178 178 175 177 173 171 169 163 166 166 169 171 175 175 174 174 175 173 172 173 175 175 177 176 175 178 175 173 171 166 167 166 170 176 178 177 177 176 176 173 170 167 161 163 170 175 176 173 168 164 162 162 158 157 164 160 149 136 111 84 66 49 39 51 85 133 172 189 192 185 182 181 181 185 178 153 112 74 47 40 50 65 83 112 138 151 161 168 171 172 173 176 177 177 176 169 169 170 167 165 162 155 142 131 109 77 54 57 128 180 158 143 140 154 150 152 156 150 153 151 169 164 158 161 167 152 144 152 144 147 147 145 180 212 130 58 57 84 114 144 163 168 174 178 176 174 178 179 178 179 179 178 176 173 170 165 164 171 174 172 170 167 167 165 164 162 159 156 154 150 151 149 150 149 148 149 148 153 157 161 169 171 173 172 173 173 175 174 174 175 174 174 173 173 173 173 173 173 174 175 176 177 176 173 169 170 173 172 174 174 174 172 172 173 177 178 176 175 175 174 
169 171 169 170 172 172 173 169 164 164 163 162 162 162 163 166 169 171 168 164 169 174 175 175 175 176 177 177 176 175 174 176 177 177 178 177 176 174 174 177 176 174 178 176 173 172 172 172 175 173 169 168 168 170 168 164 168 170 174 176 173 174 175 173 173 171 169 169 163 166 171 174 178 178 178 176 175 177 175 169 170 171 171 174 177 177 174 170 171 169 161 154 152 145 129 105 83 69 56 41 37 49 72 95 115 131 144 144 131 110 88 62 45 39 44 56 69 82 104 128 145 156 164 168 170 170 172 176 179 178 176 177 175 176 176 174 170 166 160 146 123 93 70 50 64 134 183 171 146 149 144 157 162 146 158 146 157 140 147 159 154 150 155 151 151 148 148 187 208 136 63 54 74 98 127 151 167 167 162 164 170 170 172 176 180 181 180 179 176 177 178 179 180 177 176 173 167 159 155 160 167 166 159 156 156 155 156 158 159 159 161 162 162 160 160 163 166 170 171 172 175 173 172 170 170 172 174 173 178 179 178 177 177 175 174 170 172 172 174 176 176 175 174 173 173 176 176 174 173 172 168 169 172 175 175 174 
169 170 169 168 165 163 168 172 172 171 169 168 166 165 160 161 161 159 165 163 161 161 164 167 171 173 173 168 169 167 168 169 170 175 176 176 175 172 170 171 169 175 177 178 176 173 172 169 169 174 175 173 172 175 175 174 172 170 174 175 172 173 174 175 174 174 174 174 174 173 173 172 170 175 178 179 177 177 176 176 171 173 176 176 176 179 180 177 177 175 167 156 156 155 148 134 110 85 73 60 45 38 35 39 45 50 53 54 49 43 41 41 43 51 62 72 86 109 132 149 157 161 160 164 169 165 161 161 168 174 175 175 176 176 173 174 171 162 156 152 136 112 87 66 50 67 133 189 191 149 140 148 149 143 158 152 161 153 151 157 166 155 164 148 136 151 201 205 134 66 52 70 91 118 143 158 168 171 171 170 169 171 170 171 174 177 176 177 176 175 175 175 178 177 175 174 177 175 172 171 166 164 162 161 163 161 160 163 164 164 165 164 167 167 164 161 162 163 163 167 169 171 171 172 172 170 164 164 165 165 166 171 171 175 174 174 175 171 175 175 174 174 172 174 175 174 175 175 173 173 173 173 171 173 172 171 
171 171 171 171 168 161 158 164 165 166 167 169 172 170 169 162 167 173 170 165 166 165 162 159 159 157 158 166 168 164 163 165 159 156 156 163 170 174 173 169 172 170 171 173 175 177 178 175 172 173 173 170 171 176 176 173 171 174 175 175 175 175 175 176 176 174 174 176 174 176 175 173 170 171 171 170 175 176 178 179 179 176 173 172 172 168 164 171 175 176 173 171 159 154 154 146 136 111 88 76 68 59 51 45 41 40 39 41 42 45 49 55 61 71 79 89 112 130 142 155 164 167 169 169 172 173 173 174 172 168 164 163 172 172 172 173 172 170 164 154 143 129 103 80 61 49 61 112 177 201 174 151 140 140 151 150 167 156 150 151 149 147 140 143 180 218 189 120 65 51 66 85 112 134 150 162 168 174 177 178 179 177 176 176 176 176 178 178 177 176 174 175 177 178 177 173 169 172 175 172 170 169 169 168 166 165 168 169 169 169 167 165 165 167 168 169 171 171 170 170 171 171 171 171 169 171 172 170 170 170 168 170 170 174 173 172 172 175 177 178 179 179 176 169 167 172 172 174 174 172 171 170 174 172 172 173 
166 166 169 173 173 171 171 169 171 171 171 173 176 174 173 170 168 167 168 168 170 174 175 177 177 174 168 170 171 170 169 171 173 170 169 166 161 164 170 176 176 171 169 168 174 173 174 175 173 172 173 172 171 167 169 170 167 170 174 178 177 174 172 171 170 173 176 175 175 177 176 176 177 177 179 177 173 172 175 176 176 174 174 173 174 172 167 169 171 174 174 174 174 171 164 156 148 136 117 97 83 75 71 67 63 61 61 61 63 64 69 73 78 85 98 115 131 144 152 157 164 167 172 177 178 178 176 175 174 176 175 172 172 171 172 171 170 170 164 158 149 137 116 93 77 62 48 51 89 145 189 200 187 163 155 146 143 141 143 138 151 172 195 213 201 153 96 57 52 65 81 105 130 148 158 163 167 170 169 169 173 176 178 179 178 177 177 181 181 178 176 177 179 175 175 179 176 175 174 175 174 173 173 172 171 167 164 162 164 166 167 167 163 163 164 168 170 173 175 175 173 174 174 176 175 174 175 174 172 170 166 163 168 172 178 180 179 176 175 173 170 171 173 174 175 174 172 174 173 173 174 174 176 176 175 175 
167 167 170 174 173 174 178 177 174 174 176 174 173 175 176 175 176 173 173 172 172 169 169 170 171 172 173 172 171 172 167 167 170 173 174 173 175 175 172 171 173 174 168 162 163 169 176 174 175 174 174 174 174 173 174 176 176 171 172 177 178 178 177 178 178 178 177 178 178 177 176 176 173 172 172 175 176 178 177 180 181 178 177 174 174 172 172 175 170 166 167 166 163 162 162 163 156 145 139 128 114 99 86 81 77 75 75 75 76 79 83 90 98 107 122 136 148 153 158 163 168 173 176 178 179 179 179 178 176 175 173 172 172 170 164 163 168 171 168 162 157 148 134 114 93 78 63 50 48 66 100 138 179 206 213 214 210 209 210 210 214 209 184 148 107 69 50 52 65 79 97 123 143 155 160 163 167 171 170 167 169 171 175 174 177 177 175 175 176 177 178 177 176 171 167 170 171 170 170 172 173 174 173 174 175 173 172 168 167 165 165 168 170 170 169 170 171 172 175 178 176 175 175 177 178 178 178 178 177 176 176 176 170 166 161 158 162 166 169 173 175 172 172 173 171 174 174 171 173 172 174 175 174 174 173 173 
167 168 172 172 174 173 172 174 174 174 174 172 173 174 174 174 175 174 171 171 173 168 170 167 169 169 168 171 164 166 167 162 170 171 170 172 176 175 175 176 173 175 172 172 170 173 177 178 178 178 179 179 177 178 177 178 179 174 166 162 162 164 166 172 176 178 177 176 177 176 174 174 173 175 172 171 176 172 173 174 176 176 175 176 175 176 177 178 176 171 169 168 166 163 162 163 163 155 150 146 139 130 115 103 97 90 89 91 93 97 106 116 123 133 143 150 154 157 160 164 165 168 168 168 172 172 173 174 174 178 181 182 182 180 178 176 172 170 166 159 156 152 145 131 110 92 79 65 53 46 49 60 77 100 125 147 163 168 162 150 132 110 89 66 51 47 55 67 79 94 118 137 148 158 163 169 170 174 177 180 179 177 178 174 175 176 175 174 174 176 177 175 176 175 174 172 175 175 177 175 175 176 174 174 175 174 175 176 173 173 175 175 176 175 173 173 175 172 172 174 176 175 175 176 180 179 180 180 178 178 179 181 180 179 176 172 168 170 171 170 170 172 172 171 168 168 174 172 172 170 168 168 169 174 175 173 
162 159 165 169 170 170 166 167 168 168 169 171 173 172 173 172 173 172 168 170 172 175 176 172 174 174 172 169 168 169 170 172 174 174 174 172 170 167 165 163 161 166 168 169 163 157 157 160 169 172 174 177 177 178 178 177 177 178 177 175 175 173 166 161 161 168 172 170 171 169 172 176 172 171 170 172 173 171 170 170 170 172 173 171 171 174 175 175 175 174 173 175 174 171 166 164 162 160 153 145 143 143 138 133 127 125 122 122 124 128 132 140 146 151 156 160 162 167 170 170 171 172 174 174 171 170 172 173 173 174 177 178 178 179 179 179 176 174 172 169 163 156 152 146 133 117 96 84 75 62 52 45 44 45 50 57 66 70 65 59 55 48 46 47 50 60 69 81 96 114 133 146 155 161 168 174 176 178 181 181 183 183 182 182 178 176 176 176 178 178 180 179 174 172 173 169 164 164 162 164 170 172 173 174 175 173 170 169 174 174 169 165 167 171 173 175 178 179 176 174 173 174 175 176 178 179 180 179 176 174 176 177 171 174 176 177 177 175 175 174 172 173 173 174 176 175 172 168 162 161 162 166 165 163 164 168 
165 167 169 169 168 169 168 163 160 164 169 171 169 170 170 172 171 169 171 170 169 167 170 169 169 170 171 171 170 169 170 168 167 169 168 166 167 167 169 168 168 167 169 171 173 173 171 168 167 165 169 172 175 174 175 176 178 174 174 173 176 180 179 177 177 172 170 169 167 165 170 175 170 170 173 176 177 173 171 171 172 167 168 173 172 171 172 172 177 178 178 180 178 180 178 177 170 166 165 161 156 151 146 143 144 144 144 145 143 144 148 151 154 160 164 167 165 164 171 173 176 177 175 174 175 174 176 174 174 172 167 169 173 177 179 178 175 176 174 172 172 167 161 156 147 134 117 101 89 80 74 65 56 51 47 45 44 41 41 41 44 45 52 59 66 74 82 97 114 129 139 148 157 164 169 167 170 174 176 179 179 178 179 177 177 179 177 176 178 176 177 179 178 176 178 178 178 176 173 167 167 164 164 164 168 172 176 176 175 175 173 170 158 158 163 170 174 177 174 168 168 167 168 167 164 163 163 164 171 174 175 174 167 173 176 175 174 175 174 173 174 168 168 173 168 168 166 165 167 168 168 171 172 171 167 165 
156 154 159 166 168 171 172 168 164 162 160 160 159 164 163 161 167 167 168 169 169 166 168 168 168 168 169 170 169 167 170 170 169 172 173 175 172 172 176 176 177 177 176 176 176 175 171 172 171 167 163 167 169 170 172 174 173 172 174 177 175 178 178 177 175 174 175 178 177 175 170 166 171 172 172 171 175 174 176 172 170 175 172 170 178 179 177 176 174 176 176 173 173 172 171 172 170 168 170 169 166 162 159 158 158 158 156 156 157 156 156 159 160 160 158 162 167 170 171 173 175 176 177 179 178 177 175 175 175 176 176 174 174 174 173 175 175 173 174 172 169 168 164 161 154 143 132 121 103 89 84 80 77 73 70 67 64 61 61 63 65 68 72 76 79 87 97 116 133 148 156 160 165 169 169 165 160 161 164 168 171 170 172 172 171 167 169 171 174 172 171 172 175 174 174 172 176 177 178 176 175 176 176 173 175 174 170 169 169 171 171 171 175 172 172 173 175 174 172 176 177 173 173 171 170 170 166 163 161 167 169 170 172 171 168 168 171 174 176 176 175 176 174 173 175 176 175 175 173 173 174 175 175 175 174 175 
167 168 166 163 163 162 167 170 169 164 166 168 167 167 168 166 169 170 168 166 168 171 169 170 169 166 168 171 170 170 168 166 171 167 168 170 174 174 173 174 175 174 175 176 176 176 174 171 174 176 177 174 172 172 172 174 173 171 171 172 172 174 174 175 176 174 167 169 168 168 170 173 176 177 172 169 170 173 176 175 173 174 175 172 169 172 177 178 175 173 170 168 170 170 168 165 168 172 174 173 173 173 171 170 169 169 165 164 168 167 168 168 174 175 172 170 169 172 177 177 177 177 179 180 181 180 180 176 177 178 178 179 178 179 179 177 175 176 175 173 170 168 165 164 161 154 146 137 125 112 98 92 87 83 81 80 80 79 77 77 77 79 83 89 96 106 121 135 148 160 166 170 174 174 177 180 181 179 173 168 162 169 174 171 176 173 171 175 176 177 175 173 171 167 164 167 173 175 176 179 178 177 178 177 174 175 175 175 173 173 170 173 177 176 179 175 173 173 172 173 180 180 182 180 179 180 179 177 174 172 173 172 176 176 173 173 174 175 175 177 176 173 174 174 176 176 176 174 174 176 176 177 177 177 176 178 
162 167 171 172 168 166 165 166 168 168 165 163 166 165 166 163 164 165 164 165 163 167 171 173 170 172 172 173 168 168 166 167 171 171 170 170 173 175 176 172 177 173 167 166 167 169 171 172 173 173 174 174 171 173 172 170 175 173 173 174 174 173 174 176 175 176 174 168 171 175 173 172 174 178 178 178 179 174 175 175 178 176 177 179 175 175 176 178 180 177 173 170 169 170 172 168 173 174 173 171 171 171 172 174 172 172 168 171 172 173 173 174 172 169 169 168 167 168 174 175 177 178 177 176 175 176 177 177 176 176 177 179 177 176 177 176 177 177 177 176 174 171 169 165 161 159 155 149 143 135 125 112 101 93 88 89 87 86 86 87 89 90 97 105 114 126 138 147 153 157 162 163 167 169 171 174 174 178 180 179 177 173 173 170 171 175 176 178 180 180 179 177 176 177 175 170 167 170 174 175 178 178 177 172 171 171 172 177 178 179 176 174 178 179 179 178 177 175 178 174 175 176 176 178 179 178 177 178 176 175 175 175 174 173 175 176 176 173 173 175 175 172 173 174 175 174 175 173 175 174 175 175 176 176 174 175 
163 167 169 168 169 169 163 162 163 165 167 166 162 163 166 167 167 167 169 167 168 171 171 171 167 169 169 170 171 170 168 169 170 171 174 176 174 173 173 171 172 173 172 170 170 172 172 173 173 169 169 169 169 164 163 162 161 165 167 169 172 172 167 166 167 169 169 171 171 171 174 171 169 170 170 171 173 172 169 174 172 176 178 178 177 174 173 177 181 179 178 179 180 175 176 178 177 178 178 176 171 165 157 155 158 166 170 172 174 169 168 169 171 172 171 169 164 155 155 160 164 172 175 175 170 168 168 168 168 172 176 174 174 170 167 170 170 173 176 175 172 167 163 158 157 156 153 153 150 147 143 137 128 121 116 113 111 111 112 112 114 116 122 125 130 138 147 154 161 166 167 166 167 166 163 167 166 171 173 174 176 176 177 178 179 175 172 162 161 165 172 177 178 181 179 178 175 170 171 176 180 179 178 175 177 180 176 176 178 179 179 182 180 179 178 176 176 176 175 176 173 172 173 174 173 174 176 174 170 172 173 173 176 173 171 171 172 174 174 175 174 173 171 168 170 174 174 173 175 175 176 174 173 171 168 169 
170 170 172 170 168 166 166 168 168 169 171 171 173 174 174 174 174 174 175 175 172 168 166 169 169 170 170 169 171 171 172 168 171 171 171 171 169 171 174 171 167 169 173 176 177 177 175 174 174 176 175 174 173 172 172 173 170 171 171 170 168 168 170 170 171 171 171 173 172 172 170 172 170 168 171 173 174 175 175 172 171 174 174 177 180 179 175 175 177 176 178 180 179 182 183 184 179 179 180 178 176 177 177 170 164 163 161 165 168 169 168 166 169 172 172 175 175 177 176 174 170 167 167 168 172 175 176 169 166 166 169 170 172 173 172 168 167 172 172 172 173 172 175 176 173 171 167 161 155 151 152 150 148 145 142 140 139 139 139 139 141 142 145 146 150 152 159 166 169 170 171 171 174 174 174 177 178 175 178 179 178 176 176 176 176 177 177 178 172 171 170 171 174 179 181 180 181 179 178 178 178 179 176 176 173 174 177 177 177 179 179 181 183 181 178 176 175 175 172 167 171 171 169 171 174 175 177 176 175 173 171 173 175 173 171 172 171 171 173 176 178 176 177 173 171 167 169 169 165 163 162 164 166 168 170 169 
171 170 169 167 167 169 168 169 168 170 171 171 169 165 166 171 172 171 171 173 170 173 173 172 169 172 170 166 168 169 170 171 169 171 171 170 169 162 162 165 167 165 168 174 174 174 173 174 173 174 172 173 174 173 175 176 172 165 167 172 173 173 174 175 176 175 174 174 173 176 175 174 172 170 172 172 171 171 170 170 168 171 175 176 178 177 175 171 171 177 178 178 178 179 180 181 180 177 176 178 177 175 174 175 177 175 174 179 176 176 176 175 175 173 172 176 179 179 179 178 180 181 178 174 172 174 173 168 168 164 162 169 173 175 176 177 176 174 175 177 176 176 176 176 178 176 174 171 166 164 162 160 157 156 153 152 153 148 149 150 152 152 152 155 158 161 160 163 169 170 173 173 174 176 176 176 177 179 181 178 177 176 178 178 175 176 177 178 178 178 179 179 178 177 176 176 176 179 180 177 177 179 179 179 174 173 173 174 174 175 174 172 173 176 176 175 173 172 173 174 171 169 171 171 172 171 172 174 175 177 178 177 175 175 174 175 174 173 171 171 175 177 175 176 174 174 173 172 170 170 172 173 173 176 176 171 
163 169 167 164 157 158 161 161 166 168 167 166 164 163 163 166 163 163 164 164 168 167 169 173 171 169 170 167 168 167 168 170 170 167 166 169 174 176 174 171 172 170 168 164 162 169 172 171 173 172 173 171 176 173 173 176 178 175 172 171 174 175 173 172 173 174 174 175 176 175 176 178 178 176 173 173 173 173 173 173 176 175 173 172 169 166 165 161 161 168 173 174 176 173 173 175 176 175 174 172 172 176 178 177 176 178 180 180 179 180 182 179 181 183 183 182 181 183 181 180 180 180 180 181 180 178 177 179 178 179 179 176 176 178 178 178 177 176 178 179 181 179 179 177 175 176 174 173 173 170 168 166 162 163 163 161 163 161 161 162 161 160 163 166 169 170 170 169 167 167 169 168 170 174 177 177 178 178 175 177 176 176 178 178 174 175 177 177 178 178 179 180 182 180 178 179 179 178 174 171 172 174 173 174 176 178 179 177 178 176 172 167 157 157 163 168 173 175 177 179 178 175 169 170 173 175 176 174 172 173 173 171 173 175 175 174 179 178 177 176 174 170 171 170 171 175 176 173 172 169 171 172 176 174 171 175 
169 168 165 166 167 163 161 167 168 169 170 163 163 166 166 165 163 166 170 174 169 165 166 168 172 172 170 169 168 165 166 168 170 168 170 170 169 170 173 173 172 172 174 173 172 171 165 164 169 168 170 172 173 170 172 176 176 172 169 168 159 163 163 163 166 173 173 173 176 176 175 175 177 178 176 178 178 178 177 177 176 178 179 179 177 175 174 171 165 162 160 159 159 161 164 165 166 171 175 174 174 177 178 173 172 175 180 180 180 181 182 181 179 180 180 177 176 177 175 174 173 173 176 183 185 181 179 178 178 178 178 177 175 175 177 177 180 182 182 181 180 182 182 178 175 176 175 170 171 169 167 169 171 169 168 165 163 164 167 168 168 168 169 168 166 168 170 173 174 172 171 171 170 172 176 177 173 176 175 171 172 175 174 173 175 174 174 172 173 174 178 181 181 182 183 181 179 179 178 177 177 176 174 172 172 172 174 177 176 175 176 178 175 172 171 168 171 176 176 174 172 173 175 175 173 174 173 175 175 174 173 169 168 172 175 175 175 176 174 174 172 168 166 165 158 156 162 163 168 172 174 175 174 172 168 164 
170 171 170 167 168 171 171 169 168 166 170 168 170 168 167 167 170 168 170 172 169 172 171 168 170 171 170 172 171 170 170 173 173 174 173 175 172 172 173 174 174 173 170 166 166 170 173 174 173 172 174 168 162 162 164 167 168 171 173 174 174 172 169 164 165 167 172 176 178 176 176 175 175 171 170 169 169 169 175 175 176 175 174 171 170 171 171 173 175 177 176 175 172 170 169 171 172 169 171 171 176 177 179 178 175 172 173 177 177 176 175 177 178 176 175 176 177 179 178 177 173 168 170 171 175 180 180 181 181 180 180 177 167 164 168 171 176 179 182 179 171 172 175 172 172 174 175 173 172 168 166 166 166 167 168 167 167 165 163 169 171 173 171 170 167 165 163 167 168 169 175 178 177 172 170 173 175 177 178 176 175 176 176 175 176 178 177 177 176 174 172 165 166 169 172 173 177 177 179 178 179 178 177 178 177 172 169 170 171 174 172 171 175 176 178 177 176 172 169 170 168 171 171 171 169 170 171 172 171 171 172 170 167 164 160 156 155 163 165 162 166 167 169 170 170 169 168 165 162 160 158 159 160 168 173 172 
171 169 169 173 169 169 174 172 170 170 167 168 171 170 170 172 172 172 172 172 172 172 172 168 170 169 169 168 169 172 174 174 175 178 175 173 173 170 170 172 172 174 172 171 167 166 164 171 172 171 173 175 170 166 163 162 164 170 173 176 179 180 177 175 173 171 164 161 167 170 171 173 175 173 175 178 177 178 178 177 176 177 175 176 177 177 176 173 174 175 177 175 173 174 176 173 173 172 171 170 171 173 173 175 179 172 167 168 172 172 170 171 172 172 175 177 174 175 177 178 179 180 173 169 170 176 178 179 178 175 180 184 181 182 179 175 174 175 175 177 176 173 172 173 172 171 173 174 174 172 173 171 169 166 169 171 171 173 174 172 172 172 170 171 173 176 175 171 166 163 156 156 167 175 178 180 179 177 176 177 178 177 178 178 177 179 179 179 180 181 180 176 173 169 168 164 163 164 167 170 175 176 176 178 172 172 169 168 169 173 173 172 174 174 173 171 170 173 175 172 173 173 173 168 169 172 174 172 171 173 172 172 171 172 170 167 167 166 168 172 169 169 169 169 169 172 172 169 172 173 171 171 168 166 165 168 
164 165 168 168 166 167 170 171 170 172 173 169 168 168 169 168 170 171 170 172 172 172 173 171 173 171 169 163 162 165 163 161 160 163 168 171 173 173 174 173 172 171 175 177 176 176 172 172 174 173 174 174 175 174 176 175 177 177 178 177 177 177 177 176 176 177 178 175 173 174 171 166 166 168 170 173 174 181 181 177 179 179 175 176 178 178 177 179 179 179 177 178 179 178 177 176 174 171 171 172 171 172 173 174 177 176 176 174 168 169 170 170 170 175 177 178 176 172 171 173 171 175 175 173 172 174 173 171 176 177 176 179 178 179 181 181 177 176 171 166 171 169 170 176 174 175 175 172 173 176 174 173 169 166 165 168 171 170 173 171 173 172 171 174 174 171 169 171 176 176 175 171 166 167 169 172 176 179 180 177 175 173 172 174 178 180 182 182 180 180 180 177 178 177 175 172 166 163 160 158 163 170 174 176 175 173 173 172 174 173 172 171 173 175 175 176 173 170 171 171 169 168 171 174 174 175 173 174 172 172 173 175 175 173 172 173 174 175 174 174 178 175 175 173 172 175 174 175 176 176 176 176 177 172 169 169 
167 167 171 171 170 168 167 166 168 168 166 169 171 170 171 170 164 168 167 168 170 171 170 172 173 173 173 174 175 172 171 168 170 170 168 165 170 172 171 170 170 168 171 172 176 175 174 173 174 173 174 176 175 174 173 172 167 167 168 169 174 172 169 171 171 167 165 167 172 172 173 172 176 178 175 173 169 165 169 174 177 178 176 177 173 172 174 176 180 182 182 180 180 182 183 181 183 179 176 178 177 179 175 174 175 176 176 175 175 175 174 174 174 175 174 173 175 174 170 173 173 175 175 175 175 174 175 175 176 176 178 176 174 172 176 179 179 181 182 182 178 176 174 175 174 176 174 174 174 175 176 174 173 170 163 158 156 162 169 175 175 174 175 175 173 172 171 173 175 178 178 178 178 178 175 171 166 162 164 170 174 177 172 168 167 162 163 169 173 176 178 177 177 174 171 175 175 175 173 168 167 169 169 166 171 176 176 170 171 174 176 177 179 178 178 177 177 176 174 174 174 172 172 176 171 170 170 169 168 171 171 172 172 171 172 174 173 169 170 172 174 173 174 174 175 174 173 173 174 176 177 177 175 175 176 176 
168 167 165 165 166 164 159 162 162 167 170 170 167 168 164 163 165 167 166 164 162 168 170 171 170 169 167 167 168 170 175 174 174 176 175 175 175 172 173 171 171 170 172 172 173 172 169 170 175 174 172 172 176 176 171 171 172 170 169 167 169 170 172 172 172 171 169 169 170 174 176 175 178 178 178 180 180 175 171 168 170 175 175 175 177 177 177 176 175 175 177 179 179 179 181 181 182 180 176 179 176 181 181 177 173 168 168 170 171 171 173 172 173 170 172 170 170 172 174 174 174 172 176 178 175 174 173 177 177 175 176 176 178 174 173 176 178 179 178 180 180 179 177 173 176 176 176 176 173 173 176 174 175 176 177 174 171 166 156 156 162 166 168 170 176 178 179 178 176 175 177 179 176 177 176 178 182 181 176 172 172 177 180 181 181 181 174 169 164 161 162 167 172 177 177 177 177 176 176 177 175 177 177 172 170 171 172 172 169 163 160 161 165 170 176 174 170 175 176 174 173 167 168 173 172 172 171 171 164 161 164 163 166 168 171 173 173 170 168 167 169 172 175 174 173 174 171 169 172 172 172 171 172 173 171 172 
168 167 166 163 160 162 163 163 158 153 158 161 166 163 165 168 172 170 169 168 169 169 167 165 169 171 172 173 173 173 172 169 172 175 176 176 175 173 174 176 172 172 172 171 172 172 170 174 175 173 172 174 173 173 172 169 172 174 175 178 174 172 171 171 170 173 175 177 176 172 174 173 173 173 173 173 177 179 180 179 175 174 174 174 178 177 176 177 174 169 167 171 166 172 173 175 176 176 177 171 168 169 171 178 177 175 176 175 176 176 175 175 174 171 169 170 173 172 174 173 176 173 175 178 176 175 173 171 178 179 177 176 176 176 177 177 178 178 174 174 175 174 175 175 174 173 175 175 174 173 175 175 175 175 175 176 178 177 176 176 175 173 173 172 175 179 179 178 178 176 176 177 178 179 178 178 177 179 182 181 179 181 180 180 182 181 181 181 182 177 174 173 176 177 177 175 176 178 177 177 178 177 177 177 174 174 172 175 179 178 177 174 165 159 156 166 171 169 172 176 170 171 170 170 170 171 174 175 174 170 166 163 160 162 168 169 172 171 171 170 171 166 167 164 163 167 167 163 168 170 172 171 173 172 174 173 
170 170 167 165 166 163 163 164 164 165 165 162 167 167 167 170 171 172 174 174 173 173 171 170 172 173 172 173 174 175 174 172 172 172 172 171 168 172 174 176 177 175 175 172 175 174 174 174 171 171 174 175 170 173 172 174 175 178 178 175 175 173 168 165 170 171 172 175 175 172 170 171 168 173 175 175 170 171 172 174 176 176 176 177 174 176 176 177 180 181 181 179 176 176 177 179 178 174 174 176 174 169 165 167 173 172 177 181 177 179 180 177 173 174 174 173 174 172 173 172 171 171 173 178 176 177 177 173 175 174 172 176 177 175 174 176 177 178 178 175 174 177 176 176 178 176 176 177 175 173 177 176 175 176 177 175 175 176 179 179 177 177 178 177 178 177 178 179 176 176 178 179 176 177 179 179 178 177 179 181 180 180 178 177 179 178 179 177 175 178 175 175 178 178 176 176 172 175 178 177 176 179 177 176 175 176 179 180 179 177 177 177 176 177 171 168 163 160 164 173 175 174 174 170 176 173 173 173 175 177 176 175 176 176 174 172 167 171 171 172 171 165 165 163 159 157 161 163 163 166 167 169 169 170 173 172 
