P2
40 40
255
186 186 187 188 187 186 183 182 186 183 183 188 186 186 184 183 188 188 187 187 187 188 188 187 187 189 190 189 189 190 189 189 191 190 189 188 187 187 187 188 
185 184 185 185 180 181 185 186 185 184 182 182 184 182 183 184 180 180 184 183 183 186 186 184 185 185 183 184 185 185 185 186 187 186 187 186 187 186 187 187 
184 185 184 184 185 186 185 185 184 184 185 183 181 181 182 183 183 183 182 184 181 178 183 185 183 184 183 184 184 182 182 184 184 182 178 180 183 183 183 180 
184 184 185 184 184 184 186 182 181 184 185 186 185 182 184 184 184 186 186 185 188 187 185 182 182 181 185 184 179 183 184 182 181 180 183 183 183 181 182 183 
181 183 185 187 186 185 186 183 182 182 181 180 184 183 182 185 189 193 192 191 191 193 194 191 187 186 183 185 186 184 184 184 185 185 182 183 183 183 182 181 
187 186 179 182 184 182 181 183 183 181 184 185 186 183 184 190 186 169 155 150 145 146 162 186 191 188 185 184 184 181 184 185 179 182 183 182 182 184 183 182 
184 183 185 185 184 183 184 183 178 178 183 183 185 187 193 173 149 156 165 167 169 168 156 143 168 191 188 185 183 182 182 181 183 183 185 182 181 182 183 182 
179 179 180 179 178 180 179 177 179 182 183 183 184 187 163 155 173 172 161 164 166 169 171 174 143 162 184 178 178 178 179 178 179 180 179 182 180 179 181 181 
176 176 177 177 179 179 179 177 178 177 177 180 184 163 156 170 163 159 167 178 188 180 165 165 179 146 165 186 182 181 179 177 178 176 180 179 179 179 178 177 
176 178 178 177 174 176 177 177 177 176 176 179 167 157 172 167 168 176 200 216 213 212 195 172 172 170 145 173 180 177 177 176 175 174 176 177 177 178 178 178 
180 176 174 175 177 174 173 176 177 175 177 177 153 174 175 170 173 192 204 193 196 201 215 186 163 167 165 150 179 175 175 175 173 177 176 176 174 173 177 178 
179 179 179 179 177 175 175 176 177 177 177 160 163 170 171 175 178 207 191 191 186 196 195 193 177 163 167 151 163 181 179 179 178 180 180 180 182 182 178 174 
173 176 177 172 174 177 179 176 174 174 170 154 173 171 178 174 189 193 182 192 188 192 193 191 181 172 167 161 151 175 179 178 179 178 179 174 177 179 176 175 
177 175 177 179 176 177 176 178 178 179 163 160 176 175 180 170 177 182 186 180 176 184 194 186 181 178 170 173 148 167 179 180 181 176 174 178 177 176 177 174 
179 177 176 177 178 178 178 177 178 178 155 168 173 177 178 171 144 171 181 170 164 172 178 181 179 182 176 170 160 160 177 178 179 180 178 176 177 177 177 176 
177 176 176 177 179 178 179 175 176 173 151 174 172 177 176 183 165 190 179 159 158 160 170 184 177 181 180 177 171 152 169 174 175 179 176 175 176 178 176 174 
177 177 177 176 173 172 171 176 179 164 152 168 171 175 180 200 204 190 176 174 169 184 175 163 167 180 181 174 166 155 168 179 178 178 177 177 177 177 175 172 
176 172 170 169 176 177 177 176 178 159 158 174 173 178 158 163 181 164 170 168 175 181 189 180 179 179 181 177 179 158 165 177 177 174 174 176 173 171 175 174 
177 173 175 175 175 172 173 172 170 152 160 166 173 178 166 155 172 170 176 184 158 159 174 184 182 177 182 175 167 159 160 174 172 174 173 172 175 176 175 175 
175 175 174 174 173 173 172 174 172 149 166 174 175 178 172 165 176 181 179 162 172 170 156 179 174 176 182 178 173 161 156 178 178 177 174 176 175 174 171 174 
168 169 170 171 169 170 171 169 167 143 166 174 174 178 171 176 176 181 172 170 187 181 171 150 164 177 165 176 180 160 148 170 172 175 176 173 171 172 172 174 
172 172 172 171 172 170 170 172 167 138 166 173 173 176 171 142 150 162 165 187 182 179 182 174 167 168 165 174 175 160 141 170 170 170 168 171 168 171 171 171 
170 171 175 175 172 173 175 174 170 139 162 174 172 174 174 163 144 164 186 189 174 178 173 164 166 168 168 165 167 158 141 172 172 172 174 172 173 172 172 173 
175 174 175 170 172 176 172 172 172 138 156 173 170 175 174 176 171 172 195 178 169 175 164 168 177 162 163 165 170 150 141 173 176 176 175 174 170 172 170 171 
172 168 171 173 169 171 172 171 171 138 146 167 158 158 159 159 162 180 191 171 175 174 163 171 187 170 173 173 174 138 147 173 170 171 171 172 174 173 171 172 
177 175 170 170 174 172 174 174 172 147 129 170 161 160 158 162 163 169 174 168 174 185 182 171 169 166 174 172 173 120 154 173 174 174 176 175 172 172 174 175 
171 171 173 171 172 170 166 167 168 157 112 169 170 172 169 167 165 168 159 166 177 190 182 174 172 167 170 171 164 111 161 170 172 173 174 174 172 171 171 171 
172 171 171 173 169 169 171 171 169 163 113 145 170 168 169 165 180 181 179 189 179 173 171 171 154 174 172 177 132 115 168 173 174 174 168 167 169 170 171 170 
170 171 174 172 174 173 172 169 169 171 136 106 169 164 168 167 169 188 186 178 164 143 134 142 154 168 175 170 92 139 171 170 170 170 173 174 173 173 173 173 
170 171 173 173 173 173 173 174 171 167 152 93 147 166 162 169 152 128 128 127 127 132 156 165 162 162 170 128 94 158 169 172 174 174 174 173 174 169 170 171 
171 169 169 171 171 171 169 169 172 171 165 125 92 176 161 162 170 166 155 153 160 167 171 165 161 164 164 79 132 170 173 170 169 175 172 168 172 175 174 173 
171 171 170 172 170 167 170 170 168 165 167 158 95 112 184 155 153 159 165 165 165 165 159 160 165 177 94 97 156 168 172 172 172 171 171 172 170 172 172 171 
170 172 172 168 171 171 170 171 169 169 167 165 140 75 120 184 170 155 155 155 155 153 164 174 175 105 76 140 168 171 169 169 171 171 167 170 170 169 169 166 
166 169 169 170 169 167 167 168 167 168 168 166 157 121 68 100 170 189 178 170 173 181 185 160 87 73 129 162 169 171 171 172 171 171 172 172 172 169 169 170 
171 171 170 168 168 171 172 166 168 169 167 167 164 155 120 69 66 105 141 155 154 138 97 62 74 127 159 169 170 171 171 170 170 171 172 172 172 173 172 172 
170 172 170 172 169 168 169 174 173 169 164 168 170 167 155 127 88 64 55 54 53 53 61 93 131 158 168 170 166 167 171 169 167 169 168 169 167 169 170 169 
170 170 169 170 168 169 170 170 167 168 172 170 167 167 164 160 146 128 106 95 96 107 127 149 163 167 170 171 171 171 171 172 170 170 171 170 171 170 169 171 
169 169 170 170 168 169 170 170 170 171 170 170 168 168 163 162 162 160 152 150 148 153 161 165 165 168 168 168 167 168 167 167 169 169 171 171 168 170 167 167 
168 163 163 166 166 167 167 168 167 167 169 170 171 169 170 169 165 165 164 164 162 163 164 167 169 168 169 169 170 171 170 170 170 168 164 165 166 167 168 168 
167 169 168 168 165 167 168 165 165 163 161 165 167 169 170 168 165 163 164 166 167 169 167 168 167 166 167 167 169 167 166 165 166 168 168 169 167 164 166 169 
